;FLAVOR:Marlin
;TIME:1554
;Filament used: 2.03896m
;Layer height: 0.3
;Generated with Cura_SteamEngine 4.0.0
M82 ;absolute extrusion mode
; Ender 3 Custom Start G-code
M140 S60 ; Set Heat Bed temperature
M190 S60 ; Wait for Heat Bed temperature
M104 S160; start warming extruder to 160
G28 ; Home all axes
G29 ; Auto bed-level (BL-Touch)
G92 E0 ; Reset Extruder
M104 S195 ; Set Extruder temperature
G1 X0.1 Y20 Z0.3 F5000.0 ; Move to start position
M109 S195 ; Wait for Extruder temperature
; G1 Z2.0 F3000 ; Move Z Axis up little to prevent scratching of Heat Bed
G1 X0.1 Y200.0 Z0.3 F1500.0 E15 ; Draw the first line
G1 X0.4 Y200.0 Z0.3 F5000.0 ; Move to side a little
G1 X0.4 Y20 Z0.3 F1500.0 E30 ; Draw the second line
G92 E0 ; Reset Extruder
G1 Z2.0 F3000 ; Move Z Axis up little to prevent scratching of Heat Bed
; End of custom start GCode
G92 E0
G1 F4200 E-4
;LAYER_COUNT:60
;LAYER:0
M106 S178.5
M204 S1500
M205 X30 Y30
G0 F3600 X85.372 Y105.284 Z0.2
M204 S500
M205 X20 Y20
;TYPE:SKIRT
G1 F4200 E0
G1 F1200 X86.03 Y104.869 E0.02587
G1 X86.438 Y104.678 E0.04086
G1 X87.177 Y104.44 E0.06668
G1 X87.723 Y104.353 E0.08507
G1 X102.097 Y104.307 E0.56315
G1 X102.448 Y104.34 E0.57488
G1 X103.211 Y104.489 E0.60074
G1 X103.716 Y104.669 E0.61857
G1 X103.781 Y104.704 E0.62102
G1 X103.838 Y104.678 E0.62311
G1 X104.577 Y104.44 E0.64893
G1 X105.123 Y104.353 E0.66732
G1 X119.497 Y104.307 E1.1454
G1 X119.848 Y104.34 E1.15713
G1 X120.611 Y104.489 E1.18298
G1 X121.116 Y104.669 E1.20082
G1 X121.181 Y104.704 E1.20327
G1 X121.238 Y104.678 E1.20535
G1 X121.977 Y104.44 E1.23118
G1 X122.52 Y104.353 E1.24947
G1 X130.608 Y104.312 E1.51848
G1 X130.64 Y104.23 E1.52141
G1 X130.813 Y103.893 E1.53401
G1 X131.053 Y103.6 E1.5466
G1 X131.349 Y103.363 E1.55922
G1 X131.849 Y103.142 E1.5774
G1 X133.573 Y102.677 E1.63679
G1 X133.771 Y102.636 E1.64351
G1 X137.239 Y102.108 E1.76019
G1 X137.51 Y102.087 E1.76923
G1 X139.783 Y102.087 E1.84483
G1 X140.16 Y102.127 E1.85744
G1 X140.52 Y102.245 E1.87004
G1 X140.589 Y102.285 E1.87269
G1 X140.716 Y102.079 E1.88074
G1 X140.978 Y101.805 E1.89335
G1 X141.291 Y101.591 E1.90596
G1 X141.642 Y101.448 E1.91857
G1 X142.144 Y101.377 E1.93543
G1 X143.758 Y101.378 E1.98911
G1 X144.135 Y101.418 E2.00172
G1 X144.495 Y101.536 E2.01432
G1 X144.822 Y101.727 E2.02692
G1 X144.909 Y101.806 E2.03082
G1 X144.988 Y101.719 E2.03473
G1 X145.231 Y101.501 E2.04559
G1 X145.627 Y101.232 E2.06151
G1 X146.196 Y100.947 E2.08268
G1 X146.735 Y100.776 E2.10149
G1 X147.368 Y100.681 E2.12278
G1 X147.916 Y100.683 E2.141
G1 X148.517 Y100.778 E2.16124
G1 X149.041 Y100.946 E2.17954
G1 X149.613 Y101.232 E2.20081
G1 X149.932 Y101.436 E2.21341
G1 X150.145 Y101.637 E2.22315
G1 X150.509 Y102.041 E2.24124
G1 X150.732 Y102.348 E2.25386
G1 X150.885 Y102.694 E2.26644
G1 X150.963 Y103.065 E2.27905
G1 X150.972 Y103.266 E2.28574
G1 X150.943 Y105.845 E2.37152
G1 X150.899 Y106.222 E2.38415
G1 X150.777 Y106.58 E2.39673
G1 X150.582 Y106.906 E2.40936
G1 X150.412 Y107.102 E2.41799
G1 X150.077 Y107.435 E2.4337
G1 X149.782 Y107.672 E2.44629
G1 X149.613 Y107.768 E2.45275
G1 X149.041 Y108.054 E2.47402
G1 X148.503 Y108.224 E2.49279
G1 X147.87 Y108.319 E2.51408
G1 X147.31 Y108.315 E2.5327
G1 X146.68 Y108.211 E2.55394
G1 X146.315 Y108.11 E2.56654
G1 X146.135 Y108.028 E2.57312
G1 X145.561 Y107.726 E2.59469
G1 X145.246 Y107.515 E2.6073
G1 X145.063 Y107.339 E2.61574
G1 X144.926 Y107.187 E2.62255
G1 X144.645 Y107.387 E2.63402
G1 X144.298 Y107.539 E2.64662
G1 X143.757 Y107.622 E2.66483
G1 X142.3 Y107.622 E2.71329
G1 X141.923 Y107.582 E2.72589
G1 X141.7 Y107.509 E2.7337
G1 X141.7 Y127.486 E3.39814
G1 X141.759 Y127.46 E3.40028
G1 X142.301 Y127.377 E3.41852
G1 X143.758 Y127.378 E3.46698
G1 X144.135 Y127.418 E3.47959
G1 X144.495 Y127.536 E3.49219
G1 X144.822 Y127.727 E3.50478
G1 X144.909 Y127.806 E3.50869
G1 X144.989 Y127.719 E3.51262
G1 X145.237 Y127.497 E3.52369
G1 X145.633 Y127.228 E3.53962
G1 X146.197 Y126.946 E3.56059
G1 X146.735 Y126.776 E3.57936
G1 X147.368 Y126.681 E3.60064
G1 X147.916 Y126.683 E3.61887
G1 X148.517 Y126.778 E3.63911
G1 X149.041 Y126.946 E3.65741
G1 X149.613 Y127.232 E3.67868
G1 X149.932 Y127.436 E3.69128
G1 X150.145 Y127.637 E3.70102
G1 X150.509 Y128.041 E3.7191
G1 X150.732 Y128.348 E3.73172
G1 X150.885 Y128.694 E3.74431
G1 X150.963 Y129.065 E3.75692
G1 X150.972 Y129.266 E3.76361
G1 X150.943 Y131.845 E3.84939
G1 X150.899 Y132.222 E3.86202
G1 X150.777 Y132.58 E3.87459
G1 X150.582 Y132.906 E3.88723
G1 X150.412 Y133.102 E3.89586
G1 X150.077 Y133.435 E3.91157
G1 X149.782 Y133.672 E3.92415
G1 X149.613 Y133.768 E3.93062
G1 X149.041 Y134.054 E3.95189
G1 X148.503 Y134.224 E3.97066
G1 X147.87 Y134.319 E3.99195
G1 X147.31 Y134.315 E4.01057
G1 X146.68 Y134.211 E4.03181
G1 X146.315 Y134.11 E4.04441
G1 X146.135 Y134.028 E4.05098
G1 X145.561 Y133.726 E4.07256
G1 X145.246 Y133.515 E4.08517
G1 X145.063 Y133.339 E4.09361
G1 X144.926 Y133.187 E4.10042
G1 X144.645 Y133.387 E4.11189
G1 X144.298 Y133.539 E4.12449
G1 X143.757 Y133.622 E4.14269
G1 X142.151 Y133.622 E4.19611
G1 X141.774 Y133.582 E4.20872
G1 X141.414 Y133.464 E4.22132
G1 X141.087 Y133.274 E4.2339
G1 X140.806 Y133.019 E4.24652
G1 X140.587 Y132.712 E4.25906
G1 X140.423 Y132.795 E4.26517
G1 X140.057 Y132.892 E4.27777
G1 X139.782 Y132.913 E4.28694
G1 X137.494 Y132.912 E4.36304
G1 X137.224 Y132.891 E4.37205
G1 X133.761 Y132.363 E4.48856
G1 X133.562 Y132.322 E4.49532
G1 X131.847 Y131.858 E4.55441
G1 X131.494 Y131.721 E4.567
G1 X131.177 Y131.513 E4.57961
G1 X130.91 Y131.243 E4.59224
G1 X130.638 Y130.769 E4.61042
G1 X130.606 Y130.687 E4.61335
G1 X122.508 Y130.644 E4.88269
G1 X121.961 Y130.556 E4.90112
G1 X121.217 Y130.314 E4.92714
G1 X121.183 Y130.298 E4.92839
G1 X121.054 Y130.353 E4.93305
G1 X119.935 Y130.638 E4.97146
G1 X119.484 Y130.694 E4.98658
G1 X105.102 Y130.642 E5.46493
G1 X104.544 Y130.551 E5.48373
G1 X103.803 Y130.306 E5.50969
G1 X103.8 Y130.305 E5.50979
G1 X103.762 Y130.322 E5.51118
G1 X103.023 Y130.56 E5.537
G1 X102.477 Y130.647 E5.55539
G1 X88.103 Y130.693 E6.03347
G1 X87.752 Y130.66 E6.0452
G1 X86.989 Y130.511 E6.07106
G1 X86.566 Y130.372 E6.08587
G1 X85.867 Y130.042 E6.11157
G1 X85.483 Y129.797 E6.12672
G1 X84.88 Y129.295 E6.15282
G1 X84.573 Y128.966 E6.16779
G1 X84.12 Y128.339 E6.19352
G1 X83.903 Y127.943 E6.20853
G1 X83.62 Y127.222 E6.2343
G1 X83.51 Y126.788 E6.24919
G1 X83.414 Y126.022 E6.27486
G1 X83.4 Y125.795 E6.28243
G1 X83.426 Y108.797 E6.84778
G1 X83.484 Y108.348 E6.86284
G1 X83.677 Y107.604 E6.88841
G1 X83.844 Y107.185 E6.90341
G1 X84.224 Y106.498 E6.92952
G1 X84.492 Y106.132 E6.94461
G1 X85.025 Y105.569 E6.97039
G1 X85.372 Y105.284 E6.98533
M204 S1500
M205 X30 Y30
G0 F3600 X85.585 Y105.622
M204 S500
M205 X20 Y20
G1 F1200 X86.243 Y105.207 E7.0112
G1 X86.561 Y105.058 E7.02288
G1 X87.3 Y104.82 E7.04871
G1 X87.725 Y104.753 E7.06302
G1 X102.099 Y104.707 E7.5411
G1 X102.371 Y104.733 E7.55019
G1 X103.134 Y104.882 E7.57605
G1 X103.527 Y105.022 E7.58992
G1 X103.764 Y105.149 E7.59886
G1 X103.961 Y105.058 E7.60608
G1 X104.7 Y104.82 E7.6319
G1 X105.125 Y104.753 E7.64621
G1 X119.499 Y104.707 E8.1243
G1 X119.771 Y104.733 E8.13339
G1 X120.534 Y104.882 E8.15924
G1 X120.927 Y105.022 E8.17312
G1 X121.164 Y105.149 E8.18206
G1 X121.361 Y105.058 E8.18928
G1 X122.1 Y104.82 E8.2151
G1 X122.522 Y104.753 E8.22931
G1 X130.883 Y104.711 E8.50741
G1 X131.013 Y104.374 E8.51942
G1 X131.17 Y104.079 E8.53053
G1 X131.392 Y103.83 E8.54163
G1 X131.667 Y103.641 E8.55273
G1 X131.953 Y103.528 E8.56296
G1 X133.677 Y103.063 E8.62235
G1 X133.831 Y103.031 E8.62758
G1 X137.299 Y102.503 E8.74425
G1 X137.51 Y102.487 E8.75129
G1 X139.783 Y102.487 E8.82689
G1 X140.115 Y102.527 E8.83801
G1 X140.427 Y102.644 E8.8491
G1 X140.773 Y102.897 E8.86335
G1 X140.78 Y102.904 E8.86368
G1 X140.802 Y102.776 E8.868
G1 X140.935 Y102.47 E8.8791
G1 X141.137 Y102.203 E8.89023
G1 X141.396 Y101.993 E8.90132
G1 X141.698 Y101.85 E8.91244
G1 X142.144 Y101.777 E8.92747
G1 X143.758 Y101.778 E8.98115
G1 X144.09 Y101.818 E8.99227
G1 X144.402 Y101.936 E9.00337
G1 X144.678 Y102.124 E9.01447
G1 X144.902 Y102.372 E9.02559
G1 X144.939 Y102.441 E9.02819
G1 X144.955 Y102.4 E9.02966
G1 X145.255 Y102.017 E9.04584
G1 X145.498 Y101.799 E9.0567
G1 X145.806 Y101.589 E9.0691
G1 X146.375 Y101.304 E9.09026
G1 X146.794 Y101.172 E9.10487
G1 X147.427 Y101.077 E9.12616
G1 X147.854 Y101.078 E9.14036
G1 X148.455 Y101.173 E9.1606
G1 X148.862 Y101.304 E9.17482
G1 X149.434 Y101.59 E9.19609
G1 X149.713 Y101.774 E9.20721
G1 X149.848 Y101.905 E9.21347
G1 X150.212 Y102.309 E9.23155
G1 X150.405 Y102.582 E9.24267
G1 X150.527 Y102.893 E9.25378
G1 X150.572 Y103.262 E9.26615
G1 X150.543 Y105.841 E9.35193
G1 X150.499 Y106.172 E9.36304
G1 X150.379 Y106.483 E9.37412
G1 X150.13 Y106.818 E9.38801
G1 X149.795 Y107.151 E9.40372
G1 X149.434 Y107.41 E9.41849
G1 X148.862 Y107.696 E9.43977
G1 X148.444 Y107.828 E9.45434
G1 X147.811 Y107.923 E9.47563
G1 X147.375 Y107.92 E9.49014
G1 X146.745 Y107.816 E9.51137
G1 X146.321 Y107.674 E9.52625
G1 X145.747 Y107.372 E9.54782
G1 X145.36 Y107.071 E9.56412
G1 X145.118 Y106.803 E9.57613
G1 X144.941 Y106.553 E9.58632
G1 X144.812 Y106.743 E9.59396
G1 X144.564 Y106.966 E9.60505
G1 X144.27 Y107.125 E9.61617
G1 X143.946 Y107.209 E9.6273
G1 X143.757 Y107.222 E9.6336
G1 X142.3 Y107.222 E9.68206
G1 X141.968 Y107.182 E9.69319
G1 X141.656 Y107.065 E9.70427
G1 X141.379 Y106.877 E9.7154
G1 X141.3 Y106.789 E9.71934
G1 X141.3 Y128.207 E10.4317
G1 X141.493 Y128.033 E10.44035
G1 X141.787 Y127.874 E10.45146
G1 X142.111 Y127.79 E10.46259
G1 X142.301 Y127.777 E10.46893
G1 X143.758 Y127.778 E10.51739
G1 X144.09 Y127.818 E10.52851
G1 X144.402 Y127.936 E10.53961
G1 X144.678 Y128.124 E10.55071
G1 X144.902 Y128.372 E10.56183
G1 X144.939 Y128.441 E10.56443
G1 X144.955 Y128.401 E10.56587
G1 X145.256 Y128.017 E10.58209
G1 X145.504 Y127.795 E10.59316
G1 X145.812 Y127.586 E10.60554
G1 X146.376 Y127.304 E10.62652
G1 X146.794 Y127.172 E10.6411
G1 X147.427 Y127.077 E10.66239
G1 X147.854 Y127.078 E10.67659
G1 X148.455 Y127.173 E10.69683
G1 X148.862 Y127.304 E10.71105
G1 X149.434 Y127.59 E10.73232
G1 X149.713 Y127.774 E10.74343
G1 X149.848 Y127.905 E10.74969
G1 X150.212 Y128.309 E10.76778
G1 X150.405 Y128.582 E10.7789
G1 X150.527 Y128.893 E10.79001
G1 X150.572 Y129.262 E10.80237
G1 X150.543 Y131.841 E10.88815
G1 X150.499 Y132.172 E10.89926
G1 X150.379 Y132.483 E10.91035
G1 X150.13 Y132.818 E10.92423
G1 X149.795 Y133.151 E10.93994
G1 X149.434 Y133.41 E10.95472
G1 X148.862 Y133.696 E10.97599
G1 X148.444 Y133.828 E10.99057
G1 X147.811 Y133.923 E11.01186
G1 X147.375 Y133.92 E11.02636
G1 X146.745 Y133.816 E11.0476
G1 X146.321 Y133.674 E11.06247
G1 X145.747 Y133.372 E11.08404
G1 X145.36 Y133.071 E11.10035
G1 X145.118 Y132.803 E11.11236
G1 X144.941 Y132.553 E11.12255
G1 X144.812 Y132.743 E11.13018
G1 X144.564 Y132.966 E11.14128
G1 X144.27 Y133.125 E11.15239
G1 X143.946 Y133.209 E11.16353
G1 X143.757 Y133.222 E11.16983
G1 X142.151 Y133.222 E11.22324
G1 X141.819 Y133.182 E11.23437
G1 X141.507 Y133.065 E11.24545
G1 X141.23 Y132.877 E11.25658
G1 X141.007 Y132.629 E11.26768
G1 X140.848 Y132.335 E11.27879
G1 X140.785 Y132.091 E11.28717
G1 X140.773 Y132.103 E11.28774
G1 X140.51 Y132.309 E11.29885
G1 X140.206 Y132.448 E11.30997
G1 X139.782 Y132.513 E11.32423
G1 X137.494 Y132.512 E11.40033
G1 X137.284 Y132.496 E11.40734
G1 X133.821 Y131.968 E11.52385
G1 X133.666 Y131.935 E11.52912
G1 X131.951 Y131.471 E11.58821
G1 X131.642 Y131.346 E11.5993
G1 X131.37 Y131.151 E11.61043
G1 X131.153 Y130.898 E11.62152
G1 X131.011 Y130.625 E11.63175
G1 X130.881 Y130.289 E11.64373
G1 X122.51 Y130.244 E11.92216
G1 X122.085 Y130.175 E11.93648
G1 X121.341 Y129.933 E11.9625
G1 X121.194 Y129.865 E11.96789
G1 X120.956 Y129.966 E11.97649
G1 X119.837 Y130.251 E12.01489
G1 X119.486 Y130.294 E12.02666
G1 X105.104 Y130.242 E12.50501
G1 X104.67 Y130.171 E12.51963
G1 X103.929 Y129.926 E12.54559
G1 X103.802 Y129.867 E12.55025
G1 X103.639 Y129.942 E12.55622
G1 X102.9 Y130.18 E12.58204
G1 X102.475 Y130.247 E12.59635
G1 X88.101 Y130.293 E13.07443
G1 X87.829 Y130.267 E13.08352
G1 X87.066 Y130.118 E13.10938
G1 X86.736 Y130.01 E13.12093
G1 X86.037 Y129.68 E13.14663
G1 X85.739 Y129.49 E13.15839
G1 X85.136 Y128.988 E13.18449
G1 X84.897 Y128.732 E13.19613
G1 X84.444 Y128.105 E13.22186
G1 X84.276 Y127.797 E13.23353
G1 X83.993 Y127.076 E13.25929
G1 X83.907 Y126.738 E13.27089
G1 X83.811 Y125.972 E13.29657
G1 X83.8 Y125.796 E13.30243
G1 X83.826 Y108.798 E13.86779
G1 X83.871 Y108.448 E13.87953
G1 X84.064 Y107.704 E13.90509
G1 X84.194 Y107.378 E13.91677
G1 X84.574 Y106.691 E13.94288
G1 X84.782 Y106.407 E13.95459
G1 X85.315 Y105.844 E13.98037
G1 X85.585 Y105.622 E13.992
M204 S1500
M205 X30 Y30
G0 F3600 X85.799 Y105.96
M204 S500
M205 X20 Y20
G1 F1200 X86.457 Y105.545 E14.01787
G1 X86.683 Y105.439 E14.02617
G1 X87.422 Y105.201 E14.052
G1 X87.726 Y105.153 E14.06223
G1 X102.1 Y105.107 E14.54032
G1 X102.295 Y105.126 E14.54683
G1 X103.058 Y105.275 E14.57269
G1 X103.338 Y105.374 E14.58257
G1 X103.765 Y105.602 E14.59867
G1 X103.864 Y105.541 E14.60254
G1 X104.083 Y105.439 E14.61057
G1 X104.822 Y105.201 E14.63639
G1 X105.126 Y105.153 E14.64663
G1 X119.5 Y105.107 E15.12471
G1 X119.695 Y105.126 E15.13123
G1 X120.458 Y105.275 E15.15709
G1 X120.738 Y105.374 E15.16696
G1 X121.165 Y105.602 E15.18306
G1 X121.264 Y105.541 E15.18693
G1 X121.483 Y105.439 E15.19497
G1 X122.222 Y105.201 E15.22079
G1 X122.524 Y105.153 E15.23096
G1 X131.157 Y105.109 E15.5181
G1 X131.386 Y104.519 E15.53915
G1 X131.524 Y104.273 E15.54853
G1 X131.725 Y104.075 E15.55791
G1 X132.058 Y103.915 E15.5702
G1 X133.782 Y103.45 E15.62959
G1 X133.891 Y103.426 E15.6333
G1 X137.359 Y102.898 E15.74998
G1 X137.51 Y102.887 E15.75501
G1 X139.783 Y102.887 E15.83062
G1 X140.062 Y102.927 E15.83999
G1 X140.319 Y103.043 E15.84937
G1 X140.49 Y103.18 E15.85666
G1 X140.607 Y103.297 E15.86216
G1 X140.776 Y103.523 E15.87154
G1 X140.876 Y103.787 E15.88093
G1 X140.9 Y104.004 E15.8882
G1 X140.9 Y130.996 E16.78595
G1 X140.86 Y131.275 E16.79533
G1 X140.744 Y131.532 E16.80471
G1 X140.607 Y131.703 E16.81199
G1 X140.49 Y131.82 E16.8175
G1 X140.264 Y131.989 E16.82688
G1 X140 Y132.089 E16.83627
G1 X139.783 Y132.113 E16.84353
G1 X137.495 Y132.112 E16.91963
G1 X137.344 Y132.101 E16.92467
G1 X133.881 Y131.573 E17.04118
G1 X133.771 Y131.549 E17.04492
G1 X132.056 Y131.085 E17.10402
G1 X131.797 Y130.974 E17.11339
G1 X131.579 Y130.795 E17.12277
G1 X131.384 Y130.481 E17.13506
G1 X131.156 Y129.89 E17.15613
G1 X122.513 Y129.844 E17.4436
G1 X122.209 Y129.795 E17.45385
G1 X121.465 Y129.553 E17.47987
G1 X121.245 Y129.45 E17.48795
G1 X121.198 Y129.421 E17.48978
G1 X121.136 Y129.459 E17.4922
G1 X120.857 Y129.578 E17.50229
G1 X119.738 Y129.863 E17.5407
G1 X119.487 Y129.894 E17.54911
G1 X105.105 Y129.842 E18.02746
G1 X104.795 Y129.791 E18.03791
G1 X104.054 Y129.546 E18.06387
G1 X103.84 Y129.446 E18.07172
G1 X103.799 Y129.42 E18.07334
G1 X103.736 Y129.459 E18.0758
G1 X103.517 Y129.561 E18.08384
G1 X102.778 Y129.799 E18.10966
G1 X102.474 Y129.847 E18.1199
G1 X88.1 Y129.893 E18.59798
G1 X87.905 Y129.874 E18.6045
G1 X87.142 Y129.725 E18.63035
G1 X86.907 Y129.648 E18.63858
G1 X86.208 Y129.318 E18.66429
G1 X85.995 Y129.183 E18.67267
G1 X85.392 Y128.681 E18.69877
G1 X85.221 Y128.498 E18.7071
G1 X84.768 Y127.871 E18.73283
G1 X84.648 Y127.65 E18.74119
G1 X84.365 Y126.929 E18.76695
G1 X84.304 Y126.688 E18.77522
G1 X84.208 Y125.922 E18.8009
G1 X84.2 Y125.796 E18.8051
G1 X84.226 Y108.798 E19.37046
G1 X84.258 Y108.549 E19.37881
G1 X84.451 Y107.805 E19.40437
G1 X84.544 Y107.572 E19.41271
G1 X84.924 Y106.885 E19.43883
G1 X85.073 Y106.682 E19.4472
G1 X85.606 Y106.119 E19.47299
G1 X85.799 Y105.96 E19.4813
M204 S1500
M205 X30 Y30
G0 F3600 X86.012 Y106.299
M204 S500
M205 X20 Y20
G1 F1200 X86.67 Y105.884 E19.50718
G1 X86.806 Y105.82 E19.51218
G1 X87.545 Y105.582 E19.538
G1 X87.727 Y105.553 E19.54413
G1 X102.101 Y105.507 E20.02221
G1 X102.218 Y105.518 E20.02612
G1 X102.981 Y105.667 E20.05198
G1 X103.149 Y105.727 E20.05791
G1 X103.778 Y106.064 E20.08165
G1 X104.074 Y105.881 E20.09322
G1 X104.206 Y105.82 E20.09806
G1 X104.945 Y105.582 E20.12388
G1 X105.127 Y105.553 E20.13001
