;FLAVOR:Marlin
;TIME:682
;Filament used: 0.871148m
;Layer height: 0.3
;Generated with Cura_SteamEngine 4.0.0
M82 ;absolute extrusion mode
; Ender 3 Custom Start G-code
M140 S60 ; Set Heat Bed temperature
M190 S60 ; Wait for Heat Bed temperature
M104 S160; start warming extruder to 160
G28 ; Home all axes
G29 ; Auto bed-level (BL-Touch)
G92 E0 ; Reset Extruder
M104 S195 ; Set Extruder temperature
G1 X0.1 Y20 Z0.3 F5000.0 ; Move to start position
M109 S195 ; Wait for Extruder temperature
; G1 Z2.0 F3000 ; Move Z Axis up little to prevent scratching of Heat Bed
G1 X0.1 Y200.0 Z0.3 F1500.0 E15 ; Draw the first line
G1 X0.4 Y200.0 Z0.3 F5000.0 ; Move to side a little
G1 X0.4 Y20 Z0.3 F1500.0 E30 ; Draw the second line
G92 E0 ; Reset Extruder
G1 Z2.0 F3000 ; Move Z Axis up little to prevent scratching of Heat Bed
; End of custom start GCode
G92 E0
G1 F4200 E-4
;LAYER_COUNT:43
;LAYER:0
M106 S178.5
M204 S1500
M205 X30 Y30
G0 F3600 X103.294 Y103.691 Z0.2
M204 S500
M205 X20 Y20
;TYPE:SKIRT
G1 F4200 E0
G1 F1200 X103.896 Y103.194 E0.02596
G1 X104.277 Y102.953 E0.04096
G1 X104.98 Y102.623 E0.06679
G1 X105.407 Y102.484 E0.08172
G1 X106.171 Y102.338 E0.10759
G1 X106.522 Y102.306 E0.11932
G1 X113.904 Y102.359 E0.36485
G1 X114.444 Y102.446 E0.38304
G1 X115.163 Y102.678 E0.40817
G1 X115.57 Y102.869 E0.42312
G1 X116.228 Y103.284 E0.449
G1 X116.575 Y103.569 E0.46393
G1 X116.919 Y103.932 E0.48057
G1 X117.033 Y103.616 E0.49174
G1 X117.235 Y103.231 E0.5062
G1 X117.445 Y102.916 E0.51879
G1 X117.717 Y102.651 E0.53142
G1 X117.907 Y102.521 E0.53908
G1 X118.209 Y102.341 E0.55077
G1 X118.554 Y102.182 E0.56341
G1 X118.923 Y102.099 E0.57599
G1 X119.131 Y102.087 E0.58292
G1 X121.383 Y102.087 E0.65782
G1 X121.76 Y102.127 E0.67043
G1 X122.12 Y102.245 E0.68303
G1 X122.189 Y102.285 E0.68568
G1 X122.316 Y102.079 E0.69373
G1 X122.578 Y101.805 E0.70634
G1 X122.891 Y101.591 E0.71895
G1 X123.242 Y101.448 E0.73156
G1 X123.744 Y101.377 E0.74842
G1 X125.358 Y101.378 E0.8021
G1 X125.735 Y101.418 E0.81471
G1 X126.095 Y101.536 E0.82731
G1 X126.422 Y101.727 E0.83991
G1 X126.509 Y101.806 E0.84382
G1 X126.588 Y101.719 E0.84772
G1 X126.831 Y101.501 E0.85858
G1 X127.227 Y101.232 E0.8745
G1 X127.796 Y100.947 E0.89567
G1 X128.335 Y100.776 E0.91448
G1 X128.968 Y100.681 E0.93577
G1 X129.516 Y100.683 E0.95399
G1 X130.117 Y100.778 E0.97423
G1 X130.641 Y100.946 E0.99253
G1 X131.213 Y101.232 E1.0138
G1 X131.532 Y101.436 E1.0264
G1 X131.745 Y101.637 E1.03614
G1 X132.109 Y102.041 E1.05423
G1 X132.332 Y102.348 E1.06685
G1 X132.485 Y102.694 E1.07943
G1 X132.563 Y103.065 E1.09204
G1 X132.572 Y103.266 E1.09873
G1 X132.543 Y105.845 E1.18451
G1 X132.499 Y106.222 E1.19714
G1 X132.377 Y106.58 E1.20972
G1 X132.182 Y106.906 E1.22235
G1 X132.012 Y107.102 E1.23098
G1 X131.677 Y107.435 E1.24669
G1 X131.382 Y107.672 E1.25928
G1 X131.213 Y107.768 E1.26574
G1 X130.641 Y108.054 E1.28701
G1 X130.103 Y108.224 E1.30578
G1 X129.47 Y108.319 E1.32707
G1 X128.91 Y108.315 E1.34569
G1 X128.279 Y108.211 E1.36696
G1 X127.741 Y108.032 E1.38582
G1 X127.172 Y107.736 E1.40716
G1 X126.856 Y107.527 E1.41976
G1 X126.668 Y107.346 E1.42844
G1 X126.525 Y107.188 E1.43552
G1 X126.245 Y107.387 E1.44695
G1 X125.898 Y107.539 E1.45955
G1 X125.357 Y107.622 E1.47775
G1 X123.9 Y107.622 E1.52621
G1 X123.523 Y107.582 E1.53882
G1 X123.3 Y107.509 E1.54663
G1 X123.3 Y127.486 E2.21107
G1 X123.359 Y127.46 E2.21321
G1 X123.901 Y127.377 E2.23145
G1 X125.358 Y127.378 E2.27991
G1 X125.735 Y127.418 E2.29252
G1 X126.095 Y127.536 E2.30512
G1 X126.422 Y127.727 E2.31771
G1 X126.509 Y127.806 E2.32162
G1 X126.589 Y127.719 E2.32555
G1 X126.837 Y127.497 E2.33662
G1 X127.233 Y127.228 E2.35255
G1 X127.797 Y126.946 E2.37352
G1 X128.335 Y126.776 E2.39228
G1 X128.968 Y126.681 E2.41357
G1 X129.516 Y126.683 E2.4318
G1 X130.117 Y126.778 E2.45204
G1 X130.641 Y126.946 E2.47034
G1 X131.213 Y127.232 E2.49161
G1 X131.532 Y127.436 E2.5042
G1 X131.745 Y127.637 E2.51395
G1 X132.109 Y128.041 E2.53203
G1 X132.332 Y128.348 E2.54465
G1 X132.485 Y128.694 E2.55723
G1 X132.563 Y129.065 E2.56984
G1 X132.572 Y129.266 E2.57654
G1 X132.543 Y131.845 E2.66232
G1 X132.499 Y132.222 E2.67494
G1 X132.377 Y132.58 E2.68752
G1 X132.182 Y132.906 E2.70016
G1 X132.012 Y133.102 E2.70879
G1 X131.677 Y133.435 E2.7245
G1 X131.382 Y133.672 E2.73708
G1 X131.213 Y133.768 E2.74355
G1 X130.641 Y134.054 E2.76482
G1 X130.103 Y134.224 E2.78358
G1 X129.47 Y134.319 E2.80487
G1 X128.91 Y134.315 E2.8235
G1 X128.279 Y134.211 E2.84477
G1 X127.741 Y134.032 E2.86363
G1 X127.172 Y133.736 E2.88496
G1 X126.856 Y133.527 E2.89756
G1 X126.668 Y133.346 E2.90624
G1 X126.525 Y133.188 E2.91333
G1 X126.245 Y133.387 E2.92476
G1 X125.898 Y133.539 E2.93736
G1 X125.357 Y133.622 E2.95556
G1 X123.751 Y133.622 E3.00898
G1 X123.374 Y133.582 E3.02158
G1 X123.014 Y133.464 E3.03419
G1 X122.687 Y133.274 E3.04676
G1 X122.406 Y133.019 E3.05938
G1 X122.187 Y132.712 E3.07193
G1 X122.023 Y132.795 E3.07804
G1 X121.657 Y132.892 E3.09063
G1 X121.369 Y132.913 E3.10024
G1 X119.061 Y132.895 E3.17701
G1 X118.684 Y132.852 E3.18963
G1 X118.325 Y132.731 E3.20223
G1 X118.015 Y132.55 E3.21417
G1 X117.731 Y132.343 E3.22585
G1 X117.45 Y132.088 E3.23848
G1 X117.151 Y131.629 E3.25669
G1 X116.977 Y131.244 E3.27075
G1 X116.923 Y131.079 E3.27652
G1 X116.706 Y131.309 E3.28704
G1 X116.104 Y131.806 E3.313
G1 X115.723 Y132.047 E3.328
G1 X115.02 Y132.377 E3.35383
G1 X114.592 Y132.516 E3.36879
G1 X113.825 Y132.662 E3.39476
G1 X113.475 Y132.694 E3.40645
G1 X106.089 Y132.642 E3.65212
G1 X105.531 Y132.549 E3.67093
G1 X104.792 Y132.302 E3.69685
G1 X104.388 Y132.108 E3.71176
G1 X103.738 Y131.689 E3.73748
G1 X103.401 Y131.408 E3.75207
G1 X102.88 Y130.853 E3.77739
G1 X102.613 Y130.486 E3.79248
G1 X102.236 Y129.798 E3.81858
G1 X102.071 Y129.377 E3.83362
G1 X101.881 Y128.631 E3.85922
G1 X101.825 Y128.189 E3.87404
G1 X101.8 Y107.205 E4.57197
G1 X101.814 Y106.976 E4.5796
G1 X101.913 Y106.197 E4.60572
G1 X102.026 Y105.76 E4.62073
G1 X102.312 Y105.039 E4.64653
G1 X102.531 Y104.642 E4.66161
G1 X102.986 Y104.018 E4.6873
G1 X103.294 Y103.691 E4.70224
M204 S1500
M205 X30 Y30
G0 F3600 X103.549 Y103.999
M204 S500
M205 X20 Y20
G1 F1200 X104.151 Y103.502 E4.7282
G1 X104.447 Y103.315 E4.73985
G1 X105.15 Y102.985 E4.76568
G1 X105.482 Y102.877 E4.77729
G1 X106.246 Y102.731 E4.80316
G1 X106.519 Y102.706 E4.81228
G1 X113.901 Y102.759 E5.05781
G1 X114.321 Y102.827 E5.07196
G1 X115.04 Y103.059 E5.09709
G1 X115.357 Y103.207 E5.10873
G1 X116.015 Y103.622 E5.1346
G1 X116.285 Y103.844 E5.14623
G1 X116.818 Y104.407 E5.17201
G1 X117.026 Y104.691 E5.18372
G1 X117.227 Y105.054 E5.19752
G1 X117.227 Y104.451 E5.21758
G1 X117.267 Y104.12 E5.22867
G1 X117.387 Y103.802 E5.23997
G1 X117.589 Y103.417 E5.25443
G1 X117.779 Y103.141 E5.26558
G1 X118.112 Y102.864 E5.27998
G1 X118.414 Y102.684 E5.29168
G1 X118.72 Y102.549 E5.3028
G1 X119.131 Y102.487 E5.31662
G1 X121.383 Y102.487 E5.39153
G1 X121.715 Y102.527 E5.40265
G1 X122.027 Y102.644 E5.41373
G1 X122.373 Y102.897 E5.42799
G1 X122.38 Y102.904 E5.42832
G1 X122.402 Y102.776 E5.43264
G1 X122.535 Y102.47 E5.44373
G1 X122.737 Y102.203 E5.45487
G1 X122.996 Y101.993 E5.46596
G1 X123.298 Y101.85 E5.47707
G1 X123.744 Y101.777 E5.49211
G1 X125.358 Y101.778 E5.54579
G1 X125.69 Y101.818 E5.55691
G1 X126.002 Y101.936 E5.568
G1 X126.278 Y102.124 E5.57911
G1 X126.502 Y102.372 E5.59023
G1 X126.539 Y102.441 E5.59283
G1 X126.555 Y102.4 E5.59429
G1 X126.855 Y102.017 E5.61048
G1 X127.098 Y101.799 E5.62133
G1 X127.406 Y101.589 E5.63373
G1 X127.975 Y101.304 E5.6549
G1 X128.394 Y101.172 E5.66951
G1 X129.027 Y101.077 E5.6908
G1 X129.454 Y101.078 E5.705
G1 X130.055 Y101.173 E5.72524
G1 X130.462 Y101.304 E5.73946
G1 X131.034 Y101.59 E5.76073
G1 X131.313 Y101.774 E5.77185
G1 X131.448 Y101.905 E5.7781
G1 X131.812 Y102.309 E5.79619
G1 X132.005 Y102.582 E5.80731
G1 X132.127 Y102.893 E5.81842
G1 X132.172 Y103.262 E5.83078
G1 X132.143 Y105.841 E5.91657
G1 X132.099 Y106.172 E5.92767
G1 X131.979 Y106.483 E5.93876
G1 X131.73 Y106.818 E5.95264
G1 X131.395 Y107.151 E5.96835
G1 X131.034 Y107.41 E5.98313
G1 X130.462 Y107.696 E6.0044
G1 X130.044 Y107.828 E6.01898
G1 X129.411 Y107.923 E6.04027
G1 X128.975 Y107.92 E6.05477
G1 X128.344 Y107.816 E6.07604
G1 X127.926 Y107.677 E6.09069
G1 X127.357 Y107.381 E6.11203
G1 X126.965 Y107.078 E6.12851
G1 X126.719 Y106.806 E6.1407
G1 X126.541 Y106.554 E6.15096
G1 X126.412 Y106.743 E6.15858
G1 X126.164 Y106.966 E6.16967
G1 X125.87 Y107.125 E6.18079
G1 X125.546 Y107.209 E6.19192
G1 X125.357 Y107.222 E6.19822
G1 X123.9 Y107.222 E6.24668
G1 X123.568 Y107.182 E6.2578
G1 X123.256 Y107.065 E6.26888
G1 X122.979 Y106.877 E6.28002
G1 X122.9 Y106.789 E6.28395
G1 X122.9 Y128.207 E6.99632
G1 X123.093 Y128.033 E7.00496
G1 X123.387 Y127.874 E7.01608
G1 X123.711 Y127.79 E7.02721
G1 X123.901 Y127.777 E7.03354
G1 X125.358 Y127.778 E7.082
G1 X125.69 Y127.818 E7.09313
G1 X126.002 Y127.936 E7.10422
G1 X126.278 Y128.124 E7.11533
G1 X126.502 Y128.372 E7.12644
G1 X126.539 Y128.441 E7.12905
G1 X126.555 Y128.401 E7.13048
G1 X126.856 Y128.017 E7.14671
G1 X127.104 Y127.795 E7.15778
G1 X127.412 Y127.586 E7.17016
G1 X127.976 Y127.304 E7.19113
G1 X128.394 Y127.172 E7.20571
G1 X129.027 Y127.077 E7.227
G1 X129.454 Y127.078 E7.2412
G1 X130.055 Y127.173 E7.26144
G1 X130.462 Y127.304 E7.27566
G1 X131.034 Y127.59 E7.29693
G1 X131.313 Y127.774 E7.30805
G1 X131.448 Y127.905 E7.3143
G1 X131.812 Y128.309 E7.33239
G1 X132.005 Y128.582 E7.34351
G1 X132.127 Y128.893 E7.35462
G1 X132.172 Y129.262 E7.36699
G1 X132.143 Y131.841 E7.45277
G1 X132.099 Y132.172 E7.46387
G1 X131.979 Y132.483 E7.47496
G1 X131.73 Y132.818 E7.48884
G1 X131.395 Y133.151 E7.50455
G1 X131.034 Y133.41 E7.51933
G1 X130.462 Y133.696 E7.5406
G1 X130.044 Y133.828 E7.55518
G1 X129.411 Y133.923 E7.57647
G1 X128.975 Y133.92 E7.59097
G1 X128.344 Y133.816 E7.61224
G1 X127.926 Y133.677 E7.62689
G1 X127.357 Y133.381 E7.64823
G1 X126.965 Y133.078 E7.66471
G1 X126.719 Y132.806 E7.6769
G1 X126.541 Y132.554 E7.68717
G1 X126.412 Y132.743 E7.69478
G1 X126.164 Y132.966 E7.70587
G1 X125.87 Y133.125 E7.71699
G1 X125.546 Y133.209 E7.72812
G1 X125.357 Y133.222 E7.73442
G1 X123.751 Y133.222 E7.78784
G1 X123.419 Y133.182 E7.79896
G1 X123.107 Y133.065 E7.81004
G1 X122.83 Y132.877 E7.82118
G1 X122.607 Y132.629 E7.83227
G1 X122.448 Y132.335 E7.84339
G1 X122.385 Y132.091 E7.85177
G1 X122.373 Y132.103 E7.85233
G1 X122.11 Y132.309 E7.86344
G1 X121.806 Y132.448 E7.87456
G1 X121.372 Y132.513 E7.88916
G1 X119.064 Y132.495 E7.96592
G1 X118.733 Y132.453 E7.97702
G1 X118.421 Y132.333 E7.98814
G1 X118.25 Y132.226 E7.99485
G1 X117.966 Y132.019 E8.00654
G1 X117.722 Y131.792 E8.01762
G1 X117.515 Y131.465 E8.03049
G1 X117.341 Y131.08 E8.04455
G1 X117.241 Y130.761 E8.05566
G1 X117.217 Y130.502 E8.06432
G1 X117.217 Y129.993 E8.08124
G1 X117.146 Y130.122 E8.08614
G1 X116.691 Y130.746 E8.11183
G1 X116.451 Y131.001 E8.12348
G1 X115.849 Y131.498 E8.14944
G1 X115.553 Y131.685 E8.16108
G1 X114.85 Y132.015 E8.18691
G1 X114.517 Y132.123 E8.19856
G1 X113.75 Y132.269 E8.22453
G1 X113.478 Y132.294 E8.23361
G1 X106.092 Y132.242 E8.47928
G1 X105.658 Y132.17 E8.49391
G1 X104.919 Y131.923 E8.51983
G1 X104.604 Y131.772 E8.53144
G1 X103.954 Y131.353 E8.55717
G1 X103.692 Y131.134 E8.56852
G1 X103.171 Y130.579 E8.59384
G1 X102.964 Y130.294 E8.60556
G1 X102.587 Y129.606 E8.63165
G1 X102.458 Y129.279 E8.64334
G1 X102.268 Y128.533 E8.66895
G1 X102.225 Y128.189 E8.68048
G1 X102.2 Y107.205 E9.37841
G1 X102.211 Y107.026 E9.38437
G1 X102.31 Y106.247 E9.41049
G1 X102.398 Y105.908 E9.42214
G1 X102.684 Y105.187 E9.44794
G1 X102.854 Y104.878 E9.45967
G1 X103.309 Y104.254 E9.48535
G1 X103.549 Y103.999 E9.497
M204 S1500
M205 X30 Y30
G0 F3600 X103.803 Y104.308
M204 S500
M205 X20 Y20
G1 F1200 X104.405 Y103.811 E9.52297
G1 X104.617 Y103.677 E9.53131
G1 X105.32 Y103.347 E9.55714
G1 X105.557 Y103.27 E9.56542
G1 X106.321 Y103.124 E9.5913
G1 X106.516 Y103.106 E9.59781
G1 X113.898 Y103.159 E9.84334
G1 X114.198 Y103.207 E9.85345
G1 X114.917 Y103.439 E9.87857
G1 X115.143 Y103.545 E9.88688
G1 X115.801 Y103.96 E9.91275
G1 X115.994 Y104.119 E9.92107
G1 X116.527 Y104.682 E9.94685
G1 X116.676 Y104.885 E9.95523
G1 X117.055 Y105.57 E9.98127
G1 X117.148 Y105.802 E9.98958
G1 X117.342 Y106.548 E10.01522
G1 X117.374 Y106.799 E10.02363
G1 X117.4 Y127.796 E10.722
G1 X117.392 Y127.923 E10.72623
G1 X117.293 Y128.702 E10.75235
G1 X117.231 Y128.945 E10.76069
G1 X116.945 Y129.666 E10.78649
G1 X116.823 Y129.886 E10.79485
G1 X116.368 Y130.51 E10.82054
G1 X116.197 Y130.692 E10.82885
G1 X115.595 Y131.189 E10.85481
G1 X115.383 Y131.323 E10.86315
G1 X114.68 Y131.653 E10.88898
G1 X114.442 Y131.73 E10.8973
G1 X113.675 Y131.876 E10.92327
G1 X113.481 Y131.894 E10.92975
G1 X106.095 Y131.842 E11.17542
G1 X105.785 Y131.79 E11.18587
G1 X105.046 Y131.543 E11.21179
G1 X104.821 Y131.436 E11.22007
G1 X104.171 Y131.017 E11.24579
G1 X103.984 Y130.86 E11.25392
G1 X103.463 Y130.305 E11.27923
G1 X103.315 Y130.102 E11.28759
G1 X102.938 Y129.414 E11.31368
G1 X102.846 Y129.18 E11.32205
G1 X102.656 Y128.434 E11.34765
G1 X102.625 Y128.188 E11.3559
G1 X102.6 Y107.204 E12.05383
G1 X102.608 Y107.077 E12.05806
G1 X102.707 Y106.298 E12.08418
G1 X102.769 Y106.055 E12.09252
G1 X103.055 Y105.334 E12.11832
G1 X103.177 Y105.114 E12.12669
G1 X103.632 Y104.49 E12.15237
G1 X103.803 Y104.308 E12.16068
M204 S1500
M205 X30 Y30
G0 F3600 X104.058 Y104.616
M204 S500
M205 X20 Y20
G1 F1200 X104.66 Y104.119 E12.18664
G1 X104.787 Y104.039 E12.19163
G1 X105.49 Y103.709 E12.21746
G1 X105.632 Y103.663 E12.22243
G1 X106.396 Y103.517 E12.2483
G1 X106.513 Y103.506 E12.25221
G1 X113.895 Y103.559 E12.49774
G1 X114.075 Y103.588 E12.5038
G1 X114.794 Y103.82 E12.52893
G1 X114.93 Y103.884 E12.53393
G1 X115.588 Y104.299 E12.55981
G1 X115.704 Y104.394 E12.56479
G1 X116.237 Y104.957 E12.59058
G1 X116.326 Y105.079 E12.5956
G1 X116.705 Y105.764 E12.62164
G1 X116.761 Y105.903 E12.62662
G1 X116.955 Y106.649 E12.65226
G1 X116.974 Y106.799 E12.65729
G1 X117 Y127.796 E13.35565
G1 X116.995 Y127.873 E13.35822
G1 X116.896 Y128.652 E13.38434
G1 X116.859 Y128.797 E13.38932
G1 X116.573 Y129.518 E13.41511
G1 X116.5 Y129.651 E13.42016
G1 X116.045 Y130.275 E13.44585
G1 X115.942 Y130.384 E13.45083
G1 X115.34 Y130.881 E13.4768
G1 X115.213 Y130.961 E13.48179
G1 X114.51 Y131.291 E13.50762
G1 X114.367 Y131.337 E13.51262
G1 X113.6 Y131.483 E13.53858
G1 X113.484 Y131.494 E13.54246
G1 X106.098 Y131.442 E13.78813
G1 X105.912 Y131.411 E13.7944
G1 X105.173 Y131.164 E13.82031
G1 X105.038 Y131.099 E13.8253
G1 X104.388 Y130.68 E13.85102
G1 X104.276 Y130.587 E13.85586
G1 X103.755 Y130.032 E13.88118
G1 X103.666 Y129.909 E13.88623
G1 X103.289 Y129.221 E13.91232
G1 X103.234 Y129.081 E13.91732
G1 X103.044 Y128.335 E13.94293
G1 X103.025 Y128.188 E13.94786
G1 X103 Y107.204 E14.64579
G1 X103.005 Y107.127 E14.64836
G1 X103.104 Y106.348 E14.67447
G1 X103.141 Y106.203 E14.67945
G1 X103.427 Y105.482 E14.70525
G1 X103.5 Y105.349 E14.7103
G1 X103.955 Y104.725 E14.73598
G1 X104.058 Y104.616 E14.74097
M204 S1500
M205 X30 Y30
G0 F3600 X104.313 Y104.925
M204 S500
M205 X20 Y20
G1 F1200 X104.915 Y104.428 E14.76693
G1 X104.957 Y104.401 E14.76859
G1 X105.66 Y104.071 E14.79442
G1 X105.707 Y104.056 E14.79607
G1 X106.471 Y103.91 E14.82194
G1 X106.51 Y103.906 E14.82324
G1 X113.892 Y103.959 E15.06877
G1 X113.952 Y103.969 E15.0708
G1 X114.671 Y104.201 E15.09592
G1 X114.717 Y104.222 E15.09761
G1 X115.375 Y104.637 E15.12348
G1 X115.413 Y104.669 E15.12513
G1 X115.946 Y105.232 E15.15092
G1 X115.976 Y105.272 E15.15258
G1 X116.355 Y105.957 E15.17862
G1 X116.374 Y106.004 E15.18031
G1 X116.568 Y106.75 E15.20594
G1 X116.574 Y106.8 E15.20762
G1 X116.6 Y127.797 E15.90598
G1 X116.598 Y127.822 E15.90682
G1 X116.499 Y128.601 E15.93293
G1 X116.487 Y128.65 E15.93461
G1 X116.201 Y129.371 E15.96041
G1 X116.177 Y129.415 E15.96208
G1 X115.722 Y130.039 E15.98776
G1 X115.687 Y130.075 E15.98943
G1 X115.085 Y130.572 E16.0154
G1 X115.043 Y130.599 E16.01706
G1 X114.34 Y130.929 E16.04289
G1 X114.292 Y130.944 E16.04456
G1 X113.525 Y131.09 E16.07053
G1 X113.487 Y131.094 E16.0718
G1 X106.101 Y131.042 E16.31746
G1 X106.039 Y131.032 E16.31955
