;FLAVOR:Marlin
;TIME:2161
;Filament used: 1.68271m
;Layer height: 0.2
;Generated with Cura_SteamEngine 4.0.0
M82 ;absolute extrusion mode
; Ender 3 Custom Start G-code
M140 S65 ; Set Heat Bed temperature
M190 S65 ; Wait for Heat Bed temperature
M104 S160; start warming extruder to 160
G28 ; Home all axes
G29 ; Auto bed-level (BL-Touch)
G92 E0 ; Reset Extruder
M104 S190 ; Set Extruder temperature
G1 X0.1 Y20 Z0.3 F5000.0 ; Move to start position
M109 S190 ; Wait for Extruder temperature
; G1 Z2.0 F3000 ; Move Z Axis up little to prevent scratching of Heat Bed
G1 X0.1 Y200.0 Z0.3 F1500.0 E15 ; Draw the first line
G1 X0.4 Y200.0 Z0.3 F5000.0 ; Move to side a little
G1 X0.4 Y20 Z0.3 F1500.0 E30 ; Draw the second line
G92 E0 ; Reset Extruder
G1 Z2.0 F3000 ; Move Z Axis up little to prevent scratching of Heat Bed
; End of custom start GCode
G92 E0
G1 F4200 E-4
;LAYER_COUNT:125
;LAYER:0
M106 S178.5
M204 S1500
M205 X30 Y30
G0 F3750 X105.879 Y97.522 Z0.2
M204 S500
M205 X20 Y20
;TYPE:SKIRT
G1 F4200 E0
G1 F1500 X106.403 Y97.069 E0.02304
G1 X106.975 Y96.679 E0.04606
G1 X107.589 Y96.358 E0.06911
G1 X108.236 Y96.11 E0.09215
G1 X108.907 Y95.939 E0.11519
G1 X109.668 Y95.84 E0.14071
G1 X110.59 Y95.78 E0.17144
G1 X111.468 Y95.787 E0.20064
G1 X117.658 Y96.292 E0.40721
G1 X123.075 Y96.467 E0.58747
G1 X123.328 Y96.481 E0.5959
G1 X129.266 Y96.925 E0.79395
G1 X129.953 Y97.016 E0.817
G1 X130.624 Y97.186 E0.84002
G1 X131.272 Y97.432 E0.86308
G1 X131.886 Y97.751 E0.88609
G1 X132.46 Y98.139 E0.90913
G1 X132.915 Y98.524 E0.92896
G1 X132.991 Y98.595 E0.93242
G1 X133.175 Y98.774 E0.94095
G1 X133.343 Y98.945 E0.94893
G1 X133.799 Y99.466 E0.97195
G1 X134.192 Y100.037 E0.99501
G1 X134.517 Y100.648 E1.01803
G1 X134.769 Y101.293 E1.04106
G1 X134.944 Y101.963 E1.06409
G1 X135.042 Y102.649 E1.08714
G1 X135.063 Y103.114 E1.10262
G1 X135.075 Y105.125 E1.16951
G1 X135.059 Y105.597 E1.18522
G1 X134.472 Y113.66 E1.4541
G1 X134.403 Y118.991 E1.63143
G1 X134.636 Y124.313 E1.80861
G1 X135.038 Y128.579 E1.95112
G1 X135.065 Y129.142 E1.96987
G1 X135.065 Y131.856 E2.06014
G1 X135.025 Y132.547 E2.08316
G1 X134.906 Y133.23 E2.10622
G1 X134.708 Y133.893 E2.12923
G1 X134.436 Y134.53 E2.15227
G1 X134.092 Y135.131 E2.1753
G1 X133.681 Y135.689 E2.19835
G1 X133.39 Y136.015 E2.21289
G1 X133.164 Y136.25 E2.22373
G1 X132.656 Y136.721 E2.24677
G1 X132.097 Y137.13 E2.26981
G1 X131.494 Y137.471 E2.29285
G1 X130.857 Y137.742 E2.31587
G1 X130.192 Y137.936 E2.33891
G1 X129.271 Y138.075 E2.36989
G1 X122.953 Y138.531 E2.58058
G1 X122.733 Y138.543 E2.58791
G1 X117.275 Y138.736 E2.76955
G1 X112.344 Y139.162 E2.93417
G1 X111.808 Y139.184 E2.95201
G1 X110.046 Y139.178 E3.01062
G1 X109.354 Y139.136 E3.03368
G1 X108.673 Y139.014 E3.05669
G1 X108.009 Y138.815 E3.07974
G1 X107.374 Y138.54 E3.10276
G1 X106.774 Y138.194 E3.12579
G1 X106.218 Y137.781 E3.14883
G1 X105.713 Y137.307 E3.17187
G1 X105.266 Y136.778 E3.1949
G1 X104.883 Y136.201 E3.21794
G1 X104.569 Y135.584 E3.24096
G1 X104.329 Y134.934 E3.26401
G1 X104.232 Y134.58 E3.27621
G1 X104.176 Y134.347 E3.28419
G1 X104.053 Y133.666 E3.3072
G1 X104.01 Y132.974 E3.33026
G1 X104.06 Y132.169 E3.35709
G1 X104.695 Y127.296 E3.52054
G1 X105.1 Y121.984 E3.69773
G1 X105.204 Y116.672 E3.87444
G1 X105.006 Y111.359 E4.05127
G1 X104.506 Y106.029 E4.22933
G1 X104.068 Y102.85 E4.33606
G1 X104.013 Y102.159 E4.35911
G1 X104.038 Y101.467 E4.38215
G1 X104.16 Y100.704 E4.40785
G1 X104.206 Y100.501 E4.41477
G1 X104.398 Y99.836 E4.43779
G1 X104.665 Y99.197 E4.46082
G1 X105.004 Y98.593 E4.48386
G1 X105.411 Y98.032 E4.50691
G1 X105.879 Y97.522 E4.52993
M204 S1500
M205 X30 Y30
G0 F3750 X106.24 Y97.731
M204 S500
M205 X20 Y20
G1 F1500 X106.756 Y97.304 E4.55221
G1 X107.318 Y96.943 E4.57443
G1 X107.92 Y96.651 E4.59668
G1 X108.553 Y96.433 E4.61895
G1 X109.207 Y96.292 E4.6412
G1 X109.694 Y96.239 E4.65749
G1 X110.616 Y96.179 E4.68822
G1 X111.435 Y96.186 E4.71547
G1 X117.632 Y96.691 E4.92226
G1 X123.062 Y96.867 E5.10296
G1 X123.299 Y96.88 E5.11085
G1 X129.237 Y97.324 E5.3089
G1 X129.9 Y97.413 E5.33115
G1 X130.547 Y97.581 E5.35339
G1 X131.17 Y97.825 E5.37564
G1 X131.759 Y98.142 E5.39789
G1 X132.307 Y98.527 E5.42016
G1 X132.642 Y98.816 E5.43488
G1 X132.718 Y98.887 E5.43834
G1 X132.89 Y99.054 E5.44631
G1 X133.058 Y99.225 E5.45428
G1 X133.497 Y99.73 E5.47654
G1 X133.873 Y100.283 E5.49878
G1 X134.181 Y100.877 E5.52104
G1 X134.416 Y101.504 E5.54331
G1 X134.574 Y102.154 E5.56555
G1 X134.663 Y103.117 E5.59772
G1 X134.675 Y105.128 E5.66461
G1 X134.66 Y105.568 E5.67925
G1 X134.072 Y113.643 E5.94854
G1 X134.003 Y118.986 E6.12626
G1 X134.237 Y124.347 E6.30474
G1 X134.64 Y128.616 E6.44736
G1 X134.665 Y129.142 E6.46487
G1 X134.665 Y131.856 E6.55514
G1 X134.625 Y132.524 E6.5774
G1 X134.506 Y133.182 E6.59964
G1 X134.309 Y133.822 E6.62191
G1 X134.037 Y134.433 E6.64415
G1 X133.694 Y135.007 E6.66639
G1 X133.101 Y135.738 E6.6977
G1 X132.875 Y135.973 E6.70855
G1 X132.384 Y136.426 E6.73077
G1 X131.841 Y136.818 E6.75304
G1 X131.256 Y137.142 E6.77528
G1 X130.636 Y137.395 E6.79755
G1 X129.991 Y137.571 E6.81979
G1 X129.242 Y137.676 E6.84495
G1 X122.924 Y138.132 E7.05563
G1 X122.719 Y138.143 E7.06246
G1 X117.247 Y138.337 E7.24457
G1 X112.31 Y138.763 E7.40939
G1 X111.809 Y138.784 E7.42607
G1 X110.047 Y138.778 E7.48467
G1 X109.379 Y138.736 E7.50693
G1 X108.721 Y138.614 E7.52919
G1 X108.083 Y138.415 E7.55142
G1 X107.472 Y138.141 E7.57369
G1 X106.899 Y137.796 E7.59594
G1 X106.371 Y137.386 E7.61817
G1 X105.895 Y136.915 E7.64044
G1 X105.479 Y136.391 E7.6627
G1 X105.129 Y135.821 E7.68494
G1 X104.849 Y135.213 E7.70721
G1 X104.621 Y134.487 E7.73252
G1 X104.565 Y134.254 E7.74049
G1 X104.448 Y133.595 E7.76275
G1 X104.41 Y132.927 E7.785
G1 X104.457 Y132.221 E7.80853
G1 X105.093 Y127.342 E7.97218
G1 X105.5 Y122.004 E8.15024
G1 X105.604 Y116.665 E8.32785
G1 X105.406 Y111.342 E8.50502
G1 X104.901 Y105.958 E8.68488
G1 X104.465 Y102.795 E8.79107
G1 X104.413 Y102.128 E8.81332
G1 X104.441 Y101.46 E8.83556
G1 X104.55 Y100.792 E8.85807
G1 X104.596 Y100.589 E8.865
G1 X104.783 Y99.947 E8.88724
G1 X105.045 Y99.331 E8.9095
G1 X105.378 Y98.751 E8.93175
G1 X105.778 Y98.215 E8.95399
G1 X106.24 Y97.731 E8.97624
M204 S1500
M205 X30 Y30
G0 F3750 X106.599 Y97.944
M204 S500
M205 X20 Y20
G1 F1500 X107.106 Y97.546 E8.99768
G1 X107.659 Y97.214 E9.01914
G1 X108.248 Y96.952 E9.04058
G1 X108.865 Y96.766 E9.06201
G1 X109.72 Y96.638 E9.09076
G1 X110.642 Y96.578 E9.1215
G1 X111.403 Y96.584 E9.14681
G1 X117.628 Y97.091 E9.35454
G1 X123.049 Y97.267 E9.53493
G1 X123.269 Y97.278 E9.54226
G1 X129.207 Y97.722 E9.74031
G1 X129.845 Y97.81 E9.76173
G1 X130.468 Y97.976 E9.78318
G1 X131.066 Y98.218 E9.80463
G1 X131.629 Y98.533 E9.82609
G1 X132.369 Y99.108 E9.85726
G1 X132.445 Y99.179 E9.86072
G1 X132.604 Y99.335 E9.86813
G1 X132.772 Y99.506 E9.8761
G1 X133.195 Y99.993 E9.89755
G1 X133.554 Y100.528 E9.91898
G1 X133.844 Y101.104 E9.94043
G1 X134.06 Y101.711 E9.96186
G1 X134.2 Y102.341 E9.98333
G1 X134.263 Y103.119 E10.00929
G1 X134.275 Y105.13 E10.07618
G1 X134.261 Y105.539 E10.08979
G1 X133.672 Y113.625 E10.35944
G1 X133.603 Y118.998 E10.53816
G1 X133.837 Y124.363 E10.71677
G1 X134.242 Y128.654 E10.86013
G1 X134.265 Y129.142 E10.87637
G1 X134.265 Y131.856 E10.96664
G1 X134.225 Y132.499 E10.98807
G1 X134.106 Y133.133 E11.00953
G1 X133.909 Y133.747 E11.03097
G1 X133.638 Y134.332 E11.05242
G1 X133.296 Y134.879 E11.07387
G1 X132.813 Y135.46 E11.099
G1 X132.587 Y135.695 E11.10985
G1 X132.112 Y136.132 E11.13131
G1 X131.587 Y136.506 E11.15275
G1 X131.02 Y136.812 E11.17418
G1 X130.419 Y137.045 E11.19562
G1 X129.794 Y137.203 E11.21706
G1 X129.213 Y137.278 E11.23655
G1 X122.895 Y137.734 E11.44723
G1 X122.705 Y137.744 E11.45356
G1 X117.217 Y137.938 E11.63621
G1 X112.275 Y138.365 E11.80119
G1 X111.81 Y138.384 E11.81667
G1 X110.048 Y138.378 E11.87527
G1 X109.405 Y138.336 E11.89671
G1 X108.772 Y138.214 E11.91815
G1 X108.159 Y138.016 E11.93957
G1 X107.575 Y137.742 E11.96103
G1 X107.029 Y137.399 E11.98247
G1 X106.53 Y136.991 E12.00391
G1 X106.086 Y136.524 E12.02534
G1 X105.702 Y136.006 E12.04679
G1 X105.386 Y135.444 E12.06823
G1 X105.141 Y134.847 E12.0897
G1 X105.01 Y134.393 E12.10541
G1 X104.954 Y134.16 E12.11338
G1 X104.842 Y133.525 E12.13483
G1 X104.81 Y132.881 E12.15628
G1 X104.854 Y132.273 E12.17655
G1 X105.491 Y127.387 E12.34044
G1 X105.9 Y122.025 E12.5193
G1 X106.004 Y116.658 E12.69784
G1 X105.806 Y111.309 E12.87587
G1 X105.302 Y105.936 E13.05536
G1 X104.861 Y102.741 E13.16263
G1 X104.812 Y102.098 E13.18408
G1 X104.844 Y101.454 E13.20553
G1 X104.941 Y100.881 E13.22485
G1 X104.987 Y100.678 E13.23178
G1 X105.168 Y100.059 E13.25323
G1 X105.424 Y99.468 E13.27465
G1 X105.752 Y98.912 E13.29612
G1 X106.145 Y98.402 E13.31753
G1 X106.599 Y97.944 E13.33898
M204 S1500
M205 X30 Y30
G0 F3750 X110.385 Y101.981
M204 S500
M205 X20 Y20
;TYPE:SUPPORT
G1 F1500 X110.792 Y101.962 E13.35254
G1 X111.326 Y101.962 E13.3703
G1 X111.708 Y102.092 E13.38372
G1 X112.374 Y102.066 E13.40589
G1 X112.749 Y102.226 E13.41945
G1 X112.681 Y102.263 E13.42202
G1 X112.237 Y102.585 E13.44026
G1 X111.842 Y102.954 E13.45824
G1 X111.8 Y103.005 E13.46044
G1 X111.767 Y102.965 E13.46216
G1 X111.371 Y102.593 E13.48023
G1 X110.919 Y102.261 E13.49889
G1 X110.651 Y102.073 E13.50978
G1 X110.385 Y101.981 E13.51914
M204 S1500
M205 X30 Y30
G0 F3750 X112 Y102.24
M204 S500
M205 X20 Y20
G1 F1500 X112 Y102.588 E13.53071
M204 S1500
M205 X30 Y30
G0 F3750 X111.801 Y112.296
M204 S500
M205 X20 Y20
G1 F1500 X111.833 Y112.335 E13.53239
G1 X112.086 Y112.574 E13.54397
G1 X111.843 Y112.803 E13.55507
G1 X111.801 Y112.853 E13.55724
G1 X111.769 Y112.814 E13.55892
G1 X111.517 Y112.573 E13.57052
G1 X111.767 Y112.338 E13.58193
G1 X111.801 Y112.296 E13.58373
M204 S1500
M205 X30 Y30
G0 F3750 X111.801 Y122.148
M204 S500
M205 X20 Y20
G1 F1500 X111.829 Y122.182 E13.58519
G1 X112.089 Y122.424 E13.59701
G1 X111.846 Y122.649 E13.60802
G1 X111.8 Y122.703 E13.61038
G1 X111.773 Y122.67 E13.6118
G1 X111.511 Y122.426 E13.62371
G1 X111.771 Y122.184 E13.63552
G1 X111.801 Y122.148 E13.63708
M204 S1500
M205 X30 Y30
G0 F3750 X111.8 Y131.998
M204 S500
M205 X20 Y20
G1 F1500 X111.823 Y132.027 E13.63831
G1 X112.225 Y132.404 E13.65664
G1 X112.668 Y132.73 E13.67493
G1 X112.74 Y132.77 E13.67767
G1 X112.375 Y132.935 E13.691
G1 X111.704 Y132.905 E13.71334
G1 X111.321 Y133.039 E13.72683
G1 X110.765 Y133.039 E13.74532
G1 X110.388 Y133.019 E13.75788
G1 X110.968 Y132.784 E13.7787
G1 X111.764 Y132.041 E13.81491
G1 X111.8 Y131.998 E13.81678
M204 S1500
M205 X30 Y30
G0 F3750 X112 Y132.413
M204 S500
M205 X20 Y20
G1 F1500 X112 Y132.757 E13.82822
M204 S1500
M205 X30 Y30
G0 F3750 X122.875 Y132.101
M204 S500
M205 X20 Y20
G1 F1500 X122.875 Y132.027 E13.83068
G1 X122.931 Y132.027 E13.83254
G1 X123.575 Y131.383 E13.86283
G1 X123.575 Y129.097 E13.93887
G1 X128.741 Y129.098 E14.11069
G1 X128.875 Y129.232 E14.11699
G1 X128.875 Y131.786 E14.20194
G1 X128.759 Y131.902 E14.20739
G1 X123.074 Y131.902 E14.39648
G1 X122.875 Y132.101 E14.40584
M204 S1500
M205 X30 Y30
G0 F3750 X128 Y131.742
M204 S500
M205 X20 Y20
G1 F1500 X128 Y129.258 E14.48846
M204 S1500
M205 X30 Y30
G0 F3750 X124.454 Y118.829
M204 S500
M205 X20 Y20
G1 F1500 X123.575 Y118.829 E14.51769
G1 X123.575 Y115.671 E14.62273
G1 X124.454 Y115.671 E14.65196
G1 X124.454 Y118.829 E14.757
M204 S1500
M205 X30 Y30
G0 F3750 X123.575 Y105.902
M204 S500
M205 X20 Y20
G1 F1500 X123.575 Y103.617 E14.833
G1 X122.931 Y102.973 E14.86329
G1 X122.875 Y102.973 E14.86515
G1 X122.875 Y102.898 E14.86765
G1 X123.074 Y103.097 E14.87701
G1 X128.741 Y103.098 E15.06549
G1 X128.875 Y103.232 E15.0718
G1 X128.875 Y105.786 E15.15674
G1 X128.759 Y105.902 E15.1622
G1 X123.575 Y105.902 E15.33462
M204 S1500
M205 X30 Y30
G0 F3750 X123.735 Y104
M204 S500
M205 X20 Y20
G1 F1500 X128.715 Y104 E15.50025
M204 S1500
M205 X30 Y30
G0 F3750 X128 Y103.258
M204 S500
M205 X20 Y20
G1 F1500 X128 Y105.742 E15.58287
M204 S1500
M205 X30 Y30
G1 F4200 E11.58287
;MESH:6_Files.stl
G0 F3750 X123.34 Y105.742
G0 X122.055 Y105.742
G0 X121.569 Y105.671
M204 S500
M205 X20 Y20
;TYPE:WALL-INNER
G1 F4200 E15.58287
G1 F1500 X121.352 Y105.211 E15.59979
G1 X121.352 Y104.874 E15.611
G1 X121.675 Y104.873 E15.62174
G1 X121.675 Y105.211 E15.63082
G1 X121.675 Y105.671 E15.63883
G1 X121.675 Y105.999 E15.64974
G1 X121.569 Y105.671 E15.65161
M204 S1500
M205 X30 Y30
G0 F3750 X121.569 Y115.522
M204 S500
M205 X20 Y20
G1 F1500 X121.352 Y115.062 E15.66853
G1 X121.352 Y110.089 E15.83393
G1 X121.569 Y109.629 E15.85084
G1 X121.675 Y109.301 E15.86231
G1 X121.675 Y109.629 E15.86364
G1 X121.675 Y110.089 E15.87165
G1 X121.675 Y115.062 E16.00521
G1 X121.675 Y115.522 E16.01323
G1 X121.675 Y115.85 E16.02414
G1 X121.569 Y115.522 E16.026
M204 S1500
M205 X30 Y30
G0 F3750 X121.569 Y125.371
M204 S500
M205 X20 Y20
G1 F1500 X121.352 Y124.911 E16.04292
G1 X121.352 Y119.938 E16.20832
G1 X121.569 Y119.478 E16.22524
G1 X121.675 Y119.15 E16.2367
G1 X121.675 Y119.478 E16.23803
G1 X121.675 Y119.938 E16.24604
G1 X121.675 Y124.911 E16.37961
G1 X121.675 Y125.371 E16.38762
G1 X121.675 Y125.699 E16.39853
G1 X121.569 Y125.371 E16.40039
M204 S1500
M205 X30 Y30
G0 F3750 X121.569 Y129.329
M204 S500
M205 X20 Y20
G1 F1500 X121.675 Y129.001 E16.41186
G1 X121.675 Y129.329 E16.41319
G1 X121.675 Y129.789 E16.42849
G1 X121.675 Y130.127 E16.43973
G1 X121.352 Y130.126 E16.45047
G1 X121.352 Y129.789 E16.45952
G1 X121.569 Y129.329 E16.46914
M204 S1500
M205 X30 Y30
G0 F3750 X121.588 Y108.346
G0 X121.49 Y108.339
M204 S500
M205 X20 Y20
G1 F1500 X121.525 Y107.768 E16.48817
G1 X121.525 Y107.532 E16.49602
G1 X121.49 Y106.961 E16.51504
G1 X121.378 Y106.38 E16.53472
G1 X121.196 Y105.819 E16.55434
G1 X120.952 Y105.301 E16.57338
G1 X120.952 Y104.543 E16.5986
G1 X120.988 Y104.474 E16.60118
G1 X121.875 Y104.473 E16.63069
G1 X122.075 Y104.473 E16.63734
G1 X122.075 Y104.673 E16.64165
G1 X122.075 Y130.327 E17.4949
G1 X122.075 Y130.527 E17.50155
G1 X121.875 Y130.527 E17.50586
G1 X120.988 Y130.526 E17.53536
G1 X120.952 Y130.457 E17.53795
G1 X120.952 Y129.699 E17.56316
G1 X121.196 Y129.181 E17.58221
G1 X121.379 Y128.617 E17.60193
G1 X121.49 Y128.039 E17.6215
G1 X121.525 Y127.468 E17.64053
G1 X121.525 Y127.232 E17.64838
G1 X121.49 Y126.661 E17.66741
G1 X121.379 Y126.083 E17.68698
G1 X121.196 Y125.519 E17.7067
G1 X120.952 Y125.001 E17.72575
G1 X120.952 Y119.849 E17.8971
G1 X121.196 Y119.331 E17.91615
G1 X121.379 Y118.766 E17.9359
G1 X121.49 Y118.189 E17.95545
G1 X121.525 Y117.618 E17.97447
G1 X121.525 Y117.382 E17.98232
G1 X121.49 Y116.811 E18.00135
G1 X121.379 Y116.234 E18.02089
G1 X121.196 Y115.669 E18.04065
G1 X120.952 Y115.151 E18.05969
G1 X120.952 Y109.999 E18.23105
G1 X121.196 Y109.481 E18.25009
G1 X121.378 Y108.92 E18.26971
G1 X121.49 Y108.339 E18.28939
M204 S1500
M205 X30 Y30
G0 F3750 X121.588 Y108.346
G0 X121.131 Y127.994
G0 X120.979 Y128.59
G0 X120.646 Y129.623
G0 X120.593 Y129.522
M204 S500
M205 X20 Y20
;TYPE:WALL-OUTER
G1 F1500 X120.823 Y129.033 E18.30736
G1 X120.991 Y128.517 E18.32541
G1 X121.092 Y127.989 E18.34329
G1 X121.125 Y127.456 E18.36105
G1 X121.125 Y127.244 E18.3681
G1 X121.092 Y126.711 E18.38586
G1 X120.991 Y126.183 E18.40374
G1 X120.823 Y125.667 E18.42179
G1 X120.593 Y125.178 E18.43977
G1 X120.552 Y125.114 E18.44229
G1 X120.552 Y119.736 E18.62117
G1 X120.593 Y119.672 E18.62369
G1 X120.823 Y119.183 E18.64167
G1 X120.991 Y118.666 E18.65975
G1 X121.092 Y118.139 E18.6776
G1 X121.125 Y117.606 E18.69536
G1 X121.125 Y117.394 E18.70241
G1 X121.092 Y116.861 E18.72017
G1 X120.991 Y116.334 E18.73802
G1 X120.823 Y115.817 E18.7561
G1 X120.593 Y115.328 E18.77407
G1 X120.552 Y115.264 E18.7766
G1 X120.552 Y109.886 E18.95547
G1 X120.593 Y109.822 E18.958
G1 X120.823 Y109.333 E18.97597
G1 X120.99 Y108.82 E18.99392
G1 X121.092 Y108.289 E19.0119
G1 X121.125 Y107.756 E19.02966
G1 X121.125 Y107.544 E19.03671
G1 X121.092 Y107.011 E19.05448
G1 X120.99 Y106.48 E19.07246
G1 X120.823 Y105.967 E19.0904
G1 X120.593 Y105.478 E19.10838
G1 X120.552 Y105.414 E19.1109
G1 X120.552 Y104.444 E19.14317
G1 X120.699 Y104.162 E19.15374
G1 X120.873 Y104.074 E19.16023
G1 X122.275 Y104.073 E19.20686
G1 X122.475 Y104.073 E19.21351
G1 X122.475 Y104.273 E19.21782
