;FLAVOR:Marlin
;TIME:2051
;Filament used: 2.53137m
;Layer height: 0.3
;Generated with Cura_SteamEngine 4.0.0
M82 ;absolute extrusion mode
; Ender 3 Custom Start G-code
M140 S60 ; Set Heat Bed temperature
M190 S60 ; Wait for Heat Bed temperature
M104 S160; start warming extruder to 160
G28 ; Home all axes
G29 ; Auto bed-level (BL-Touch)
G92 E0 ; Reset Extruder
M104 S195 ; Set Extruder temperature
G1 X0.1 Y20 Z0.3 F5000.0 ; Move to start position
M109 S195 ; Wait for Extruder temperature
; G1 Z2.0 F3000 ; Move Z Axis up little to prevent scratching of Heat Bed
G1 X0.1 Y200.0 Z0.3 F1500.0 E15 ; Draw the first line
G1 X0.4 Y200.0 Z0.3 F5000.0 ; Move to side a little
G1 X0.4 Y20 Z0.3 F1500.0 E30 ; Draw the second line
G92 E0 ; Reset Extruder
G1 Z2.0 F3000 ; Move Z Axis up little to prevent scratching of Heat Bed
; End of custom start GCode
G92 E0
G1 F4200 E-4
;LAYER_COUNT:60
;LAYER:0
M106 S178.5
M204 S1500
M205 X30 Y30
G0 F3600 X97.294 Y96.191 Z0.2
M204 S500
M205 X20 Y20
;TYPE:SKIRT
G1 F4200 E0
G1 F1200 X97.896 Y95.694 E0.02596
G1 X98.277 Y95.453 E0.04096
G1 X98.98 Y95.123 E0.06679
G1 X99.407 Y94.984 E0.08172
G1 X100.171 Y94.838 E0.10759
G1 X100.514 Y94.806 E0.11905
G1 X113.775 Y94.84 E0.56012
G1 X113.735 Y94.748 E0.56345
G1 X113.66 Y94.377 E0.57604
G1 X113.664 Y93.998 E0.58865
G1 X113.748 Y93.628 E0.60127
G1 X113.907 Y93.284 E0.61387
G1 X114.134 Y92.981 E0.62647
G1 X114.42 Y92.732 E0.63908
G1 X114.746 Y92.551 E0.65148
G1 X115.084 Y92.407 E0.6637
G1 X115.447 Y92.296 E0.67632
G1 X115.824 Y92.263 E0.68891
G1 X115.87 Y92.268 E0.69045
G1 X118.221 Y91.008 E0.77917
G1 X118.572 Y90.865 E0.79177
G1 X118.945 Y90.798 E0.80438
G1 X119.323 Y90.812 E0.81696
G1 X119.349 Y90.819 E0.81785
G1 X120.835 Y89.974 E0.87471
G1 X121.182 Y89.823 E0.8873
G1 X121.553 Y89.747 E0.89989
G1 X121.932 Y89.751 E0.9125
G1 X122.302 Y89.834 E0.92511
G1 X122.646 Y89.993 E0.93772
G1 X122.949 Y90.22 E0.95031
G1 X123.014 Y90.294 E0.95358
G1 X123.051 Y90.244 E0.95565
G1 X123.306 Y89.965 E0.96822
G1 X123.497 Y89.818 E0.97624
G1 X124.13 Y89.393 E1.0016
G1 X124.465 Y89.216 E1.0142
G1 X124.829 Y89.113 E1.02678
G1 X125.133 Y89.087 E1.03693
G1 X127.383 Y89.087 E1.11177
G1 X127.76 Y89.127 E1.12438
G1 X128.12 Y89.245 E1.13698
G1 X128.189 Y89.285 E1.13963
G1 X128.316 Y89.079 E1.14768
G1 X128.578 Y88.805 E1.16029
G1 X128.891 Y88.591 E1.1729
G1 X129.242 Y88.448 E1.1855
G1 X129.744 Y88.377 E1.20237
G1 X131.358 Y88.378 E1.25605
G1 X131.735 Y88.418 E1.26866
G1 X132.095 Y88.536 E1.28126
G1 X132.422 Y88.727 E1.29385
G1 X132.508 Y88.805 E1.29772
G1 X132.587 Y88.719 E1.3016
G1 X132.832 Y88.499 E1.31255
G1 X133.236 Y88.225 E1.32879
G1 X133.803 Y87.944 E1.34984
G1 X134.332 Y87.777 E1.36829
G1 X134.965 Y87.681 E1.38958
G1 X135.519 Y87.684 E1.40801
G1 X136.12 Y87.78 E1.42825
G1 X136.639 Y87.946 E1.44637
G1 X137.211 Y88.231 E1.46763
G1 X137.53 Y88.435 E1.48022
G1 X137.745 Y88.637 E1.49003
G1 X138.109 Y89.041 E1.50812
G1 X138.332 Y89.348 E1.52074
G1 X138.485 Y89.694 E1.53332
G1 X138.563 Y90.065 E1.54593
G1 X138.572 Y90.266 E1.55263
G1 X138.543 Y92.845 E1.63841
G1 X138.499 Y93.222 E1.65103
G1 X138.377 Y93.58 E1.66361
G1 X138.182 Y93.906 E1.67625
G1 X138.012 Y94.102 E1.68488
G1 X137.677 Y94.435 E1.70059
G1 X137.382 Y94.672 E1.71317
G1 X137.211 Y94.769 E1.71971
G1 X136.639 Y95.054 E1.74097
G1 X136.106 Y95.223 E1.75956
G1 X135.473 Y95.319 E1.78086
G1 X134.908 Y95.315 E1.79965
G1 X134.277 Y95.21 E1.82093
G1 X133.744 Y95.032 E1.83962
G1 X133.175 Y94.737 E1.86093
G1 X132.858 Y94.528 E1.87356
G1 X132.668 Y94.346 E1.88231
G1 X132.525 Y94.188 E1.8894
G1 X132.245 Y94.387 E1.90083
G1 X131.898 Y94.539 E1.91343
G1 X131.357 Y94.622 E1.93163
G1 X129.9 Y94.622 E1.98009
G1 X129.523 Y94.582 E1.9927
G1 X129.3 Y94.509 E2.00051
G1 X129.3 Y114.486 E2.66494
G1 X129.359 Y114.46 E2.66709
G1 X129.901 Y114.377 E2.68533
G1 X131.358 Y114.378 E2.73379
G1 X131.735 Y114.418 E2.74639
G1 X132.095 Y114.536 E2.75899
G1 X132.422 Y114.727 E2.77159
G1 X132.508 Y114.805 E2.77545
G1 X132.587 Y114.719 E2.77934
G1 X132.832 Y114.499 E2.79029
G1 X133.233 Y114.226 E2.80642
G1 X133.8 Y113.944 E2.82748
G1 X134.332 Y113.776 E2.84604
G1 X134.965 Y113.68 E2.86733
G1 X135.519 Y113.683 E2.88576
G1 X136.12 Y113.779 E2.906
G1 X136.641 Y113.946 E2.9242
G1 X137.213 Y114.232 E2.94547
G1 X137.532 Y114.436 E2.95807
G1 X137.745 Y114.637 E2.96781
G1 X138.109 Y115.041 E2.98589
G1 X138.332 Y115.348 E2.99851
G1 X138.485 Y115.694 E3.0111
G1 X138.563 Y116.065 E3.02371
G1 X138.572 Y116.266 E3.0304
G1 X138.543 Y118.845 E3.11618
G1 X138.499 Y119.222 E3.1288
G1 X138.377 Y119.58 E3.14138
G1 X138.182 Y119.906 E3.15402
G1 X138.012 Y120.102 E3.16265
G1 X137.677 Y120.435 E3.17836
G1 X137.382 Y120.672 E3.19094
G1 X137.213 Y120.768 E3.19741
G1 X136.641 Y121.054 E3.21868
G1 X136.106 Y121.224 E3.23735
G1 X135.473 Y121.32 E3.25865
G1 X134.908 Y121.316 E3.27744
G1 X134.277 Y121.211 E3.29871
G1 X133.741 Y121.032 E3.31751
G1 X133.172 Y120.736 E3.33884
G1 X132.856 Y120.527 E3.35144
G1 X132.668 Y120.346 E3.36012
G1 X132.525 Y120.188 E3.36721
G1 X132.245 Y120.387 E3.37864
G1 X131.898 Y120.539 E3.39124
G1 X131.357 Y120.622 E3.40944
G1 X129.9 Y120.622 E3.4579
G1 X129.523 Y120.582 E3.47051
G1 X129.3 Y120.509 E3.47831
G1 X129.3 Y140.486 E4.14275
G1 X129.359 Y140.46 E4.1449
G1 X129.901 Y140.377 E4.16313
G1 X131.358 Y140.378 E4.21159
G1 X131.735 Y140.418 E4.2242
G1 X132.095 Y140.536 E4.2368
G1 X132.422 Y140.727 E4.2494
G1 X132.509 Y140.806 E4.25331
G1 X132.585 Y140.722 E4.25707
G1 X132.827 Y140.504 E4.26791
G1 X133.229 Y140.23 E4.28409
G1 X133.799 Y139.946 E4.30527
G1 X134.332 Y139.777 E4.32387
G1 X134.965 Y139.681 E4.34516
G1 X135.519 Y139.684 E4.36359
G1 X136.12 Y139.78 E4.38383
G1 X136.639 Y139.946 E4.40195
G1 X137.211 Y140.231 E4.42321
G1 X137.53 Y140.435 E4.4358
G1 X137.745 Y140.637 E4.44562
G1 X138.109 Y141.041 E4.4637
G1 X138.332 Y141.348 E4.47632
G1 X138.485 Y141.694 E4.48891
G1 X138.563 Y142.065 E4.50151
G1 X138.572 Y142.266 E4.50821
G1 X138.543 Y144.845 E4.59399
G1 X138.499 Y145.222 E4.60661
G1 X138.377 Y145.58 E4.61919
G1 X138.182 Y145.906 E4.63183
G1 X138.012 Y146.102 E4.64046
G1 X137.677 Y146.435 E4.65617
G1 X137.382 Y146.672 E4.66875
G1 X137.211 Y146.769 E4.67529
G1 X136.639 Y147.054 E4.69655
G1 X136.106 Y147.223 E4.71515
G1 X135.473 Y147.319 E4.73644
G1 X134.908 Y147.315 E4.75523
G1 X134.277 Y147.21 E4.77651
G1 X133.744 Y147.032 E4.7952
G1 X133.175 Y146.737 E4.81652
G1 X132.858 Y146.528 E4.82914
G1 X132.668 Y146.346 E4.8379
G1 X132.525 Y146.188 E4.84498
G1 X132.245 Y146.387 E4.85641
G1 X131.898 Y146.539 E4.86901
G1 X131.357 Y146.622 E4.88721
G1 X129.751 Y146.622 E4.94063
G1 X129.374 Y146.582 E4.95324
G1 X129.014 Y146.464 E4.96584
G1 X128.687 Y146.274 E4.97842
G1 X128.406 Y146.019 E4.99104
G1 X128.187 Y145.712 E5.00358
G1 X128.023 Y145.795 E5.00969
G1 X127.657 Y145.892 E5.02229
G1 X127.368 Y145.913 E5.03192
G1 X125.059 Y145.894 E5.10873
G1 X124.683 Y145.851 E5.12131
G1 X124.324 Y145.73 E5.13391
G1 X124.024 Y145.556 E5.14545
G1 X123.428 Y145.128 E5.16985
G1 X123.145 Y144.876 E5.18246
G1 X123.011 Y144.707 E5.18963
G1 X122.954 Y144.773 E5.19253
G1 X122.652 Y145.002 E5.20514
G1 X122.309 Y145.163 E5.21774
G1 X121.94 Y145.249 E5.23034
G1 X121.561 Y145.255 E5.24295
G1 X121.189 Y145.182 E5.25556
G1 X120.827 Y145.025 E5.26868
G1 X119.354 Y144.183 E5.32511
G1 X118.982 Y144.204 E5.3375
G1 X118.608 Y144.145 E5.3501
G1 X118.221 Y143.992 E5.36394
G1 X115.902 Y142.749 E5.45145
G1 X115.812 Y142.76 E5.45447
G1 X115.434 Y142.727 E5.46709
G1 X114.956 Y142.563 E5.48389
G1 X114.631 Y142.397 E5.49603
G1 X114.314 Y142.19 E5.50862
G1 X114.047 Y141.921 E5.52123
G1 X113.842 Y141.602 E5.53384
G1 X113.708 Y141.248 E5.54643
G1 X113.652 Y140.873 E5.55904
G1 X113.675 Y140.495 E5.57164
G1 X113.763 Y140.179 E5.58255
G1 X100.097 Y140.142 E6.03708
G1 X99.72 Y140.101 E6.0497
G1 X99.531 Y140.049 E6.05622
G1 X98.792 Y139.802 E6.08213
G1 X98.388 Y139.608 E6.09704
G1 X97.738 Y139.189 E6.12276
G1 X97.401 Y138.908 E6.13735
G1 X96.88 Y138.353 E6.16267
G1 X96.613 Y137.986 E6.17777
G1 X96.236 Y137.298 E6.20386
G1 X96.071 Y136.877 E6.2189
G1 X95.881 Y136.131 E6.2445
G1 X95.825 Y135.688 E6.25935
G1 X95.8 Y99.704 E7.45619
G1 X95.814 Y99.476 E7.46379
G1 X95.913 Y98.698 E7.48987
G1 X96.026 Y98.262 E7.50485
G1 X96.312 Y97.54 E7.53068
G1 X96.531 Y97.142 E7.54579
G1 X96.986 Y96.518 E7.57147
G1 X97.294 Y96.191 E7.58642
M204 S1500
M205 X30 Y30
G0 F3600 X97.549 Y96.499
M204 S500
M205 X20 Y20
G1 F1200 X98.151 Y96.002 E7.61238
G1 X98.447 Y95.815 E7.62403
G1 X99.15 Y95.485 E7.64986
G1 X99.482 Y95.377 E7.66147
G1 X100.246 Y95.231 E7.68734
G1 X100.513 Y95.206 E7.69626
G1 X114.513 Y95.242 E8.1619
G1 X114.308 Y95.014 E8.1721
G1 X114.149 Y94.72 E8.18322
G1 X114.065 Y94.396 E8.19435
G1 X114.059 Y94.062 E8.20546
G1 X114.133 Y93.737 E8.21654
G1 X114.282 Y93.438 E8.22766
G1 X114.498 Y93.182 E8.2388
G1 X114.903 Y92.919 E8.25486
G1 X115.241 Y92.775 E8.26708
G1 X115.562 Y92.682 E8.27819
G1 X115.896 Y92.667 E8.28931
G1 X115.956 Y92.675 E8.29133
G1 X118.41 Y91.36 E8.38393
G1 X118.721 Y91.239 E8.39503
G1 X119.052 Y91.194 E8.40614
G1 X119.384 Y91.229 E8.41724
G1 X119.416 Y91.24 E8.41837
G1 X121.032 Y90.322 E8.48018
G1 X121.34 Y90.193 E8.49129
G1 X121.67 Y90.14 E8.5024
G1 X122.003 Y90.167 E8.51352
G1 X122.32 Y90.272 E8.52462
G1 X122.603 Y90.45 E8.53574
G1 X122.836 Y90.689 E8.54684
G1 X123.006 Y90.977 E8.55797
G1 X123.007 Y90.979 E8.55804
G1 X123.373 Y90.482 E8.57857
G1 X123.72 Y90.15 E8.59454
G1 X124.353 Y89.725 E8.6199
G1 X124.65 Y89.573 E8.631
G1 X125.133 Y89.487 E8.64732
G1 X127.383 Y89.487 E8.72215
G1 X127.715 Y89.527 E8.73327
G1 X128.027 Y89.644 E8.74436
G1 X128.373 Y89.897 E8.75861
G1 X128.38 Y89.904 E8.75894
G1 X128.402 Y89.776 E8.76326
G1 X128.535 Y89.47 E8.77436
G1 X128.737 Y89.203 E8.78549
G1 X128.996 Y88.993 E8.79658
G1 X129.298 Y88.85 E8.8077
G1 X129.744 Y88.777 E8.82273
G1 X131.358 Y88.778 E8.87641
G1 X131.69 Y88.818 E8.88753
G1 X132.002 Y88.936 E8.89863
G1 X132.278 Y89.124 E8.90974
G1 X132.502 Y89.372 E8.92085
G1 X132.539 Y89.441 E8.92345
G1 X132.555 Y89.399 E8.92495
G1 X132.855 Y89.016 E8.94113
G1 X133.1 Y88.796 E8.95208
G1 X133.413 Y88.584 E8.96466
G1 X133.98 Y88.303 E8.9857
G1 X134.392 Y88.173 E9.00007
G1 X135.025 Y88.077 E9.02137
G1 X135.456 Y88.079 E9.0357
G1 X136.057 Y88.175 E9.05595
G1 X136.46 Y88.304 E9.07002
G1 X137.032 Y88.589 E9.09127
G1 X137.311 Y88.773 E9.10239
G1 X137.448 Y88.905 E9.10872
G1 X137.812 Y89.309 E9.1268
G1 X138.005 Y89.582 E9.13792
G1 X138.127 Y89.893 E9.14904
G1 X138.172 Y90.262 E9.1614
G1 X138.143 Y92.841 E9.24718
G1 X138.099 Y93.172 E9.25829
G1 X137.979 Y93.483 E9.26938
G1 X137.73 Y93.818 E9.28326
G1 X137.395 Y94.151 E9.29897
G1 X137.032 Y94.411 E9.31382
G1 X136.46 Y94.696 E9.33508
G1 X136.046 Y94.827 E9.34952
G1 X135.413 Y94.923 E9.37081
G1 X134.973 Y94.92 E9.38545
G1 X134.342 Y94.815 E9.40672
G1 X133.928 Y94.677 E9.42124
G1 X133.359 Y94.382 E9.44256
G1 X132.965 Y94.078 E9.45911
G1 X132.719 Y93.806 E9.47131
G1 X132.541 Y93.554 E9.48157
G1 X132.412 Y93.743 E9.48918
G1 X132.164 Y93.966 E9.50027
G1 X131.87 Y94.125 E9.51139
G1 X131.546 Y94.209 E9.52252
G1 X131.357 Y94.222 E9.52882
G1 X129.9 Y94.222 E9.57728
G1 X129.568 Y94.182 E9.5884
G1 X129.256 Y94.065 E9.59949
G1 X128.979 Y93.877 E9.61062
G1 X128.9 Y93.789 E9.61455
G1 X128.9 Y115.207 E10.32692
G1 X129.093 Y115.033 E10.33556
G1 X129.387 Y114.874 E10.34668
G1 X129.711 Y114.79 E10.35781
G1 X129.901 Y114.777 E10.36415
G1 X131.358 Y114.778 E10.41261
G1 X131.69 Y114.818 E10.42373
G1 X132.002 Y114.936 E10.43482
G1 X132.278 Y115.124 E10.44593
G1 X132.502 Y115.372 E10.45704
G1 X132.539 Y115.441 E10.45965
G1 X132.555 Y115.399 E10.46114
G1 X132.855 Y115.016 E10.47732
G1 X133.1 Y114.796 E10.48828
G1 X133.412 Y114.584 E10.50082
G1 X133.979 Y114.302 E10.52189
G1 X134.392 Y114.172 E10.53629
G1 X135.025 Y114.076 E10.55758
G1 X135.456 Y114.078 E10.57192
G1 X136.057 Y114.174 E10.59216
G1 X136.462 Y114.304 E10.60631
G1 X137.034 Y114.59 E10.62758
G1 X137.313 Y114.774 E10.63869
G1 X137.448 Y114.905 E10.64495
G1 X137.812 Y115.309 E10.66304
G1 X138.005 Y115.582 E10.67416
G1 X138.127 Y115.893 E10.68527
G1 X138.172 Y116.262 E10.69763
G1 X138.143 Y118.841 E10.78341
G1 X138.099 Y119.172 E10.79452
G1 X137.979 Y119.483 E10.80561
G1 X137.73 Y119.818 E10.81949
G1 X137.395 Y120.151 E10.8352
G1 X137.034 Y120.41 E10.84998
G1 X136.462 Y120.696 E10.87125
G1 X136.046 Y120.828 E10.88576
G1 X135.413 Y120.924 E10.90706
G1 X134.973 Y120.921 E10.92169
G1 X134.342 Y120.816 E10.94297
G1 X133.926 Y120.677 E10.95756
G1 X133.357 Y120.381 E10.97889
G1 X132.965 Y120.078 E10.99537
G1 X132.719 Y119.806 E11.00757
G1 X132.541 Y119.554 E11.01783
G1 X132.412 Y119.743 E11.02544
G1 X132.164 Y119.966 E11.03653
G1 X131.87 Y120.125 E11.04765
G1 X131.546 Y120.209 E11.05878
G1 X131.357 Y120.222 E11.06508
G1 X129.9 Y120.222 E11.11354
G1 X129.568 Y120.182 E11.12466
G1 X129.256 Y120.065 E11.13575
G1 X128.979 Y119.877 E11.14688
G1 X128.9 Y119.789 E11.15082
G1 X128.9 Y141.207 E11.86318
G1 X129.093 Y141.033 E11.87182
G1 X129.387 Y140.874 E11.88294
G1 X129.711 Y140.79 E11.89407
G1 X129.901 Y140.777 E11.90041
G1 X131.358 Y140.778 E11.94887
G1 X131.69 Y140.818 E11.95999
G1 X132.002 Y140.936 E11.97108
G1 X132.278 Y141.124 E11.98219
G1 X132.502 Y141.372 E11.99331
G1 X132.539 Y141.441 E11.99591
G1 X132.555 Y141.4 E11.99737
G1 X132.853 Y141.019 E12.01346
G1 X133.095 Y140.801 E12.0243
G1 X133.408 Y140.588 E12.03689
G1 X133.978 Y140.304 E12.05807
G1 X134.392 Y140.173 E12.07251
G1 X135.025 Y140.077 E12.09381
G1 X135.456 Y140.079 E12.10814
G1 X136.057 Y140.175 E12.12838
G1 X136.46 Y140.304 E12.14246
G1 X137.032 Y140.589 E12.16371
G1 X137.311 Y140.773 E12.17483
G1 X137.448 Y140.905 E12.18116
G1 X137.812 Y141.309 E12.19924
G1 X138.005 Y141.582 E12.21036
G1 X138.127 Y141.893 E12.22147
G1 X138.172 Y142.262 E12.23384
G1 X138.143 Y144.841 E12.31962
G1 X138.099 Y145.172 E12.33073
G1 X137.979 Y145.483 E12.34181
G1 X137.73 Y145.818 E12.3557
G1 X137.395 Y146.151 E12.37141
G1 X137.032 Y146.411 E12.38626
G1 X136.46 Y146.696 E12.40751
G1 X136.046 Y146.827 E12.42196
G1 X135.413 Y146.923 E12.44325
G1 X134.973 Y146.92 E12.45789
G1 X134.342 Y146.815 E12.47916
G1 X133.928 Y146.677 E12.49368
G1 X133.359 Y146.382 E12.51499
G1 X132.965 Y146.078 E12.53155
G1 X132.719 Y145.806 E12.54374
G1 X132.541 Y145.554 E12.55401
G1 X132.412 Y145.743 E12.56162
G1 X132.164 Y145.966 E12.57271
G1 X131.87 Y146.125 E12.58383
G1 X131.546 Y146.209 E12.59496
G1 X131.357 Y146.222 E12.60126
G1 X129.751 Y146.222 E12.65467
G1 X129.419 Y146.182 E12.6658
G1 X129.107 Y146.065 E12.67688
G1 X128.83 Y145.877 E12.68801
G1 X128.607 Y145.629 E12.69911
G1 X128.448 Y145.335 E12.71022
G1 X128.385 Y145.091 E12.71861
G1 X128.373 Y145.103 E12.71917
G1 X128.11 Y145.309 E12.73028
G1 X127.806 Y145.448 E12.7414
G1 X127.371 Y145.513 E12.75603
G1 X125.062 Y145.494 E12.83283
G1 X124.731 Y145.451 E12.84393
G1 X124.419 Y145.331 E12.85505
G1 X124.257 Y145.231 E12.86138
G1 X123.661 Y144.803 E12.88579
G1 X123.323 Y144.458 E12.90185
G1 X123.006 Y143.996 E12.92048
G1 X122.98 Y144.072 E12.92316
G1 X122.8 Y144.353 E12.93426
G1 X122.558 Y144.583 E12.94536
G1 X122.269 Y144.75 E12.95646
G1 X121.948 Y144.843 E12.96758
G1 X121.614 Y144.858 E12.9787
G1 X121.287 Y144.793 E12.98979
G1 X121.026 Y144.678 E12.99927
G1 X119.414 Y143.757 E13.06102
G1 X119.139 Y143.804 E13.0703
G1 X118.806 Y143.781 E13.0814
G1 X118.41 Y143.64 E13.09538
G1 X115.978 Y142.336 E13.18717
G1 X115.764 Y142.36 E13.19433
G1 X115.433 Y142.318 E13.20543
G1 X115.138 Y142.207 E13.21591
G1 X114.813 Y142.041 E13.22805
G1 X114.536 Y141.854 E13.23916
G1 X114.311 Y141.608 E13.25025
G1 X114.15 Y141.315 E13.26137
G1 X114.064 Y140.992 E13.27249
G1 X114.057 Y140.658 E13.2836
G1 X114.129 Y140.332 E13.2947
G1 X114.276 Y140.032 E13.30581
G1 X114.485 Y139.781 E13.31668
G1 X100.098 Y139.742 E13.79519
G1 X99.658 Y139.67 E13.81002
G1 X98.919 Y139.423 E13.83594
G1 X98.604 Y139.272 E13.84756
G1 X97.954 Y138.853 E13.87328
G1 X97.692 Y138.634 E13.88464
G1 X97.171 Y138.079 E13.90995
G1 X96.964 Y137.794 E13.92167
G1 X96.587 Y137.106 E13.94776
G1 X96.458 Y136.779 E13.95946
G1 X96.268 Y136.033 E13.98506
G1 X96.225 Y135.688 E13.99662
