;FLAVOR:Marlin
;TIME:816
;Filament used: 0.55219m
;Layer height: 0.2
;Generated with Cura_SteamEngine 4.0.0
M82 ;absolute extrusion mode
; Ender 3 Custom Start G-code
M140 S65 ; Set Heat Bed temperature
M190 S65 ; Wait for Heat Bed temperature
M104 S160; start warming extruder to 160
G28 ; Home all axes
G29 ; Auto bed-level (BL-Touch)
G92 E0 ; Reset Extruder
M104 S190 ; Set Extruder temperature
G1 X0.1 Y20 Z0.3 F5000.0 ; Move to start position
M109 S190 ; Wait for Extruder temperature
; G1 Z2.0 F3000 ; Move Z Axis up little to prevent scratching of Heat Bed
G1 X0.1 Y200.0 Z0.3 F1500.0 E15 ; Draw the first line
G1 X0.4 Y200.0 Z0.3 F5000.0 ; Move to side a little
G1 X0.4 Y20 Z0.3 F1500.0 E30 ; Draw the second line
G92 E0 ; Reset Extruder
G1 Z2.0 F3000 ; Move Z Axis up little to prevent scratching of Heat Bed
; End of custom start GCode
G92 E0
G1 F4200 E-4
;LAYER_COUNT:42
;LAYER:0
M106 S178.5
M204 S1500
M205 X30 Y30
G0 F3750 X111.494 Y100.063 Z0.2
M204 S500
M205 X20 Y20
;TYPE:SKIRT
G1 F4200 E0
G1 F1500 X111.966 Y99.557 E0.02301
G1 X112.494 Y99.108 E0.04607
G1 X112.999 Y98.766 E0.06635
G1 X115.047 Y97.524 E0.14602
G1 X115.659 Y97.199 E0.16906
G1 X116.304 Y96.948 E0.19208
G1 X116.974 Y96.772 E0.21512
G1 X117.659 Y96.675 E0.23814
G1 X118.598 Y96.67 E0.26937
G1 X124.448 Y97.1 E0.46446
G1 X125.134 Y97.191 E0.48748
G1 X125.62 Y97.304 E0.50408
G1 X125.932 Y97.391 E0.51485
G1 X126.587 Y97.616 E0.53788
G1 X127.212 Y97.914 E0.56091
G1 X127.798 Y98.282 E0.58393
G1 X128.339 Y98.716 E0.607
G1 X128.612 Y98.978 E0.61958
G1 X128.781 Y99.151 E0.62763
G1 X129.236 Y99.674 E0.65068
G1 X129.627 Y100.245 E0.6737
G1 X129.95 Y100.858 E0.69674
G1 X130.2 Y101.504 E0.71978
G1 X130.374 Y102.174 E0.74281
G1 X130.469 Y102.86 E0.76584
G1 X130.489 Y103.303 E0.78059
G1 X130.5 Y104.922 E0.83444
G1 X130.484 Y105.407 E0.85058
G1 X129.873 Y113.632 E1.1249
G1 X129.802 Y118.919 E1.30076
G1 X130.032 Y124.237 E1.4778
G1 X130.463 Y128.765 E1.62909
G1 X130.49 Y129.334 E1.64803
G1 X130.49 Y131.666 E1.72559
G1 X130.45 Y132.357 E1.74862
G1 X130.331 Y133.04 E1.77167
G1 X130.133 Y133.703 E1.79469
G1 X129.861 Y134.34 E1.81773
G1 X129.517 Y134.941 E1.84076
G1 X129.106 Y135.499 E1.86381
G1 X128.789 Y135.851 E1.87956
G1 X128.569 Y136.077 E1.89005
G1 X128.058 Y136.545 E1.9131
G1 X127.497 Y136.95 E1.93611
G1 X126.893 Y137.288 E1.95913
G1 X126.253 Y137.555 E1.9822
G1 X125.588 Y137.746 E2.00521
G1 X124.704 Y137.876 E2.03493
G1 X118.532 Y138.324 E2.24075
G1 X117.84 Y138.334 E2.26377
G1 X117.151 Y138.265 E2.2868
G1 X116.474 Y138.116 E2.30986
G1 X115.82 Y137.891 E2.33286
G1 X114.935 Y137.438 E2.36593
G1 X112.946 Y136.204 E2.44378
G1 X112.379 Y135.806 E2.46682
G1 X111.863 Y135.345 E2.48983
G1 X111.403 Y134.827 E2.51288
G1 X111.005 Y134.26 E2.53592
G1 X110.676 Y133.651 E2.55894
G1 X110.418 Y133.008 E2.58198
G1 X110.237 Y132.34 E2.605
G1 X110.134 Y131.655 E2.62804
G1 X110.109 Y131.106 E2.64632
G1 X110.11 Y103.896 E3.55133
G1 X110.15 Y103.204 E3.57438
G1 X110.269 Y102.522 E3.59741
G1 X110.467 Y101.858 E3.62045
G1 X110.739 Y101.222 E3.64346
G1 X111.083 Y100.621 E3.66649
G1 X111.494 Y100.063 E3.68954
M204 S1500
M205 X30 Y30
G0 F3750 X111.89 Y100.215
M204 S500
M205 X20 Y20
G1 F1500 X112.359 Y99.738 E3.71179
G1 X112.882 Y99.32 E3.73406
G1 X113.206 Y99.108 E3.74694
G1 X115.254 Y97.866 E3.8266
G1 X115.846 Y97.554 E3.84886
G1 X116.471 Y97.314 E3.87113
G1 X117.12 Y97.151 E3.89338
G1 X117.783 Y97.067 E3.91561
G1 X118.569 Y97.069 E3.94175
G1 X124.419 Y97.499 E4.13685
G1 X125.082 Y97.588 E4.1591
G1 X125.512 Y97.69 E4.1738
G1 X125.824 Y97.777 E4.18457
G1 X126.457 Y97.995 E4.20684
G1 X127.059 Y98.286 E4.22908
G1 X127.622 Y98.648 E4.25134
G1 X128.326 Y99.258 E4.28232
G1 X128.495 Y99.431 E4.29037
G1 X128.933 Y99.936 E4.3126
G1 X129.308 Y100.491 E4.33488
G1 X129.613 Y101.086 E4.35712
G1 X129.846 Y101.713 E4.37936
G1 X130.002 Y102.363 E4.4016
G1 X130.089 Y103.306 E4.43309
G1 X130.1 Y104.925 E4.48694
G1 X130.085 Y105.378 E4.50202
G1 X129.474 Y113.614 E4.7767
G1 X129.402 Y118.913 E4.95296
G1 X129.634 Y124.274 E5.13144
G1 X130.065 Y128.803 E5.28275
G1 X130.09 Y129.334 E5.30043
G1 X130.09 Y131.666 E5.378
G1 X130.05 Y132.334 E5.40025
G1 X129.931 Y132.992 E5.42249
G1 X129.734 Y133.632 E5.44477
G1 X129.462 Y134.243 E5.46701
G1 X129.119 Y134.817 E5.48925
G1 X128.503 Y135.572 E5.52166
G1 X128.283 Y135.798 E5.53215
G1 X127.788 Y136.249 E5.55442
G1 X127.244 Y136.637 E5.57665
G1 X126.656 Y136.958 E5.59893
G1 X126.035 Y137.207 E5.62118
G1 X125.389 Y137.379 E5.64342
G1 X124.675 Y137.477 E5.66739
G1 X118.503 Y137.925 E5.87321
G1 X117.834 Y137.934 E5.89546
G1 X117.169 Y137.862 E5.91771
G1 X116.517 Y137.712 E5.93996
G1 X115.888 Y137.485 E5.9622
G1 X115.146 Y137.099 E5.99002
G1 X113.157 Y135.865 E6.06787
G1 X112.61 Y135.479 E6.09014
G1 X112.114 Y135.03 E6.11239
G1 X111.674 Y134.526 E6.13464
G1 X111.298 Y133.972 E6.15691
G1 X110.991 Y133.378 E6.17915
G1 X110.756 Y132.752 E6.20139
G1 X110.598 Y132.102 E6.22364
G1 X110.509 Y131.106 E6.2569
G1 X110.51 Y103.896 E7.16191
G1 X110.55 Y103.228 E7.18417
G1 X110.669 Y102.57 E7.20641
G1 X110.866 Y101.93 E7.22868
G1 X111.138 Y101.319 E7.25092
G1 X111.481 Y100.744 E7.27319
G1 X111.89 Y100.215 E7.29543
M204 S1500
M205 X30 Y30
G0 F3750 X112.285 Y100.373
M204 S500
M205 X20 Y20
G1 F1500 X112.751 Y99.927 E7.31689
G1 X113.414 Y99.45 E7.34405
G1 X115.462 Y98.208 E7.42372
G1 X116.032 Y97.908 E7.44514
G1 X116.636 Y97.682 E7.46659
G1 X117.263 Y97.532 E7.48803
G1 X117.904 Y97.46 E7.50949
G1 X118.539 Y97.468 E7.53061
G1 X124.389 Y97.898 E7.7257
G1 X125.028 Y97.985 E7.74715
G1 X125.405 Y98.075 E7.76004
G1 X125.717 Y98.162 E7.77082
G1 X126.326 Y98.373 E7.79225
G1 X126.904 Y98.658 E7.81369
G1 X127.443 Y99.013 E7.83515
G1 X128.04 Y99.537 E7.86157
G1 X128.209 Y99.71 E7.86962
G1 X128.63 Y100.198 E7.89106
G1 X128.987 Y100.735 E7.9125
G1 X129.275 Y101.312 E7.93395
G1 X129.49 Y101.92 E7.9554
G1 X129.628 Y102.549 E7.97682
G1 X129.689 Y103.309 E8.00218
G1 X129.7 Y104.928 E8.05603
G1 X129.686 Y105.348 E8.07
G1 X129.075 Y113.578 E8.34449
G1 X129.003 Y118.943 E8.52295
G1 X129.234 Y124.29 E8.70095
G1 X129.667 Y128.841 E8.853
G1 X129.69 Y129.334 E8.86942
G1 X129.69 Y131.666 E8.94698
G1 X129.65 Y132.309 E8.96841
G1 X129.531 Y132.943 E8.98986
G1 X129.334 Y133.557 E9.01131
G1 X129.063 Y134.142 E9.03275
G1 X128.721 Y134.689 E9.05421
G1 X128.216 Y135.293 E9.0804
G1 X127.996 Y135.519 E9.09089
G1 X127.519 Y135.952 E9.11231
G1 X126.991 Y136.323 E9.13378
G1 X126.422 Y136.626 E9.15522
G1 X125.82 Y136.856 E9.17665
G1 X125.194 Y137.009 E9.19809
G1 X124.646 Y137.078 E9.21646
G1 X118.474 Y137.526 E9.42228
G1 X117.83 Y137.533 E9.4437
G1 X117.189 Y137.46 E9.46516
G1 X116.563 Y137.308 E9.48658
G1 X115.96 Y137.08 E9.50802
G1 X115.357 Y136.759 E9.53074
G1 X113.368 Y135.525 E9.6086
G1 X112.842 Y135.152 E9.63004
G1 X112.366 Y134.716 E9.65151
G1 X111.948 Y134.225 E9.67296
G1 X111.594 Y133.687 E9.69438
G1 X111.31 Y133.108 E9.71583
G1 X111.099 Y132.499 E9.73727
G1 X110.965 Y131.868 E9.75872
G1 X110.909 Y131.106 E9.78413
G1 X110.91 Y103.896 E10.68914
G1 X110.95 Y103.252 E10.7106
G1 X111.069 Y102.619 E10.73203
G1 X111.266 Y102.005 E10.75347
G1 X111.537 Y101.42 E10.77492
G1 X111.879 Y100.873 E10.79637
G1 X112.285 Y100.373 E10.8178
M204 S1500
M205 X30 Y30
G0 F3750 X118.659 Y103.29
M204 S500
M205 X20 Y20
;TYPE:SUPPORT
G1 F1500 X124.167 Y103.291 E11.00099
G1 X124.3 Y103.424 E11.00725
G1 X124.3 Y105.593 E11.07939
G1 X124.184 Y105.709 E11.08485
G1 X119 Y105.709 E11.25727
G1 X119 Y103.631 E11.32638
G1 X118.659 Y103.29 E11.34242
M204 S1500
M205 X30 Y30
G0 F3750 X119.16 Y104
M204 S500
M205 X20 Y20
G1 F1500 X124.14 Y104 E11.50806
M204 S1500
M205 X30 Y30
G0 F3750 X124 Y103.451
M204 S500
M205 X20 Y20
G1 F1500 X124 Y105.549 E11.57784
M204 S1500
M205 X30 Y30
G0 F3750 X120 Y105.549
M204 S500
M205 X20 Y20
G1 F1500 X120 Y103.451 E11.64762
M204 S1500
M205 X30 Y30
G0 F3750 X119 Y113.859
M204 S500
M205 X20 Y20
G1 F1500 X119.03 Y113.889 E11.64903
G1 X119.03 Y120.621 E11.87293
G1 X119 Y120.651 E11.87434
G1 X119 Y113.859 E12.10025
M204 S1500
M205 X30 Y30
G0 F3750 X119 Y129.29
M204 S500
M205 X20 Y20
G1 F1500 X124.167 Y129.291 E12.2721
G1 X124.3 Y129.424 E12.27836
G1 X124.3 Y131.593 E12.3505
G1 X124.184 Y131.709 E12.35596
G1 X118.66 Y131.709 E12.53968
G1 X119 Y131.369 E12.55568
G1 X119 Y129.29 E12.62483
M204 S1500
M205 X30 Y30
G0 F3750 X120 Y129.451
M204 S500
M205 X20 Y20
G1 F1500 X120 Y131.549 E12.69461
M204 S1500
M205 X30 Y30
G0 F3750 X124 Y131.549
M204 S500
M205 X20 Y20
G1 F1500 X124 Y129.451 E12.76438
M204 S1500
M205 X30 Y30
G1 F4200 E8.76438
;MESH:Digital_Caliper.stl(1)
G0 F3750 X118.765 Y129.451
G0 X117.48 Y129.451
G0 X117.43 Y130.443
G0 X117.5 Y130.513
M204 S500
M205 X20 Y20
;TYPE:WALL-INNER
G1 F4200 E12.76438
G1 F1500 X116.7 Y130.513 E12.79099
G1 X116.7 Y104.487 E13.65662
G1 X117.5 Y104.487 E13.68323
G1 X117.5 Y130.513 E14.54886
M204 S1500
M205 X30 Y30
G0 F3750 X117.9 Y130.913
M204 S500
M205 X20 Y20
;TYPE:WALL-OUTER
G1 F1500 X116.3 Y130.913 E14.60207
G1 X116.3 Y104.087 E15.49431
G1 X117.9 Y104.087 E15.54753
G1 X117.9 Y130.913 E16.43976
M204 S1500
M205 X30 Y30
G0 F3750 X117.7 Y130.913
G0 X117.303 Y130.314
M204 S500
M205 X20 Y20
;TYPE:SKIN
G1 F1500 X116.896 Y129.906 E16.44935
M204 S1500
M205 X30 Y30
G0 F3750 X116.896 Y129.623
M204 S500
M205 X20 Y20
G1 F1500 X117.303 Y130.031 E16.45893
M204 S1500
M205 X30 Y30
G0 F3750 X117.303 Y129.748
M204 S500
M205 X20 Y20
G1 F1500 X116.896 Y129.341 E16.4685
M204 S1500
M205 X30 Y30
G0 F3750 X116.896 Y129.058
M204 S500
M205 X20 Y20
G1 F1500 X117.303 Y129.465 E16.47807
M204 S1500
M205 X30 Y30
G0 F3750 X117.303 Y129.182
M204 S500
M205 X20 Y20
G1 F1500 X116.896 Y128.775 E16.48765
M204 S1500
M205 X30 Y30
G0 F3750 X116.896 Y128.492
M204 S500
M205 X20 Y20
G1 F1500 X117.303 Y128.899 E16.49722
M204 S1500
M205 X30 Y30
G0 F3750 X117.303 Y128.617
M204 S500
M205 X20 Y20
G1 F1500 X116.896 Y128.209 E16.5068
M204 S1500
M205 X30 Y30
G0 F3750 X116.896 Y127.926
M204 S500
M205 X20 Y20
G1 F1500 X117.303 Y128.334 E16.51639
M204 S1500
M205 X30 Y30
G0 F3750 X117.303 Y128.051
M204 S500
M205 X20 Y20
G1 F1500 X116.896 Y127.644 E16.52596
M204 S1500
M205 X30 Y30
G0 F3750 X116.896 Y127.361
M204 S500
M205 X20 Y20
G1 F1500 X117.303 Y127.768 E16.53553
M204 S1500
M205 X30 Y30
G0 F3750 X117.303 Y127.485
M204 S500
M205 X20 Y20
G1 F1500 X116.896 Y127.078 E16.5451
M204 S1500
M205 X30 Y30
G0 F3750 X116.896 Y126.795
M204 S500
M205 X20 Y20
G1 F1500 X117.303 Y127.202 E16.55467
M204 S1500
M205 X30 Y30
G0 F3750 X117.303 Y126.92
M204 S500
M205 X20 Y20
G1 F1500 X116.896 Y126.512 E16.56426
M204 S1500
M205 X30 Y30
G0 F3750 X116.896 Y126.229
M204 S500
M205 X20 Y20
G1 F1500 X117.303 Y126.637 E16.57384
M204 S1500
M205 X30 Y30
G0 F3750 X117.303 Y126.354
M204 S500
M205 X20 Y20
G1 F1500 X116.896 Y125.947 E16.58341
M204 S1500
M205 X30 Y30
G0 F3750 X116.896 Y125.664
M204 S500
M205 X20 Y20
G1 F1500 X117.303 Y126.071 E16.59299
M204 S1500
M205 X30 Y30
G0 F3750 X117.303 Y125.788
M204 S500
M205 X20 Y20
G1 F1500 X116.896 Y125.381 E16.60256
M204 S1500
M205 X30 Y30
G0 F3750 X116.896 Y125.098
M204 S500
M205 X20 Y20
G1 F1500 X117.303 Y125.505 E16.61213
M204 S1500
M205 X30 Y30
G0 F3750 X117.303 Y125.222
M204 S500
M205 X20 Y20
G1 F1500 X116.896 Y124.815 E16.6217
M204 S1500
M205 X30 Y30
G0 F3750 X116.896 Y124.532
M204 S500
M205 X20 Y20
G1 F1500 X117.303 Y124.94 E16.63129
M204 S1500
M205 X30 Y30
G0 F3750 X117.303 Y124.657
M204 S500
M205 X20 Y20
G1 F1500 X116.896 Y124.249 E16.64087
M204 S1500
M205 X30 Y30
G0 F3750 X116.896 Y123.967
M204 S500
M205 X20 Y20
G1 F1500 X117.303 Y124.374 E16.65044
M204 S1500
M205 X30 Y30
G0 F3750 X117.303 Y124.091
M204 S500
M205 X20 Y20
G1 F1500 X116.896 Y123.684 E16.66001
M204 S1500
M205 X30 Y30
G0 F3750 X116.896 Y123.401
M204 S500
M205 X20 Y20
G1 F1500 X117.303 Y123.808 E16.66959
M204 S1500
M205 X30 Y30
G0 F3750 X117.303 Y123.525
M204 S500
M205 X20 Y20
G1 F1500 X116.896 Y123.118 E16.67916
M204 S1500
M205 X30 Y30
G0 F3750 X116.896 Y122.835
M204 S500
M205 X20 Y20
G1 F1500 X117.303 Y123.243 E16.68874
M204 S1500
M205 X30 Y30
G0 F3750 X117.303 Y122.96
M204 S500
M205 X20 Y20
G1 F1500 X116.896 Y122.552 E16.69832
M204 S1500
M205 X30 Y30
G0 F3750 X116.896 Y122.27
M204 S500
M205 X20 Y20
G1 F1500 X117.303 Y122.677 E16.7079
M204 S1500
M205 X30 Y30
G0 F3750 X117.303 Y122.394
M204 S500
M205 X20 Y20
G1 F1500 X116.896 Y121.987 E16.71747
M204 S1500
M205 X30 Y30
G0 F3750 X116.896 Y121.704
M204 S500
M205 X20 Y20
G1 F1500 X117.303 Y122.111 E16.72704
M204 S1500
M205 X30 Y30
G0 F3750 X117.303 Y121.828
M204 S500
M205 X20 Y20
G1 F1500 X116.896 Y121.421 E16.73661
M204 S1500
M205 X30 Y30
G0 F3750 X116.896 Y121.138
M204 S500
M205 X20 Y20
G1 F1500 X117.303 Y121.545 E16.74618
M204 S1500
M205 X30 Y30
G0 F3750 X117.303 Y121.263
M204 S500
M205 X20 Y20
G1 F1500 X116.896 Y120.855 E16.75577
M204 S1500
M205 X30 Y30
G0 F3750 X116.896 Y120.573
M204 S500
M205 X20 Y20
G1 F1500 X117.303 Y120.98 E16.76534
M204 S1500
M205 X30 Y30
G0 F3750 X117.303 Y120.697
M204 S500
M205 X20 Y20
G1 F1500 X116.896 Y120.29 E16.77491
M204 S1500
M205 X30 Y30
G0 F3750 X116.896 Y120.007
M204 S500
M205 X20 Y20
G1 F1500 X117.303 Y120.414 E16.78448
M204 S1500
M205 X30 Y30
G0 F3750 X117.303 Y120.131
M204 S500
M205 X20 Y20
G1 F1500 X116.896 Y119.724 E16.79406
M204 S1500
M205 X30 Y30
G0 F3750 X116.896 Y119.441
M204 S500
M205 X20 Y20
G1 F1500 X117.303 Y119.848 E16.80363
M204 S1500
M205 X30 Y30
G0 F3750 X117.303 Y119.566
M204 S500
M205 X20 Y20
G1 F1500 X116.896 Y119.158 E16.81321
M204 S1500
M205 X30 Y30
G0 F3750 X116.896 Y118.875
M204 S500
M205 X20 Y20
G1 F1500 X117.303 Y119.283 E16.8228
M204 S1500
M205 X30 Y30
G0 F3750 X117.303 Y119
M204 S500
M205 X20 Y20
G1 F1500 X116.896 Y118.593 E16.83237
M204 S1500
M205 X30 Y30
G0 F3750 X116.896 Y118.31
M204 S500
M205 X20 Y20
G1 F1500 X117.303 Y118.717 E16.84194
M204 S1500
M205 X30 Y30
G0 F3750 X117.303 Y118.434
M204 S500
M205 X20 Y20
G1 F1500 X116.896 Y118.027 E16.85151
M204 S1500
M205 X30 Y30
G0 F3750 X116.896 Y117.744
M204 S500
M205 X20 Y20
G1 F1500 X117.303 Y118.151 E16.86108
M204 S1500
M205 X30 Y30
G0 F3750 X117.303 Y117.869
M204 S500
M205 X20 Y20
G1 F1500 X116.896 Y117.461 E16.87067
M204 S1500
M205 X30 Y30
G0 F3750 X116.896 Y117.178
M204 S500
M205 X20 Y20
G1 F1500 X117.303 Y117.586 E16.88025
M204 S1500
M205 X30 Y30
G0 F3750 X117.302 Y117.302
M204 S500
M205 X20 Y20
G1 F1500 X116.896 Y116.896 E16.8898
M204 S1500
M205 X30 Y30
G0 F3750 X116.896 Y116.613
M204 S500
M205 X20 Y20
G1 F1500 X117.302 Y117.019 E16.89935
M204 S1500
M205 X30 Y30
G0 F3750 X117.302 Y116.736
M204 S500
M205 X20 Y20
G1 F1500 X116.896 Y116.33 E16.9089
M204 S1500
M205 X30 Y30
G0 F3750 X116.896 Y116.047
M204 S500
M205 X20 Y20
G1 F1500 X117.302 Y116.454 E16.91846
M204 S1500
M205 X30 Y30
G0 F3750 X117.302 Y116.171
M204 S500
M205 X20 Y20
G1 F1500 X116.896 Y115.764 E16.92802
M204 S1500
M205 X30 Y30
G0 F3750 X116.896 Y115.481
M204 S500
M205 X20 Y20
G1 F1500 X117.302 Y115.888 E16.93758
M204 S1500
M205 X30 Y30
G0 F3750 X117.302 Y115.605
M204 S500
M205 X20 Y20
G1 F1500 X116.896 Y115.199 E16.94713
M204 S1500
M205 X30 Y30
G0 F3750 X116.896 Y114.916
M204 S500
M205 X20 Y20
G1 F1500 X117.302 Y115.322 E16.95668
M204 S1500
M205 X30 Y30
G0 F3750 X117.302 Y115.039
M204 S500
M205 X20 Y20
G1 F1500 X116.896 Y114.633 E16.96622
M204 S1500
M205 X30 Y30
G0 F3750 X116.896 Y114.35
M204 S500
M205 X20 Y20
G1 F1500 X117.302 Y114.757 E16.97578
M204 S1500
M205 X30 Y30
G0 F3750 X117.302 Y114.474
M204 S500
M205 X20 Y20
G1 F1500 X116.896 Y114.067 E16.98534
M204 S1500
M205 X30 Y30
G0 F3750 X116.896 Y113.784
M204 S500
M205 X20 Y20
G1 F1500 X117.302 Y114.191 E16.9949
M204 S1500
M205 X30 Y30
G0 F3750 X117.302 Y113.908
M204 S500
M205 X20 Y20
G1 F1500 X116.896 Y113.501 E17.00446
M204 S1500
M205 X30 Y30
G0 F3750 X116.896 Y113.219
M204 S500
M205 X20 Y20
G1 F1500 X117.302 Y113.625 E17.01401
M204 S1500
M205 X30 Y30
G0 F3750 X117.302 Y113.342
M204 S500
M205 X20 Y20
G1 F1500 X116.896 Y112.936 E17.02356
M204 S1500
M205 X30 Y30
G0 F3750 X116.896 Y112.653
M204 S500
M205 X20 Y20
G1 F1500 X117.302 Y113.06 E17.03312
M204 S1500
M205 X30 Y30
G0 F3750 X117.302 Y112.777
M204 S500
M205 X20 Y20
G1 F1500 X116.896 Y112.37 E17.04268
M204 S1500
M205 X30 Y30
