;FLAVOR:Marlin
;TIME:1195
;Filament used: 1.78896m
;Layer height: 0.3
;Generated with Cura_SteamEngine 4.0.0
M82 ;absolute extrusion mode
; Ender 3 Custom Start G-code
M140 S60 ; Set Heat Bed temperature
M190 S60 ; Wait for Heat Bed temperature
M104 S160; start warming extruder to 160
G28 ; Home all axes
G29 ; Auto bed-level (BL-Touch)
G92 E0 ; Reset Extruder
M104 S195 ; Set Extruder temperature
G1 X0.1 Y20 Z0.3 F5000.0 ; Move to start position
M109 S195 ; Wait for Extruder temperature
; G1 Z2.0 F3000 ; Move Z Axis up little to prevent scratching of Heat Bed
G1 X0.1 Y200.0 Z0.3 F1500.0 E15 ; Draw the first line
G1 X0.4 Y200.0 Z0.3 F5000.0 ; Move to side a little
G1 X0.4 Y20 Z0.3 F1500.0 E30 ; Draw the second line
G92 E0 ; Reset Extruder
G1 Z2.0 F3000 ; Move Z Axis up little to prevent scratching of Heat Bed
; End of custom start GCode
G92 E0
G1 F4200 E-4
;LAYER_COUNT:83
;LAYER:0
M106 S178.5
M204 S1500
M205 X30 Y30
G0 F3600 X96.294 Y98.691 Z0.2
M204 S500
M205 X20 Y20
;TYPE:SKIRT
G1 F4200 E0
G1 F1200 X96.896 Y98.194 E0.02596
G1 X97.277 Y97.953 E0.04096
G1 X97.98 Y97.623 E0.06679
G1 X98.407 Y97.484 E0.08172
G1 X99.171 Y97.338 E0.10759
G1 X99.509 Y97.306 E0.11889
G1 X120.516 Y97.31 E0.81758
G1 X120.865 Y97.344 E0.82925
G1 X121.625 Y97.494 E0.85501
G1 X122.048 Y97.634 E0.86983
G1 X122.741 Y97.963 E0.89535
G1 X123.127 Y98.211 E0.91061
G1 X123.74 Y98.726 E0.93723
G1 X124.039 Y99.048 E0.95185
G1 X124.463 Y99.633 E0.97588
G1 X124.61 Y99.899 E0.98599
G1 X124.624 Y99.885 E0.98665
G1 X124.947 Y99.686 E0.99926
G1 X125.304 Y99.56 E1.01186
G1 X125.68 Y99.511 E1.02447
G1 X126.058 Y99.541 E1.03708
G1 X126.425 Y99.652 E1.04983
G1 X126.789 Y99.806 E1.06298
G1 X127.121 Y99.99 E1.0756
G1 X127.407 Y100.239 E1.08821
G1 X127.634 Y100.542 E1.10081
G1 X127.793 Y100.886 E1.11341
G1 X127.876 Y101.256 E1.12602
G1 X127.88 Y101.635 E1.13863
G1 X127.804 Y102.006 E1.15123
G1 X127.772 Y102.079 E1.15388
G1 X128.4 Y102.082 E1.17476
G1 X128.776 Y102.124 E1.18735
G1 X129.136 Y102.244 E1.19997
G1 X129.192 Y102.277 E1.20213
G1 X129.204 Y102.251 E1.20308
G1 X129.432 Y101.949 E1.21567
G1 X129.718 Y101.701 E1.22826
G1 X130.05 Y101.518 E1.24087
G1 X130.413 Y101.408 E1.25348
G1 X130.749 Y101.377 E1.26471
G1 X132.358 Y101.378 E1.31822
G1 X132.735 Y101.418 E1.33083
G1 X133.095 Y101.536 E1.34343
G1 X133.422 Y101.727 E1.35603
G1 X133.509 Y101.806 E1.35994
G1 X133.588 Y101.719 E1.36385
G1 X133.831 Y101.501 E1.3747
G1 X134.227 Y101.232 E1.39063
G1 X134.796 Y100.947 E1.41179
G1 X135.335 Y100.776 E1.4306
G1 X135.968 Y100.681 E1.45189
G1 X136.516 Y100.683 E1.47012
G1 X137.117 Y100.778 E1.49035
G1 X137.641 Y100.946 E1.50866
G1 X138.213 Y101.232 E1.52993
G1 X138.532 Y101.436 E1.54252
G1 X138.745 Y101.637 E1.55226
G1 X139.109 Y102.041 E1.57035
G1 X139.332 Y102.348 E1.58297
G1 X139.485 Y102.694 E1.59555
G1 X139.563 Y103.065 E1.60816
G1 X139.572 Y103.266 E1.61485
G1 X139.543 Y105.845 E1.70064
G1 X139.499 Y106.222 E1.71326
G1 X139.377 Y106.58 E1.72584
G1 X139.182 Y106.906 E1.73847
G1 X139.012 Y107.102 E1.7471
G1 X138.677 Y107.435 E1.76281
G1 X138.382 Y107.672 E1.7754
G1 X138.213 Y107.768 E1.78186
G1 X137.641 Y108.054 E1.80313
G1 X137.103 Y108.224 E1.8219
G1 X136.47 Y108.319 E1.84319
G1 X135.91 Y108.315 E1.86182
G1 X135.28 Y108.211 E1.88305
G1 X134.915 Y108.11 E1.89565
G1 X134.735 Y108.028 E1.90223
G1 X134.161 Y107.726 E1.9238
G1 X133.846 Y107.515 E1.93641
G1 X133.663 Y107.339 E1.94486
G1 X133.526 Y107.187 E1.95166
G1 X133.245 Y107.387 E1.96313
G1 X132.898 Y107.539 E1.97573
G1 X132.357 Y107.622 E1.99394
G1 X130.9 Y107.622 E2.0424
G1 X130.523 Y107.582 E2.05501
G1 X130.3 Y107.509 E2.06281
G1 X130.3 Y127.486 E2.72725
G1 X130.359 Y127.46 E2.72939
G1 X130.901 Y127.377 E2.74763
G1 X132.358 Y127.378 E2.79609
G1 X132.735 Y127.418 E2.8087
G1 X133.095 Y127.536 E2.8213
G1 X133.422 Y127.727 E2.8339
G1 X133.509 Y127.806 E2.8378
G1 X133.589 Y127.719 E2.84174
G1 X133.837 Y127.497 E2.85281
G1 X134.233 Y127.228 E2.86873
G1 X134.797 Y126.946 E2.8897
G1 X135.335 Y126.776 E2.90847
G1 X135.968 Y126.681 E2.92976
G1 X136.516 Y126.683 E2.94798
G1 X137.117 Y126.778 E2.96822
G1 X137.641 Y126.946 E2.98652
G1 X138.213 Y127.232 E3.00779
G1 X138.532 Y127.436 E3.02039
G1 X138.745 Y127.637 E3.03013
G1 X139.109 Y128.041 E3.04822
G1 X139.332 Y128.348 E3.06084
G1 X139.485 Y128.694 E3.07342
G1 X139.563 Y129.065 E3.08603
G1 X139.572 Y129.266 E3.09272
G1 X139.543 Y131.845 E3.1785
G1 X139.499 Y132.222 E3.19113
G1 X139.377 Y132.58 E3.20371
G1 X139.182 Y132.906 E3.21634
G1 X139.012 Y133.102 E3.22497
G1 X138.677 Y133.435 E3.24068
G1 X138.382 Y133.672 E3.25327
G1 X138.213 Y133.768 E3.25973
G1 X137.641 Y134.054 E3.281
G1 X137.103 Y134.224 E3.29977
G1 X136.47 Y134.319 E3.32106
G1 X135.91 Y134.315 E3.33968
G1 X135.28 Y134.211 E3.36092
G1 X134.915 Y134.11 E3.37352
G1 X134.735 Y134.028 E3.3801
G1 X134.161 Y133.726 E3.40167
G1 X133.846 Y133.515 E3.41428
G1 X133.663 Y133.339 E3.42272
G1 X133.526 Y133.187 E3.42953
G1 X133.245 Y133.387 E3.441
G1 X132.898 Y133.539 E3.4536
G1 X132.357 Y133.622 E3.47181
G1 X130.753 Y133.622 E3.52515
G1 X130.376 Y133.582 E3.53776
G1 X130.016 Y133.464 E3.55036
G1 X129.689 Y133.274 E3.56294
G1 X129.408 Y133.019 E3.57556
G1 X129.194 Y132.719 E3.58782
G1 X129.073 Y132.784 E3.59239
G1 X128.709 Y132.89 E3.605
G1 X128.394 Y132.919 E3.61552
G1 X127.785 Y132.921 E3.63578
G1 X127.817 Y132.994 E3.63843
G1 X127.891 Y133.365 E3.65101
G1 X127.886 Y133.744 E3.66362
G1 X127.802 Y134.114 E3.67623
G1 X127.642 Y134.457 E3.68882
G1 X127.413 Y134.76 E3.70146
G1 X127.127 Y135.008 E3.71405
G1 X126.809 Y135.184 E3.72613
G1 X126.434 Y135.345 E3.73971
G1 X126.072 Y135.457 E3.75231
G1 X125.695 Y135.491 E3.7649
G1 X125.319 Y135.445 E3.7775
G1 X124.96 Y135.321 E3.79013
G1 X124.636 Y135.125 E3.80273
G1 X124.602 Y135.093 E3.80428
G1 X124.376 Y135.502 E3.81982
G1 X124.11 Y135.865 E3.83479
G1 X123.579 Y136.428 E3.86053
G1 X123.292 Y136.675 E3.87313
G1 X123.13 Y136.774 E3.87944
G1 X122.104 Y137.332 E3.91828
G1 X121.58 Y137.519 E3.93679
G1 X120.827 Y137.662 E3.96228
G1 X120.487 Y137.694 E3.97364
G1 X99.114 Y137.644 E4.68451
G1 X98.561 Y137.556 E4.70314
G1 X97.817 Y137.314 E4.72916
G1 X97.405 Y137.119 E4.74432
G1 X96.754 Y136.703 E4.77001
G1 X96.411 Y136.419 E4.78482
G1 X95.88 Y135.854 E4.81061
G1 X95.613 Y135.486 E4.82574
G1 X95.236 Y134.798 E4.85183
G1 X95.071 Y134.377 E4.86687
G1 X94.881 Y133.631 E4.89247
G1 X94.825 Y133.188 E4.90732
G1 X94.8 Y102.204 E5.93786
G1 X94.814 Y101.976 E5.94545
G1 X94.913 Y101.197 E5.97157
G1 X95.026 Y100.76 E5.98658
G1 X95.312 Y100.039 E6.01238
G1 X95.531 Y99.642 E6.02746
G1 X95.986 Y99.018 E6.05315
G1 X96.294 Y98.691 E6.06809
M204 S1500
M205 X30 Y30
G0 F3600 X96.549 Y98.999
M204 S500
M205 X20 Y20
G1 F1200 X97.151 Y98.502 E6.09405
G1 X97.447 Y98.315 E6.1057
G1 X98.15 Y97.985 E6.13153
G1 X98.482 Y97.877 E6.14314
G1 X99.246 Y97.731 E6.16901
G1 X99.509 Y97.706 E6.1778
G1 X120.516 Y97.71 E6.87649
G1 X120.787 Y97.736 E6.88555
G1 X121.547 Y97.886 E6.91131
G1 X121.876 Y97.995 E6.92284
G1 X122.569 Y98.324 E6.94836
G1 X122.87 Y98.517 E6.96025
G1 X123.483 Y99.032 E6.98688
G1 X123.716 Y99.282 E6.99824
G1 X124.14 Y99.867 E7.02227
G1 X124.305 Y100.168 E7.03369
G1 X124.499 Y100.651 E7.051
G1 X124.55 Y100.547 E7.05486
G1 X124.765 Y100.29 E7.066
G1 X125.033 Y100.092 E7.07708
G1 X125.342 Y99.963 E7.08822
G1 X125.672 Y99.911 E7.09933
G1 X126.004 Y99.938 E7.11041
G1 X126.269 Y100.021 E7.11965
G1 X126.633 Y100.175 E7.13279
G1 X126.923 Y100.341 E7.14391
G1 X127.166 Y100.57 E7.15501
G1 X127.347 Y100.851 E7.16613
G1 X127.456 Y101.167 E7.17725
G1 X127.488 Y101.5 E7.18837
G1 X127.439 Y101.83 E7.19947
G1 X127.314 Y102.14 E7.21059
G1 X127.119 Y102.411 E7.22169
G1 X127.044 Y102.475 E7.22497
G1 X128.397 Y102.482 E7.26997
G1 X128.729 Y102.524 E7.2811
G1 X129.041 Y102.643 E7.29221
G1 X129.38 Y102.899 E7.30634
G1 X129.466 Y102.614 E7.31624
G1 X129.636 Y102.326 E7.32736
G1 X129.869 Y102.087 E7.33846
G1 X130.153 Y101.91 E7.34959
G1 X130.47 Y101.805 E7.3607
G1 X130.749 Y101.777 E7.37003
G1 X132.358 Y101.778 E7.42354
G1 X132.69 Y101.818 E7.43467
G1 X133.002 Y101.936 E7.44576
G1 X133.278 Y102.124 E7.45687
G1 X133.502 Y102.372 E7.46798
G1 X133.539 Y102.441 E7.47059
G1 X133.555 Y102.4 E7.47205
G1 X133.855 Y102.017 E7.48823
G1 X134.098 Y101.799 E7.49909
G1 X134.406 Y101.589 E7.51149
G1 X134.975 Y101.304 E7.53265
G1 X135.394 Y101.172 E7.54726
G1 X136.027 Y101.077 E7.56855
G1 X136.454 Y101.078 E7.58276
G1 X137.055 Y101.173 E7.60299
G1 X137.462 Y101.304 E7.61721
G1 X138.034 Y101.59 E7.63849
G1 X138.313 Y101.774 E7.6496
G1 X138.448 Y101.905 E7.65586
G1 X138.812 Y102.309 E7.67394
G1 X139.005 Y102.582 E7.68506
G1 X139.127 Y102.893 E7.69618
G1 X139.172 Y103.262 E7.70854
G1 X139.143 Y105.841 E7.79432
G1 X139.099 Y106.172 E7.80543
G1 X138.979 Y106.483 E7.81652
G1 X138.73 Y106.818 E7.8304
G1 X138.395 Y107.151 E7.84611
G1 X138.034 Y107.41 E7.86089
G1 X137.462 Y107.696 E7.88216
G1 X137.044 Y107.828 E7.89674
G1 X136.411 Y107.923 E7.91803
G1 X135.975 Y107.92 E7.93253
G1 X135.345 Y107.816 E7.95377
G1 X134.921 Y107.674 E7.96864
G1 X134.347 Y107.372 E7.99021
G1 X133.96 Y107.071 E8.00652
G1 X133.718 Y106.803 E8.01853
G1 X133.541 Y106.553 E8.02871
G1 X133.412 Y106.743 E8.03635
G1 X133.164 Y106.966 E8.04745
G1 X132.87 Y107.125 E8.05856
G1 X132.546 Y107.209 E8.0697
G1 X132.357 Y107.222 E8.076
G1 X130.9 Y107.222 E8.12446
G1 X130.568 Y107.182 E8.13558
G1 X130.256 Y107.065 E8.14666
G1 X129.979 Y106.877 E8.1578
G1 X129.9 Y106.789 E8.16173
G1 X129.9 Y128.207 E8.87409
G1 X130.093 Y128.033 E8.88274
G1 X130.387 Y127.874 E8.89385
G1 X130.711 Y127.79 E8.90499
G1 X130.901 Y127.777 E8.91132
G1 X132.358 Y127.778 E8.95978
G1 X132.69 Y127.818 E8.9709
G1 X133.002 Y127.936 E8.982
G1 X133.278 Y128.124 E8.99311
G1 X133.502 Y128.372 E9.00422
G1 X133.539 Y128.441 E9.00682
G1 X133.555 Y128.401 E9.00826
G1 X133.856 Y128.017 E9.02449
G1 X134.104 Y127.795 E9.03556
G1 X134.412 Y127.586 E9.04794
G1 X134.976 Y127.304 E9.06891
G1 X135.394 Y127.172 E9.08349
G1 X136.027 Y127.077 E9.10478
G1 X136.454 Y127.078 E9.11898
G1 X137.055 Y127.173 E9.13922
G1 X137.462 Y127.304 E9.15344
G1 X138.034 Y127.59 E9.17471
G1 X138.313 Y127.774 E9.18582
G1 X138.448 Y127.905 E9.19208
G1 X138.812 Y128.309 E9.21017
G1 X139.005 Y128.582 E9.22129
G1 X139.127 Y128.893 E9.2324
G1 X139.172 Y129.262 E9.24476
G1 X139.143 Y131.841 E9.33055
G1 X139.099 Y132.172 E9.34165
G1 X138.979 Y132.483 E9.35274
G1 X138.73 Y132.818 E9.36662
G1 X138.395 Y133.151 E9.38233
G1 X138.034 Y133.41 E9.39711
G1 X137.462 Y133.696 E9.41838
G1 X137.044 Y133.828 E9.43296
G1 X136.411 Y133.923 E9.45425
G1 X135.975 Y133.92 E9.46875
G1 X135.345 Y133.816 E9.48999
G1 X134.921 Y133.674 E9.50486
G1 X134.347 Y133.372 E9.52643
G1 X133.96 Y133.071 E9.54274
G1 X133.718 Y132.803 E9.55475
G1 X133.541 Y132.553 E9.56494
G1 X133.412 Y132.743 E9.57258
G1 X133.164 Y132.966 E9.58367
G1 X132.87 Y133.125 E9.59479
G1 X132.546 Y133.209 E9.60592
G1 X132.357 Y133.222 E9.61222
G1 X130.753 Y133.222 E9.66557
G1 X130.421 Y133.182 E9.67669
G1 X130.109 Y133.065 E9.68777
G1 X129.832 Y132.877 E9.69891
G1 X129.609 Y132.629 E9.71
G1 X129.45 Y132.335 E9.72112
G1 X129.388 Y132.097 E9.7293
G1 X129.147 Y132.296 E9.73969
G1 X128.847 Y132.442 E9.75079
G1 X128.393 Y132.519 E9.76611
G1 X127.063 Y132.523 E9.81034
G1 X127.246 Y132.727 E9.81946
G1 X127.403 Y133.021 E9.83054
G1 X127.487 Y133.345 E9.84168
G1 X127.491 Y133.679 E9.85278
G1 X127.416 Y134.004 E9.86388
G1 X127.266 Y134.303 E9.875
G1 X127.05 Y134.557 E9.88609
G1 X126.651 Y134.816 E9.90192
G1 X126.276 Y134.977 E9.91549
G1 X125.956 Y135.072 E9.92659
G1 X125.622 Y135.087 E9.93771
G1 X125.294 Y135.023 E9.94883
G1 X124.991 Y134.884 E9.95991
G1 X124.729 Y134.676 E9.97104
G1 X124.524 Y134.412 E9.98216
G1 X124.506 Y134.372 E9.98362
G1 X124.406 Y134.622 E9.99257
G1 X124.026 Y135.308 E10.01866
G1 X123.819 Y135.591 E10.03032
G1 X123.288 Y136.154 E10.05606
G1 X122.939 Y136.423 E10.07071
G1 X121.913 Y136.981 E10.10956
G1 X121.505 Y137.126 E10.12396
G1 X120.752 Y137.269 E10.14945
G1 X120.488 Y137.294 E10.15827
G1 X99.115 Y137.244 E10.86914
G1 X98.685 Y137.175 E10.88363
G1 X97.941 Y136.933 E10.90965
G1 X97.62 Y136.782 E10.92145
G1 X96.969 Y136.366 E10.94714
G1 X96.703 Y136.145 E10.95865
G1 X96.172 Y135.58 E10.98444
G1 X95.964 Y135.294 E10.9962
G1 X95.587 Y134.606 E11.02229
G1 X95.458 Y134.279 E11.03398
G1 X95.268 Y133.533 E11.05959
G1 X95.225 Y133.188 E11.07115
G1 X95.2 Y102.204 E12.10168
G1 X95.211 Y102.026 E12.10761
G1 X95.31 Y101.247 E12.13373
G1 X95.398 Y100.908 E12.14538
G1 X95.684 Y100.187 E12.17118
G1 X95.854 Y99.878 E12.18291
G1 X96.309 Y99.254 E12.2086
G1 X96.549 Y98.999 E12.22024
M204 S1500
M205 X30 Y30
G0 F3600 X96.803 Y99.308
M204 S500
M205 X20 Y20
G1 F1200 X97.405 Y98.811 E12.24621
G1 X97.617 Y98.677 E12.25455
G1 X98.32 Y98.347 E12.28038
G1 X98.557 Y98.27 E12.28867
G1 X99.321 Y98.124 E12.31454
G1 X99.509 Y98.106 E12.32082
G1 X120.516 Y98.11 E13.01951
G1 X120.71 Y98.129 E13.026
G1 X121.47 Y98.279 E13.05176
G1 X121.705 Y98.357 E13.06
G1 X122.398 Y98.686 E13.08551
G1 X122.612 Y98.823 E13.09396
G1 X123.225 Y99.338 E13.12059
G1 X123.392 Y99.517 E13.12874
G1 X123.816 Y100.102 E13.15277
G1 X123.934 Y100.317 E13.16092
G1 X124.229 Y101.052 E13.18726
G1 X124.293 Y101.298 E13.19572
G1 X124.392 Y102.076 E13.2218
G1 X124.4 Y102.203 E13.22604
G1 X124.399 Y103.095 E13.2557
G1 X124.804 Y102.935 E13.27019
G1 X125.176 Y102.865 E13.28278
G1 X128.395 Y102.882 E13.38984
G1 X128.674 Y102.923 E13.39922
G1 X128.931 Y103.041 E13.40863
G1 X129.116 Y103.194 E13.41661
G1 X129.226 Y103.31 E13.42193
G1 X129.389 Y103.54 E13.43131
G1 X129.481 Y103.806 E13.44067
G1 X129.5 Y103.998 E13.44709
G1 X129.5 Y131.002 E14.34524
G1 X129.46 Y131.281 E14.35462
G1 X129.344 Y131.538 E14.36399
G1 X129.225 Y131.69 E14.37042
G1 X129.114 Y131.807 E14.37578
G1 X128.893 Y131.982 E14.38516
G1 X128.632 Y132.089 E14.39454
G1 X128.392 Y132.119 E14.40258
G1 X125.138 Y132.128 E14.51081
G1 X124.757 Y132.054 E14.52372
G1 X124.375 Y131.898 E14.53744
G1 X124.374 Y133.201 E14.58078
G1 X124.342 Y133.451 E14.58916
G1 X124.149 Y134.195 E14.61473
G1 X124.056 Y134.429 E14.6231
G1 X123.676 Y135.115 E14.64919
G1 X123.528 Y135.316 E14.65749
G1 X122.997 Y135.879 E14.68323
G1 X122.748 Y136.071 E14.69369
G1 X121.722 Y136.629 E14.73253
G1 X121.431 Y136.733 E14.74281
G1 X120.678 Y136.876 E14.7683
G1 X120.489 Y136.894 E14.77462
G1 X99.116 Y136.844 E15.48549
G1 X98.809 Y136.795 E15.49583
G1 X98.065 Y136.553 E15.52185
G1 X97.836 Y136.445 E15.53027
G1 X97.185 Y136.029 E15.55597
G1 X96.994 Y135.871 E15.56421
G1 X96.463 Y135.306 E15.59
G1 X96.315 Y135.102 E15.59838
G1 X95.938 Y134.414 E15.62448
G1 X95.846 Y134.18 E15.63284
G1 X95.656 Y133.434 E15.65844
G1 X95.625 Y133.188 E15.66669
G1 X95.6 Y102.204 E16.69722
G1 X95.608 Y102.077 E16.70145
G1 X95.707 Y101.298 E16.72757
G1 X95.769 Y101.055 E16.73591
G1 X96.055 Y100.334 E16.76171
G1 X96.177 Y100.114 E16.77008
G1 X96.632 Y99.49 E16.79577
G1 X96.803 Y99.308 E16.80407
M204 S1500
M205 X30 Y30
G0 F3600 X97.058 Y99.616
M204 S500
M205 X20 Y20
G1 F1200 X97.66 Y99.119 E16.83004
G1 X97.787 Y99.039 E16.83503
G1 X98.49 Y98.709 E16.86086
G1 X98.632 Y98.663 E16.86582
G1 X99.396 Y98.517 E16.89169
G1 X99.509 Y98.506 E16.89547
G1 X120.516 Y98.51 E17.59416
G1 X120.632 Y98.521 E17.59804
G1 X121.392 Y98.671 E17.62381
G1 X121.533 Y98.718 E17.62875
G1 X122.226 Y99.047 E17.65426
G1 X122.355 Y99.13 E17.65937
G1 X122.968 Y99.645 E17.68599
G1 X123.068 Y99.752 E17.69087
G1 X123.492 Y100.337 E17.7149
G1 X123.563 Y100.466 E17.71979
G1 X123.858 Y101.201 E17.74614
G1 X123.896 Y101.348 E17.75119
G1 X123.995 Y102.126 E17.77727
G1 X124 Y102.203 E17.77984
G1 X123.999 Y103.934 E17.83741
G1 X124.04 Y103.854 E17.8404
G1 X124.108 Y103.753 E17.84445
G1 X124.261 Y103.597 E17.85172
G1 X124.386 Y103.53 E17.85643
G1 X124.951 Y103.307 E17.87664
G1 X125.174 Y103.265 E17.88418
G1 X128.393 Y103.282 E17.99125
G1 X128.607 Y103.323 E17.9985
G1 X128.825 Y103.469 E18.00722
G1 X128.935 Y103.585 E18.01254
G1 X129.054 Y103.768 E18.0198
G1 X129.1 Y103.998 E18.0276
G1 X129.1 Y131.002 E18.92576
G1 X129.06 Y131.217 E18.93303
G1 X128.935 Y131.415 E18.94082
G1 X128.824 Y131.532 E18.94618
