;FLAVOR:Marlin
;TIME:2088
;Filament used: 2.97426m
;Layer height: 0.3
;Generated with Cura_SteamEngine 4.0.0
M82 ;absolute extrusion mode
; Ender 3 Custom Start G-code
M140 S60 ; Set Heat Bed temperature
M190 S60 ; Wait for Heat Bed temperature
M104 S160; start warming extruder to 160
G28 ; Home all axes
G29 ; Auto bed-level (BL-Touch)
G92 E0 ; Reset Extruder
M104 S195 ; Set Extruder temperature
G1 X0.1 Y20 Z0.3 F5000.0 ; Move to start position
M109 S195 ; Wait for Extruder temperature
; G1 Z2.0 F3000 ; Move Z Axis up little to prevent scratching of Heat Bed
G1 X0.1 Y200.0 Z0.3 F1500.0 E15 ; Draw the first line
G1 X0.4 Y200.0 Z0.3 F5000.0 ; Move to side a little
G1 X0.4 Y20 Z0.3 F1500.0 E30 ; Draw the second line
G92 E0 ; Reset Extruder
G1 Z2.0 F3000 ; Move Z Axis up little to prevent scratching of Heat Bed
; End of custom start GCode
G92 E0
G1 F4200 E-4
;LAYER_COUNT:81
;LAYER:0
M106 S178.5
M204 S1500
M205 X30 Y30
G0 F3000 X105.685 Y94.476 Z0.2
M204 S500
M205 X20 Y20
;TYPE:SKIRT
G1 F4200 E0
G1 F1200 X105.957 Y94.212 E0.01261
G1 X106.278 Y94.011 E0.0252
G1 X106.533 Y93.909 E0.03434
G1 X108.882 Y93.178 E0.11616
G1 X109.254 Y93.104 E0.12878
G1 X109.653 Y93.113 E0.14205
G1 X109.663 Y93.114 E0.14239
G1 X115.03 Y91.461 E0.32917
G1 X115.402 Y91.388 E0.34178
G1 X115.781 Y91.395 E0.35438
G1 X116.15 Y91.48 E0.36698
G1 X116.172 Y91.49 E0.36778
G1 X122.043 Y89.593 E0.57299
G1 X122.413 Y89.515 E0.58557
G1 X122.792 Y89.517 E0.59818
G1 X123.163 Y89.597 E0.6108
G1 X123.508 Y89.754 E0.62341
G1 X123.812 Y89.979 E0.63599
G1 X124.063 Y90.263 E0.64859
G1 X124.255 Y90.631 E0.6624
G1 X124.44 Y90.446 E0.6711
G1 X125.095 Y89.956 E0.69831
G1 X125.514 Y89.722 E0.71427
G1 X126.761 Y89.231 E0.75884
G1 X127.126 Y89.13 E0.77144
G1 X127.42 Y89.106 E0.78125
G1 X129.683 Y89.106 E0.85652
G1 X130.06 Y89.146 E0.86913
G1 X130.297 Y89.224 E0.87743
G1 X130.337 Y89.122 E0.88107
G1 X130.545 Y88.805 E0.89368
G1 X130.815 Y88.539 E0.90629
G1 X131.135 Y88.336 E0.91889
G1 X131.49 Y88.203 E0.9315
G1 X131.937 Y88.147 E0.94648
G1 X135.956 Y88.148 E1.08016
G1 X136.333 Y88.188 E1.09276
G1 X136.693 Y88.306 E1.10536
G1 X137.021 Y88.497 E1.11799
G1 X137.23 Y88.676 E1.12714
G1 X137.698 Y89.145 E1.14918
G1 X137.878 Y89.136 E1.15517
G1 X138.252 Y89.197 E1.16778
G1 X138.605 Y89.335 E1.18038
G1 X138.921 Y89.543 E1.19297
G1 X139.187 Y89.814 E1.2056
G1 X139.39 Y90.134 E1.2182
G1 X139.521 Y90.489 E1.23078
G1 X139.576 Y90.864 E1.24339
G1 X139.552 Y91.233 E1.25569
G1 X139.507 Y91.499 E1.26466
G1 X139.551 Y91.791 E1.27448
G1 X139.569 Y92.17 E1.2871
G1 X139.506 Y92.543 E1.29969
G1 X139.367 Y92.896 E1.3123
G1 X139.157 Y93.211 E1.3249
G1 X138.886 Y93.476 E1.3375
G1 X138.565 Y93.678 E1.35012
G1 X138.209 Y93.808 E1.36272
G1 X137.834 Y93.861 E1.37532
G1 X137.712 Y93.852 E1.37939
G1 X137.239 Y94.325 E1.40164
G1 X136.944 Y94.563 E1.41424
G1 X136.606 Y94.734 E1.42684
G1 X136.24 Y94.831 E1.43944
G1 X135.966 Y94.852 E1.44858
G1 X132.2 Y94.852 E1.57383
G1 X131.823 Y94.812 E1.58644
G1 X131.6 Y94.739 E1.59425
G1 X131.6 Y114.257 E2.24342
G1 X131.659 Y114.231 E2.24556
G1 X132.2 Y114.148 E2.26377
G1 X135.966 Y114.148 E2.38902
G1 X136.343 Y114.188 E2.40163
G1 X136.703 Y114.306 E2.41423
G1 X137.03 Y114.496 E2.42681
G1 X137.239 Y114.675 E2.43597
G1 X137.708 Y115.144 E2.45803
G1 X137.882 Y115.136 E2.46382
G1 X138.256 Y115.198 E2.47643
G1 X138.608 Y115.336 E2.489
G1 X138.924 Y115.546 E2.50162
G1 X139.189 Y115.817 E2.51423
G1 X139.392 Y116.137 E2.52683
G1 X139.522 Y116.493 E2.53944
G1 X139.576 Y116.868 E2.55204
G1 X139.552 Y117.233 E2.56421
G1 X139.507 Y117.501 E2.57324
G1 X139.551 Y117.791 E2.583
G1 X139.569 Y118.17 E2.59562
G1 X139.506 Y118.543 E2.6082
G1 X139.367 Y118.896 E2.62082
G1 X139.157 Y119.211 E2.63341
G1 X138.886 Y119.476 E2.64602
G1 X138.565 Y119.678 E2.65863
G1 X138.209 Y119.808 E2.67124
G1 X137.834 Y119.861 E2.68384
G1 X137.712 Y119.852 E2.6879
G1 X137.239 Y120.325 E2.71015
G1 X136.944 Y120.563 E2.72276
G1 X136.606 Y120.734 E2.73536
G1 X136.24 Y120.831 E2.74795
G1 X135.966 Y120.852 E2.75709
G1 X132.2 Y120.852 E2.88235
G1 X131.823 Y120.812 E2.89496
G1 X131.6 Y120.739 E2.90276
G1 X131.6 Y140.258 E3.55197
G1 X131.687 Y140.222 E3.5551
G1 X132.2 Y140.147 E3.57234
G1 X135.957 Y140.148 E3.6973
G1 X136.334 Y140.188 E3.70991
G1 X136.694 Y140.306 E3.72251
G1 X137.022 Y140.497 E3.73514
G1 X137.23 Y140.675 E3.74424
G1 X137.701 Y141.146 E3.7664
G1 X137.882 Y141.137 E3.77242
G1 X138.256 Y141.199 E3.78503
G1 X138.608 Y141.337 E3.79761
G1 X138.924 Y141.547 E3.81023
G1 X139.189 Y141.818 E3.82283
G1 X139.392 Y142.138 E3.83544
G1 X139.522 Y142.494 E3.84804
G1 X139.576 Y142.869 E3.86064
G1 X139.552 Y143.234 E3.87281
G1 X139.507 Y143.501 E3.88182
G1 X139.551 Y143.791 E3.89157
G1 X139.569 Y144.17 E3.90419
G1 X139.506 Y144.543 E3.91677
G1 X139.367 Y144.896 E3.92939
G1 X139.157 Y145.211 E3.94198
G1 X138.886 Y145.476 E3.95459
G1 X138.565 Y145.678 E3.9672
G1 X138.209 Y145.808 E3.97981
G1 X137.834 Y145.861 E3.99241
G1 X137.712 Y145.852 E3.99647
G1 X137.239 Y146.325 E4.01872
G1 X136.944 Y146.563 E4.03133
G1 X136.606 Y146.734 E4.04393
G1 X136.24 Y146.831 E4.05652
G1 X135.966 Y146.852 E4.06566
G1 X131.935 Y146.852 E4.19973
G1 X131.558 Y146.812 E4.21234
G1 X131.198 Y146.694 E4.22494
G1 X130.871 Y146.504 E4.23752
G1 X130.59 Y146.249 E4.25014
G1 X130.37 Y145.94 E4.26276
G1 X130.301 Y145.782 E4.26849
G1 X129.957 Y145.873 E4.28033
G1 X129.678 Y145.894 E4.28963
G1 X127.378 Y145.887 E4.36613
G1 X127.001 Y145.846 E4.37875
G1 X126.711 Y145.757 E4.38884
G1 X125.479 Y145.261 E4.43301
G1 X124.999 Y144.974 E4.45161
G1 X124.323 Y144.411 E4.48087
G1 X124.285 Y144.371 E4.4827
G1 X124.151 Y144.649 E4.49297
G1 X123.919 Y144.949 E4.50558
G1 X123.629 Y145.193 E4.51819
G1 X123.294 Y145.371 E4.53081
G1 X122.93 Y145.475 E4.5434
G1 X122.552 Y145.501 E4.556
G1 X122.067 Y145.415 E4.57238
G1 X116.148 Y143.504 E4.77925
G1 X116.005 Y143.558 E4.78434
G1 X115.631 Y143.615 E4.79692
G1 X115.252 Y143.592 E4.80955
G1 X115.019 Y143.537 E4.81751
G1 X109.661 Y141.887 E5.00398
G1 X109.65 Y141.888 E5.00435
G1 X109.271 Y141.897 E5.01696
G1 X108.882 Y141.822 E5.03013
G1 X106.533 Y141.091 E5.11196
G1 X106.185 Y140.941 E5.12456
G1 X105.876 Y140.721 E5.13718
G1 X105.62 Y140.442 E5.14977
G1 X105.428 Y140.115 E5.16238
G1 X105.309 Y139.755 E5.17499
G1 X105.268 Y139.378 E5.18761
G1 X105.288 Y139.105 E5.19671
G1 X105.359 Y138.632 E5.21262
G1 X105.454 Y138.265 E5.22523
G1 X105.624 Y137.926 E5.23784
G1 X105.862 Y137.631 E5.25045
G1 X106.155 Y137.392 E5.26302
G1 X106.493 Y137.219 E5.27565
G1 X106.859 Y137.121 E5.28825
G1 X107.139 Y137.099 E5.2976
G1 X120.664 Y137.1 E5.74744
G1 X121.041 Y137.14 E5.76005
G1 X121.401 Y137.258 E5.77265
G1 X121.729 Y137.449 E5.78527
G1 X122.009 Y137.704 E5.79787
G1 X122.23 Y138.012 E5.81048
G1 X122.381 Y138.359 E5.82307
G1 X122.464 Y138.876 E5.84048
G1 X122.492 Y141.009 E5.91143
G1 X123.512 Y141.42 E5.94801
G1 X123.675 Y141.506 E5.95414
G1 X123.676 Y136.616 E6.11678
G1 X123.716 Y136.239 E6.12939
G1 X123.834 Y135.879 E6.14199
G1 X124.025 Y135.551 E6.15461
G1 X124.203 Y135.343 E6.16372
G1 X124.32 Y135.226 E6.16922
G1 X124.615 Y134.988 E6.18183
G1 X124.953 Y134.817 E6.19443
G1 X125.319 Y134.72 E6.20702
G1 X125.491 Y134.707 E6.21276
G1 X125.464 Y100.288 E7.35754
G1 X125.193 Y100.256 E7.36661
G1 X124.834 Y100.133 E7.37924
G1 X124.51 Y99.938 E7.39181
G1 X124.32 Y99.774 E7.40016
G1 X124.203 Y99.657 E7.40567
G1 X123.965 Y99.362 E7.41827
G1 X123.794 Y99.024 E7.43087
G1 X123.697 Y98.658 E7.44346
G1 X123.676 Y98.372 E7.453
G1 X123.708 Y93.466 E7.61618
G1 X123.484 Y93.592 E7.62473
G1 X122.464 Y94.001 E7.66128
G1 X122.464 Y96.1 E7.73109
G1 X122.424 Y96.477 E7.7437
G1 X122.306 Y96.837 E7.7563
G1 X122.116 Y97.164 E7.76888
G1 X121.861 Y97.445 E7.7815
G1 X121.552 Y97.665 E7.79412
G1 X121.205 Y97.817 E7.80672
G1 X120.664 Y97.9 E7.82492
G1 X107.139 Y97.9 E8.27476
G1 X106.762 Y97.86 E8.28737
G1 X106.402 Y97.742 E8.29997
G1 X106.075 Y97.552 E8.31255
G1 X105.794 Y97.297 E8.32517
G1 X105.574 Y96.988 E8.33779
G1 X105.422 Y96.641 E8.35039
G1 X105.359 Y96.368 E8.35971
G1 X105.288 Y95.896 E8.37558
G1 X105.271 Y95.517 E8.3882
G1 X105.334 Y95.143 E8.40082
G1 X105.474 Y94.791 E8.41342
G1 X105.685 Y94.476 E8.42603
M204 S1500
M205 X30 Y30
G0 F3000 X106.1 Y94.616
M204 S500
M205 X20 Y20
G1 F1200 X106.367 Y94.416 E8.43712
G1 X106.652 Y94.291 E8.44747
G1 X109.001 Y93.56 E8.5293
G1 X109.33 Y93.5 E8.54042
G1 X109.601 Y93.509 E8.54944
G1 X109.698 Y93.522 E8.55269
G1 X115.148 Y91.843 E8.74237
G1 X115.477 Y91.783 E8.75349
G1 X115.81 Y91.804 E8.76459
G1 X116.129 Y91.902 E8.77569
G1 X116.154 Y91.917 E8.77666
G1 X122.166 Y89.974 E8.9868
G1 X122.493 Y89.91 E8.99788
G1 X122.827 Y89.925 E9.009
G1 X123.148 Y90.019 E9.02013
G1 X123.437 Y90.187 E9.03125
G1 X123.678 Y90.418 E9.04235
G1 X123.915 Y90.836 E9.05833
G1 X124.134 Y91.451 E9.08005
G1 X124.158 Y91.559 E9.08373
G1 X124.16 Y91.547 E9.08413
G1 X124.279 Y91.235 E9.09524
G1 X124.469 Y90.96 E9.10635
G1 X124.679 Y90.766 E9.11586
G1 X125.334 Y90.276 E9.14307
G1 X125.66 Y90.094 E9.15549
G1 X126.907 Y89.603 E9.20006
G1 X127.23 Y89.519 E9.21116
G1 X127.42 Y89.506 E9.2175
G1 X129.683 Y89.506 E9.29276
G1 X130.015 Y89.546 E9.30389
G1 X130.327 Y89.663 E9.31497
G1 X130.546 Y89.823 E9.32399
G1 X130.546 Y89.792 E9.32502
G1 X130.622 Y89.467 E9.33612
G1 X130.773 Y89.169 E9.34723
G1 X130.99 Y88.915 E9.35835
G1 X131.262 Y88.721 E9.36946
G1 X131.572 Y88.596 E9.38057
G1 X131.937 Y88.547 E9.39282
G1 X135.956 Y88.548 E9.5265
G1 X136.288 Y88.588 E9.53762
G1 X136.601 Y88.705 E9.54873
G1 X136.947 Y88.959 E9.56301
G1 X137.548 Y89.561 E9.5913
G1 X137.679 Y89.536 E9.59574
G1 X138.013 Y89.553 E9.60686
G1 X138.333 Y89.648 E9.61796
G1 X138.621 Y89.816 E9.62905
G1 X138.862 Y90.048 E9.64018
G1 X139.041 Y90.33 E9.65129
G1 X139.147 Y90.647 E9.6624
G1 X139.176 Y90.98 E9.67352
G1 X139.157 Y91.166 E9.67974
G1 X139.102 Y91.494 E9.6908
G1 X139.156 Y91.851 E9.70281
G1 X139.167 Y92.185 E9.71393
G1 X139.098 Y92.512 E9.72504
G1 X138.953 Y92.813 E9.73615
G1 X138.742 Y93.072 E9.74727
G1 X138.475 Y93.273 E9.75838
G1 X138.168 Y93.405 E9.7695
G1 X137.839 Y93.46 E9.78059
G1 X137.558 Y93.44 E9.78996
G1 X136.956 Y94.042 E9.81828
G1 X136.693 Y94.248 E9.82939
G1 X136.389 Y94.387 E9.84051
G1 X135.966 Y94.452 E9.85474
G1 X132.2 Y94.452 E9.98
G1 X131.868 Y94.412 E9.99112
G1 X131.556 Y94.295 E10.0022
G1 X131.279 Y94.107 E10.01334
G1 X131.2 Y94.019 E10.01727
G1 X131.2 Y114.978 E10.71437
G1 X131.393 Y114.804 E10.72301
G1 X131.687 Y114.645 E10.73413
G1 X132.011 Y114.561 E10.74526
G1 X132.2 Y114.548 E10.75156
G1 X135.966 Y114.548 E10.87682
G1 X136.298 Y114.588 E10.88794
G1 X136.61 Y114.705 E10.89903
G1 X136.956 Y114.958 E10.91328
G1 X137.558 Y115.56 E10.9416
G1 X137.682 Y115.536 E10.9458
G1 X138.016 Y115.554 E10.95692
G1 X138.336 Y115.649 E10.96803
G1 X138.624 Y115.818 E10.97913
G1 X138.864 Y116.051 E10.99026
G1 X139.042 Y116.333 E11.00135
G1 X139.148 Y116.65 E11.01247
G1 X139.176 Y116.983 E11.02358
G1 X139.157 Y117.166 E11.0297
G1 X139.102 Y117.494 E11.04076
G1 X139.156 Y117.851 E11.05277
G1 X139.167 Y118.185 E11.06389
G1 X139.098 Y118.512 E11.075
G1 X138.953 Y118.813 E11.08611
G1 X138.742 Y119.072 E11.09723
G1 X138.475 Y119.273 E11.10834
G1 X138.168 Y119.405 E11.11946
G1 X137.839 Y119.46 E11.13055
G1 X137.558 Y119.44 E11.13992
G1 X136.956 Y120.042 E11.16824
G1 X136.693 Y120.248 E11.17935
G1 X136.389 Y120.387 E11.19047
G1 X135.966 Y120.452 E11.2047
G1 X132.2 Y120.452 E11.32996
G1 X131.868 Y120.412 E11.34108
G1 X131.556 Y120.295 E11.35216
G1 X131.279 Y120.107 E11.3633
G1 X131.2 Y120.019 E11.36723
G1 X131.2 Y140.974 E12.0642
G1 X131.412 Y140.79 E12.07353
G1 X131.709 Y140.636 E12.08466
G1 X132.033 Y140.557 E12.09575
G1 X132.2 Y140.547 E12.10132
G1 X135.957 Y140.548 E12.22627
G1 X136.289 Y140.588 E12.2374
G1 X136.602 Y140.705 E12.24851
G1 X136.947 Y140.958 E12.26274
G1 X137.551 Y141.562 E12.29115
G1 X137.682 Y141.537 E12.29559
G1 X138.016 Y141.555 E12.30671
G1 X138.336 Y141.65 E12.31781
G1 X138.624 Y141.819 E12.32892
G1 X138.864 Y142.052 E12.34005
G1 X139.042 Y142.334 E12.35114
G1 X139.148 Y142.651 E12.36225
G1 X139.176 Y142.984 E12.37337
G1 X139.157 Y143.167 E12.37949
G1 X139.102 Y143.494 E12.39052
G1 X139.156 Y143.851 E12.40253
G1 X139.167 Y144.185 E12.41364
G1 X139.098 Y144.512 E12.42476
G1 X138.953 Y144.813 E12.43587
G1 X138.742 Y145.072 E12.44698
G1 X138.475 Y145.273 E12.4581
G1 X138.168 Y145.405 E12.46921
G1 X137.839 Y145.46 E12.4803
G1 X137.558 Y145.44 E12.48967
G1 X136.956 Y146.042 E12.51799
G1 X136.693 Y146.248 E12.5291
G1 X136.389 Y146.387 E12.54022
G1 X135.966 Y146.452 E12.55445
G1 X131.935 Y146.452 E12.68853
G1 X131.603 Y146.412 E12.69965
G1 X131.291 Y146.295 E12.71073
G1 X131.014 Y146.107 E12.72187
G1 X130.791 Y145.859 E12.73296
G1 X130.632 Y145.565 E12.74407
G1 X130.548 Y145.241 E12.75521
G1 X130.547 Y145.183 E12.75714
G1 X130.41 Y145.29 E12.76292
G1 X130.106 Y145.429 E12.77404
G1 X129.679 Y145.494 E12.7884
G1 X127.379 Y145.487 E12.8649
G1 X127.047 Y145.446 E12.87603
G1 X126.86 Y145.386 E12.88256
G1 X125.628 Y144.89 E12.92673
G1 X125.255 Y144.667 E12.94119
G1 X124.579 Y144.104 E12.97045
G1 X124.35 Y143.861 E12.98155
G1 X124.184 Y143.571 E12.99267
G1 X124.166 Y143.508 E12.99484
G1 X124.157 Y143.56 E12.9966
G1 X123.938 Y144.173 E13.01825
G1 X123.789 Y144.472 E13.02936
G1 X123.574 Y144.727 E13.04046
G1 X123.304 Y144.924 E13.05157
G1 X122.995 Y145.051 E13.06268
G1 X122.664 Y145.101 E13.07382
G1 X122.19 Y145.034 E13.08974
G1 X116.137 Y143.08 E13.30129
G1 X116.071 Y143.116 E13.30379
G1 X115.749 Y143.203 E13.31489
G1 X115.415 Y143.211 E13.326
G1 X115.137 Y143.155 E13.33543
G1 X109.694 Y141.478 E13.52486
G1 X109.598 Y141.491 E13.52809
G1 X109.264 Y141.495 E13.5392
G1 X109.001 Y141.44 E13.54813
G1 X106.652 Y140.709 E13.62996
G1 X106.347 Y140.572 E13.64108
G1 X106.083 Y140.367 E13.65219
G1 X105.876 Y140.106 E13.66327
G1 X105.736 Y139.802 E13.67441
G1 X105.672 Y139.474 E13.68552
G1 X105.684 Y139.164 E13.69584
G1 X105.755 Y138.691 E13.71175
G1 X105.843 Y138.369 E13.72285
G1 X106.006 Y138.077 E13.73397
G1 X106.233 Y137.832 E13.74508
G1 X106.511 Y137.648 E13.75617
G1 X106.825 Y137.535 E13.76727
G1 X107.139 Y137.499 E13.77778
G1 X120.664 Y137.5 E14.22762
G1 X120.996 Y137.54 E14.23875
G1 X121.309 Y137.657 E14.24986
G1 X121.585 Y137.845 E14.26097
G1 X121.808 Y138.093 E14.27206
G1 X121.967 Y138.388 E14.28321
G1 X122.051 Y138.711 E14.29431
G1 X122.064 Y138.881 E14.29998
G1 X122.096 Y141.281 E14.37981
G1 X123.362 Y141.791 E14.4252
G1 X123.655 Y141.952 E14.43632
G1 X123.901 Y142.177 E14.44741
G1 X124.075 Y142.437 E14.45782
G1 X124.076 Y136.616 E14.65143
G1 X124.116 Y136.284 E14.66255
G1 X124.233 Y135.971 E14.67366
G1 X124.486 Y135.626 E14.68789
G1 X124.603 Y135.509 E14.69339
G1 X124.866 Y135.303 E14.70451
G1 X125.17 Y135.164 E14.71562
G1 X125.59 Y135.099 E14.72976
G1 X125.891 Y135.098 E14.73977
G1 X125.864 Y99.905 E15.91029
G1 X125.575 Y99.901 E15.91991
G1 X125.243 Y99.857 E15.93105
G1 X124.932 Y99.735 E15.94216
G1 X124.603 Y99.491 E15.95578
G1 X124.486 Y99.374 E15.96128
G1 X124.28 Y99.111 E15.9724
G1 X124.141 Y98.807 E15.98351
G1 X124.076 Y98.375 E15.99804
G1 X124.114 Y92.439 E16.19548
G1 X123.959 Y92.728 E16.20639
G1 X123.735 Y92.976 E16.2175
G1 X123.336 Y93.221 E16.23308
G1 X122.064 Y93.731 E16.27866
G1 X122.064 Y96.1 E16.35745
G1 X122.024 Y96.432 E16.36857
G1 X121.907 Y96.744 E16.37965
G1 X121.719 Y97.021 E16.39079
G1 X121.471 Y97.244 E16.40188
G1 X121.177 Y97.403 E16.413
G1 X120.853 Y97.487 E16.42413
G1 X120.664 Y97.5 E16.43043
G1 X107.139 Y97.5 E16.88028
G1 X106.807 Y97.46 E16.8914
G1 X106.495 Y97.343 E16.90248
G1 X106.218 Y97.155 E16.91362
G1 X105.995 Y96.907 E16.92471
G1 X105.836 Y96.613 E16.93583
G1 X105.755 Y96.308 E16.94632
G1 X105.684 Y95.836 E16.9622
G1 X105.674 Y95.502 E16.97331
G1 X105.743 Y95.176 E16.98439
G1 X105.888 Y94.875 E16.99551
G1 X106.1 Y94.616 E17.00664
M204 S1500
M205 X30 Y30
G0 F3000 X106.303 Y94.984
M204 S500
M205 X20 Y20
G1 F1200 X106.513 Y94.796 E17.01601
G1 X106.771 Y94.673 E17.02552
G1 X109.12 Y93.942 E17.10734
G1 X109.398 Y93.897 E17.11671
G1 X109.548 Y93.906 E17.12171
G1 X109.73 Y93.93 E17.12781
G1 X115.266 Y92.225 E17.32048
