;FLAVOR:Marlin
;TIME:2818
;Filament used: 4.17296m
;Layer height: 0.3
;Generated with Cura_SteamEngine 4.0.0
M82 ;absolute extrusion mode
; Ender 3 Custom Start G-code
M140 S60 ; Set Heat Bed temperature
M190 S60 ; Wait for Heat Bed temperature
M104 S160; start warming extruder to 160
G28 ; Home all axes
G29 ; Auto bed-level (BL-Touch)
G92 E0 ; Reset Extruder
M104 S195 ; Set Extruder temperature
G1 X0.1 Y20 Z0.3 F5000.0 ; Move to start position
M109 S195 ; Wait for Extruder temperature
; G1 Z2.0 F3000 ; Move Z Axis up little to prevent scratching of Heat Bed
G1 X0.1 Y200.0 Z0.3 F1500.0 E15 ; Draw the first line
G1 X0.4 Y200.0 Z0.3 F5000.0 ; Move to side a little
G1 X0.4 Y20 Z0.3 F1500.0 E30 ; Draw the second line
G92 E0 ; Reset Extruder
G1 Z2.0 F3000 ; Move Z Axis up little to prevent scratching of Heat Bed
; End of custom start GCode
G92 E0
G1 F4200 E-4
;LAYER_COUNT:83
;LAYER:0
M106 S178.5
M204 S1500
M205 X30 Y30
G0 F3600 X90.986 Y76.518 Z0.2
M204 S500
M205 X20 Y20
;TYPE:SKIRT
G1 F4200 E0
G1 F1200 X91.294 Y76.191 E0.01494
G1 X91.896 Y75.694 E0.04091
G1 X92.277 Y75.453 E0.0559
G1 X92.98 Y75.123 E0.08173
G1 X93.407 Y74.984 E0.09667
G1 X94.171 Y74.838 E0.12254
G1 X94.512 Y74.806 E0.13393
G1 X125.888 Y74.858 E1.1775
G1 X126.436 Y74.944 E1.19595
G1 X127.161 Y75.177 E1.22128
G1 X127.57 Y75.369 E1.2363
G1 X128.228 Y75.784 E1.26218
G1 X128.581 Y76.075 E1.27739
G1 X128.941 Y76.458 E1.29488
G1 X129.175 Y76.359 E1.30333
G1 X129.69 Y76.226 E1.32102
G1 X130.919 Y76.097 E1.36212
G1 X131.107 Y76.087 E1.36838
G1 X133.383 Y76.087 E1.44408
G1 X133.76 Y76.127 E1.45669
G1 X134.12 Y76.245 E1.46929
G1 X134.189 Y76.285 E1.47194
G1 X134.316 Y76.079 E1.47999
G1 X134.578 Y75.805 E1.4926
G1 X134.891 Y75.591 E1.50521
G1 X135.242 Y75.448 E1.51782
G1 X135.744 Y75.377 E1.53468
G1 X137.358 Y75.378 E1.58836
G1 X137.735 Y75.418 E1.60097
G1 X138.095 Y75.536 E1.61357
G1 X138.422 Y75.727 E1.62617
G1 X138.509 Y75.806 E1.63008
G1 X138.589 Y75.719 E1.63401
G1 X138.837 Y75.497 E1.64508
G1 X139.233 Y75.228 E1.661
G1 X139.797 Y74.946 E1.68198
G1 X140.335 Y74.776 E1.70074
G1 X140.968 Y74.681 E1.72203
G1 X141.516 Y74.683 E1.74026
G1 X142.117 Y74.778 E1.7605
G1 X142.641 Y74.946 E1.7788
G1 X143.213 Y75.232 E1.80007
G1 X143.532 Y75.436 E1.81266
G1 X143.745 Y75.637 E1.8224
G1 X144.109 Y76.041 E1.84049
G1 X144.332 Y76.348 E1.85311
G1 X144.485 Y76.694 E1.86569
G1 X144.563 Y77.065 E1.8783
G1 X144.572 Y77.266 E1.88499
G1 X144.543 Y79.845 E1.97078
G1 X144.499 Y80.222 E1.9834
G1 X144.377 Y80.58 E1.99598
G1 X144.182 Y80.906 E2.00862
G1 X144.012 Y81.102 E2.01724
G1 X143.677 Y81.435 E2.03295
G1 X143.382 Y81.672 E2.04554
G1 X143.213 Y81.768 E2.05201
G1 X142.641 Y82.054 E2.07328
G1 X142.103 Y82.224 E2.09204
G1 X141.47 Y82.319 E2.11333
G1 X140.91 Y82.315 E2.13196
G1 X140.279 Y82.211 E2.15323
G1 X139.741 Y82.032 E2.17209
G1 X139.172 Y81.736 E2.19342
G1 X138.856 Y81.527 E2.20602
G1 X138.668 Y81.346 E2.2147
G1 X138.525 Y81.188 E2.22179
G1 X138.245 Y81.387 E2.23321
G1 X137.898 Y81.539 E2.24581
G1 X137.357 Y81.622 E2.26402
G1 X135.9 Y81.622 E2.31248
G1 X135.523 Y81.582 E2.32509
G1 X135.3 Y81.509 E2.33289
G1 X135.3 Y101.486 E2.99733
G1 X135.359 Y101.46 E2.99947
G1 X135.901 Y101.377 E3.01771
G1 X137.358 Y101.378 E3.06617
G1 X137.735 Y101.418 E3.07878
G1 X138.095 Y101.536 E3.09138
G1 X138.422 Y101.727 E3.10398
G1 X138.509 Y101.806 E3.10788
G1 X138.588 Y101.719 E3.11179
G1 X138.831 Y101.501 E3.12265
G1 X139.227 Y101.232 E3.13857
G1 X139.796 Y100.947 E3.15974
G1 X140.335 Y100.776 E3.17855
G1 X140.968 Y100.681 E3.19984
G1 X141.516 Y100.683 E3.21806
G1 X142.117 Y100.778 E3.2383
G1 X142.641 Y100.946 E3.2566
G1 X143.213 Y101.232 E3.27787
G1 X143.532 Y101.436 E3.29047
G1 X143.745 Y101.637 E3.30021
G1 X144.109 Y102.041 E3.31829
G1 X144.332 Y102.348 E3.33091
G1 X144.485 Y102.694 E3.3435
G1 X144.563 Y103.065 E3.35611
G1 X144.572 Y103.266 E3.3628
G1 X144.543 Y105.845 E3.44858
G1 X144.499 Y106.222 E3.46121
G1 X144.377 Y106.58 E3.47379
G1 X144.182 Y106.906 E3.48642
G1 X144.012 Y107.102 E3.49505
G1 X143.677 Y107.435 E3.51076
G1 X143.382 Y107.672 E3.52335
G1 X143.213 Y107.768 E3.52981
G1 X142.641 Y108.054 E3.55108
G1 X142.103 Y108.224 E3.56985
G1 X141.47 Y108.319 E3.59114
G1 X140.91 Y108.315 E3.60976
G1 X140.279 Y108.211 E3.63103
G1 X139.741 Y108.032 E3.64989
G1 X139.172 Y107.736 E3.67122
G1 X138.856 Y107.527 E3.68383
G1 X138.668 Y107.346 E3.69251
G1 X138.525 Y107.188 E3.69959
G1 X138.245 Y107.387 E3.71102
G1 X137.898 Y107.539 E3.72362
G1 X137.357 Y107.622 E3.74182
G1 X135.9 Y107.622 E3.79028
G1 X135.523 Y107.582 E3.80289
G1 X135.3 Y107.509 E3.8107
G1 X135.3 Y127.487 E4.47517
G1 X135.359 Y127.461 E4.47731
G1 X135.9 Y127.378 E4.49552
G1 X137.357 Y127.378 E4.54398
G1 X137.734 Y127.418 E4.55659
G1 X138.094 Y127.536 E4.56919
G1 X138.421 Y127.726 E4.58176
G1 X138.509 Y127.806 E4.58572
G1 X138.589 Y127.719 E4.58965
G1 X138.837 Y127.497 E4.60072
G1 X139.233 Y127.228 E4.61664
G1 X139.797 Y126.946 E4.63762
G1 X140.335 Y126.776 E4.65638
G1 X140.968 Y126.681 E4.67767
G1 X141.516 Y126.683 E4.6959
G1 X142.117 Y126.778 E4.71614
G1 X142.641 Y126.946 E4.73444
G1 X143.213 Y127.232 E4.75571
G1 X143.532 Y127.436 E4.7683
G1 X143.745 Y127.637 E4.77804
G1 X144.109 Y128.041 E4.79613
G1 X144.332 Y128.348 E4.80875
G1 X144.485 Y128.694 E4.82133
G1 X144.563 Y129.065 E4.83394
G1 X144.572 Y129.266 E4.84064
G1 X144.543 Y131.845 E4.92642
G1 X144.499 Y132.222 E4.93904
G1 X144.377 Y132.58 E4.95162
G1 X144.182 Y132.906 E4.96426
G1 X144.012 Y133.102 E4.97289
G1 X143.677 Y133.435 E4.9886
G1 X143.382 Y133.672 E5.00118
G1 X143.213 Y133.768 E5.00765
G1 X142.641 Y134.054 E5.02892
G1 X142.103 Y134.224 E5.04768
G1 X141.47 Y134.319 E5.06897
G1 X140.91 Y134.315 E5.0876
G1 X140.279 Y134.211 E5.10887
G1 X139.741 Y134.032 E5.12773
G1 X139.172 Y133.736 E5.14906
G1 X138.856 Y133.527 E5.16166
G1 X138.668 Y133.346 E5.17034
G1 X138.525 Y133.188 E5.17743
G1 X138.245 Y133.387 E5.18885
G1 X137.898 Y133.539 E5.20145
G1 X137.357 Y133.622 E5.21966
G1 X135.9 Y133.622 E5.26812
G1 X135.523 Y133.582 E5.28073
G1 X135.3 Y133.509 E5.28853
G1 X135.3 Y153.486 E5.95297
G1 X135.359 Y153.46 E5.95511
G1 X135.901 Y153.377 E5.97335
G1 X137.358 Y153.378 E6.02181
G1 X137.735 Y153.418 E6.03442
G1 X138.095 Y153.536 E6.04702
G1 X138.422 Y153.727 E6.05962
G1 X138.509 Y153.806 E6.06353
G1 X138.589 Y153.719 E6.06746
G1 X138.837 Y153.497 E6.07853
G1 X139.233 Y153.228 E6.09445
G1 X139.797 Y152.946 E6.11542
G1 X140.335 Y152.776 E6.13419
G1 X140.968 Y152.681 E6.15548
G1 X141.516 Y152.683 E6.17371
G1 X142.117 Y152.778 E6.19394
G1 X142.641 Y152.946 E6.21224
G1 X143.213 Y153.232 E6.23352
G1 X143.532 Y153.436 E6.24611
G1 X143.745 Y153.637 E6.25585
G1 X144.109 Y154.041 E6.27394
G1 X144.332 Y154.348 E6.28656
G1 X144.485 Y154.694 E6.29914
G1 X144.563 Y155.065 E6.31175
G1 X144.572 Y155.266 E6.31844
G1 X144.543 Y157.845 E6.40422
G1 X144.499 Y158.222 E6.41685
G1 X144.377 Y158.58 E6.42943
G1 X144.182 Y158.906 E6.44206
G1 X144.012 Y159.102 E6.45069
G1 X143.677 Y159.435 E6.4664
G1 X143.382 Y159.672 E6.47899
G1 X143.213 Y159.768 E6.48545
G1 X142.641 Y160.054 E6.50672
G1 X142.103 Y160.224 E6.52549
G1 X141.47 Y160.319 E6.54678
G1 X140.91 Y160.315 E6.5654
G1 X140.279 Y160.211 E6.58668
G1 X139.741 Y160.032 E6.60553
G1 X139.172 Y159.736 E6.62687
G1 X138.856 Y159.527 E6.63947
G1 X138.668 Y159.346 E6.64815
G1 X138.525 Y159.188 E6.65523
G1 X138.245 Y159.387 E6.66666
G1 X137.898 Y159.539 E6.67926
G1 X137.357 Y159.622 E6.69746
G1 X135.751 Y159.622 E6.75088
G1 X135.374 Y159.582 E6.76349
G1 X135.014 Y159.464 E6.77609
G1 X134.687 Y159.274 E6.78867
G1 X134.406 Y159.019 E6.80129
G1 X134.187 Y158.712 E6.81383
G1 X134.023 Y158.795 E6.81995
G1 X133.657 Y158.892 E6.83254
G1 X133.382 Y158.913 E6.84171
G1 X131.095 Y158.912 E6.91778
G1 X130.902 Y158.902 E6.92421
G1 X129.655 Y158.767 E6.96592
G1 X129.139 Y158.631 E6.98367
G1 X128.949 Y158.55 E6.99054
G1 X128.692 Y158.822 E7.00299
G1 X128.099 Y159.31 E7.02853
G1 X127.718 Y159.55 E7.04351
G1 X127.015 Y159.879 E7.06932
G1 X126.588 Y160.017 E7.08425
G1 X125.825 Y160.162 E7.11008
G1 X125.486 Y160.194 E7.12141
G1 X94.115 Y160.144 E8.16481
G1 X93.561 Y160.056 E8.18347
G1 X92.817 Y159.814 E8.20949
G1 X92.405 Y159.619 E8.22465
G1 X91.754 Y159.203 E8.25035
G1 X91.411 Y158.919 E8.26516
G1 X90.88 Y158.354 E8.29095
G1 X90.613 Y157.986 E8.30607
G1 X90.236 Y157.298 E8.33216
G1 X90.071 Y156.877 E8.3472
G1 X89.881 Y156.131 E8.3728
G1 X89.825 Y155.688 E8.38766
G1 X89.8 Y79.704 E10.91489
G1 X89.814 Y79.476 E10.92249
G1 X89.913 Y78.698 E10.94858
G1 X90.026 Y78.262 E10.96356
G1 X90.312 Y77.54 E10.98939
G1 X90.531 Y77.142 E11.0045
G1 X90.986 Y76.518 E11.03018
M204 S1500
M205 X30 Y30
G0 F3600 X91.309 Y76.754
M204 S500
M205 X20 Y20
G1 F1200 X91.549 Y76.499 E11.04183
G1 X92.151 Y76.002 E11.06779
G1 X92.447 Y75.815 E11.07944
G1 X93.15 Y75.485 E11.10527
G1 X93.482 Y75.377 E11.11688
G1 X94.246 Y75.231 E11.14275
G1 X94.511 Y75.206 E11.1516
G1 X125.887 Y75.258 E12.19518
G1 X126.313 Y75.325 E12.20952
G1 X127.038 Y75.558 E12.23485
G1 X127.357 Y75.707 E12.24656
G1 X128.015 Y76.122 E12.27243
G1 X128.289 Y76.348 E12.28424
G1 X128.833 Y76.928 E12.31069
G1 X128.839 Y76.936 E12.31103
G1 X129.331 Y76.727 E12.3288
G1 X129.732 Y76.624 E12.34258
G1 X130.961 Y76.495 E12.38368
G1 X131.107 Y76.487 E12.38854
G1 X133.383 Y76.487 E12.46424
G1 X133.715 Y76.527 E12.47536
G1 X134.027 Y76.644 E12.48644
G1 X134.373 Y76.897 E12.5007
G1 X134.38 Y76.904 E12.50103
G1 X134.402 Y76.776 E12.50535
G1 X134.535 Y76.47 E12.51645
G1 X134.737 Y76.203 E12.52758
G1 X134.996 Y75.993 E12.53867
G1 X135.298 Y75.85 E12.54979
G1 X135.744 Y75.777 E12.56482
G1 X137.358 Y75.778 E12.6185
G1 X137.69 Y75.818 E12.62962
G1 X138.002 Y75.936 E12.64072
G1 X138.278 Y76.124 E12.65182
G1 X138.502 Y76.372 E12.66294
G1 X138.539 Y76.441 E12.66554
G1 X138.555 Y76.401 E12.66698
G1 X138.856 Y76.017 E12.6832
G1 X139.104 Y75.795 E12.69427
G1 X139.412 Y75.586 E12.70665
G1 X139.976 Y75.304 E12.72763
G1 X140.394 Y75.172 E12.74221
G1 X141.027 Y75.077 E12.7635
G1 X141.454 Y75.078 E12.7777
G1 X142.055 Y75.173 E12.79794
G1 X142.462 Y75.304 E12.81216
G1 X143.034 Y75.59 E12.83343
G1 X143.313 Y75.774 E12.84454
G1 X143.448 Y75.905 E12.8508
G1 X143.812 Y76.309 E12.86889
G1 X144.005 Y76.582 E12.88001
G1 X144.127 Y76.893 E12.89112
G1 X144.172 Y77.262 E12.90348
G1 X144.143 Y79.841 E12.98926
G1 X144.099 Y80.172 E13.00037
G1 X143.979 Y80.483 E13.01146
G1 X143.73 Y80.818 E13.02534
G1 X143.395 Y81.151 E13.04105
G1 X143.034 Y81.41 E13.05583
G1 X142.462 Y81.696 E13.0771
G1 X142.044 Y81.828 E13.09168
G1 X141.411 Y81.923 E13.11297
G1 X140.975 Y81.92 E13.12747
G1 X140.344 Y81.816 E13.14874
G1 X139.926 Y81.677 E13.16339
G1 X139.357 Y81.381 E13.18472
G1 X138.965 Y81.078 E13.2012
G1 X138.719 Y80.806 E13.2134
G1 X138.541 Y80.554 E13.22366
G1 X138.412 Y80.743 E13.23127
G1 X138.164 Y80.966 E13.24237
G1 X137.87 Y81.125 E13.25348
G1 X137.546 Y81.209 E13.26462
G1 X137.357 Y81.222 E13.27092
G1 X135.9 Y81.222 E13.31938
G1 X135.568 Y81.182 E13.3305
G1 X135.256 Y81.065 E13.34158
G1 X134.979 Y80.877 E13.35272
G1 X134.9 Y80.789 E13.35665
G1 X134.9 Y102.207 E14.06901
G1 X135.093 Y102.033 E14.07766
G1 X135.387 Y101.874 E14.08877
G1 X135.711 Y101.79 E14.09991
G1 X135.901 Y101.777 E14.10624
G1 X137.358 Y101.778 E14.1547
G1 X137.69 Y101.818 E14.16582
G1 X138.002 Y101.936 E14.17692
G1 X138.278 Y102.124 E14.18803
G1 X138.502 Y102.372 E14.19914
G1 X138.539 Y102.441 E14.20174
G1 X138.555 Y102.4 E14.20321
G1 X138.855 Y102.017 E14.21939
G1 X139.098 Y101.799 E14.23025
G1 X139.406 Y101.589 E14.24265
G1 X139.975 Y101.304 E14.26381
G1 X140.394 Y101.172 E14.27842
G1 X141.027 Y101.077 E14.29971
G1 X141.454 Y101.078 E14.31392
G1 X142.055 Y101.173 E14.33415
G1 X142.462 Y101.304 E14.34837
G1 X143.034 Y101.59 E14.36964
G1 X143.313 Y101.774 E14.38076
G1 X143.448 Y101.905 E14.38702
G1 X143.812 Y102.309 E14.4051
G1 X144.005 Y102.582 E14.41622
G1 X144.127 Y102.893 E14.42733
G1 X144.172 Y103.262 E14.4397
G1 X144.143 Y105.841 E14.52548
G1 X144.099 Y106.172 E14.53659
G1 X143.979 Y106.483 E14.54767
G1 X143.73 Y106.818 E14.56156
G1 X143.395 Y107.151 E14.57727
G1 X143.034 Y107.41 E14.59205
G1 X142.462 Y107.696 E14.61332
G1 X142.044 Y107.828 E14.6279
G1 X141.411 Y107.923 E14.64918
G1 X140.975 Y107.92 E14.66369
G1 X140.344 Y107.816 E14.68496
G1 X139.926 Y107.677 E14.69961
G1 X139.357 Y107.381 E14.72094
G1 X138.965 Y107.078 E14.73742
G1 X138.719 Y106.806 E14.74962
G1 X138.541 Y106.554 E14.75988
G1 X138.412 Y106.743 E14.76749
G1 X138.164 Y106.966 E14.77858
G1 X137.87 Y107.125 E14.7897
G1 X137.546 Y107.209 E14.80083
G1 X137.357 Y107.222 E14.80713
G1 X135.9 Y107.222 E14.85559
G1 X135.568 Y107.182 E14.86672
G1 X135.256 Y107.065 E14.8778
G1 X134.979 Y106.877 E14.88893
G1 X134.9 Y106.789 E14.89287
G1 X134.9 Y128.208 E15.60526
G1 X135.093 Y128.034 E15.61391
G1 X135.387 Y127.875 E15.62502
G1 X135.711 Y127.791 E15.63616
G1 X135.9 Y127.778 E15.64246
G1 X137.357 Y127.778 E15.69092
G1 X137.689 Y127.818 E15.70204
G1 X138.001 Y127.935 E15.71312
G1 X138.278 Y128.123 E15.72426
G1 X138.501 Y128.371 E15.73535
G1 X138.539 Y128.442 E15.73803
G1 X138.555 Y128.401 E15.73949
G1 X138.856 Y128.017 E15.75572
G1 X139.104 Y127.795 E15.76679
G1 X139.412 Y127.586 E15.77917
G1 X139.976 Y127.304 E15.80014
G1 X140.394 Y127.172 E15.81472
G1 X141.027 Y127.077 E15.83601
G1 X141.454 Y127.078 E15.85022
G1 X142.055 Y127.173 E15.87045
G1 X142.462 Y127.304 E15.88467
G1 X143.034 Y127.59 E15.90594
G1 X143.313 Y127.774 E15.91706
G1 X143.448 Y127.905 E15.92332
G1 X143.812 Y128.309 E15.9414
G1 X144.005 Y128.582 E15.95252
G1 X144.127 Y128.893 E15.96363
G1 X144.172 Y129.262 E15.976
G1 X144.143 Y131.841 E16.06178
G1 X144.099 Y132.172 E16.07289
G1 X143.979 Y132.483 E16.08397
G1 X143.73 Y132.818 E16.09786
G1 X143.395 Y133.151 E16.11357
G1 X143.034 Y133.41 E16.12835
G1 X142.462 Y133.696 E16.14962
G1 X142.044 Y133.828 E16.1642
G1 X141.411 Y133.923 E16.18548
G1 X140.975 Y133.92 E16.19999
G1 X140.344 Y133.816 E16.22126
G1 X139.926 Y133.677 E16.23591
G1 X139.357 Y133.381 E16.25724
G1 X138.965 Y133.078 E16.27372
G1 X138.719 Y132.806 E16.28592
G1 X138.541 Y132.554 E16.29618
G1 X138.412 Y132.743 E16.30379
G1 X138.164 Y132.966 E16.31488
G1 X137.87 Y133.125 E16.326
G1 X137.546 Y133.209 E16.33713
G1 X137.357 Y133.222 E16.34343
G1 X135.9 Y133.222 E16.39189
G1 X135.568 Y133.182 E16.40302
G1 X135.256 Y133.065 E16.4141
G1 X134.979 Y132.877 E16.42523
G1 X134.9 Y132.789 E16.42917
G1 X134.9 Y154.207 E17.14153
G1 X135.093 Y154.033 E17.15017
G1 X135.387 Y153.874 E17.16129
G1 X135.711 Y153.79 E17.17242
G1 X135.901 Y153.777 E17.17876
G1 X137.358 Y153.778 E17.22722
G1 X137.69 Y153.818 E17.23834
G1 X138.002 Y153.936 E17.24944
G1 X138.278 Y154.124 E17.26054
G1 X138.502 Y154.372 E17.27166
G1 X138.539 Y154.441 E17.27426
G1 X138.555 Y154.401 E17.27569
G1 X138.856 Y154.017 E17.29192
G1 X139.104 Y153.795 E17.30299
G1 X139.412 Y153.586 E17.31537
G1 X139.976 Y153.304 E17.33635
G1 X140.394 Y153.172 E17.35093
G1 X141.027 Y153.077 E17.37221
G1 X141.454 Y153.078 E17.38642
G1 X142.055 Y153.173 E17.40665
G1 X142.462 Y153.304 E17.42087
G1 X143.034 Y153.59 E17.44215
G1 X143.313 Y153.774 E17.45326
G1 X143.448 Y153.905 E17.45952
G1 X143.812 Y154.309 E17.4776
G1 X144.005 Y154.582 E17.48872
G1 X144.127 Y154.893 E17.49984
G1 X144.172 Y155.262 E17.5122
G1 X144.143 Y157.841 E17.59798
G1 X144.099 Y158.172 E17.60909
G1 X143.979 Y158.483 E17.62018
G1 X143.73 Y158.818 E17.63406
G1 X143.395 Y159.151 E17.64977
G1 X143.034 Y159.41 E17.66455
G1 X142.462 Y159.696 E17.68582
G1 X142.044 Y159.828 E17.7004
G1 X141.411 Y159.923 E17.72169
G1 X140.975 Y159.92 E17.73619
G1 X140.344 Y159.816 E17.75746
G1 X139.926 Y159.677 E17.77211
G1 X139.357 Y159.381 E17.79344
G1 X138.965 Y159.078 E17.80992
G1 X138.719 Y158.806 E17.82212
G1 X138.541 Y158.554 E17.83238
G1 X138.412 Y158.743 E17.83999
G1 X138.164 Y158.966 E17.85108
G1 X137.87 Y159.125 E17.8622
G1 X137.546 Y159.209 E17.87333
G1 X137.357 Y159.222 E17.87963
G1 X135.751 Y159.222 E17.93305
G1 X135.419 Y159.182 E17.94417
G1 X135.107 Y159.065 E17.95526
G1 X134.83 Y158.877 E17.96639
G1 X134.607 Y158.629 E17.97748
G1 X134.448 Y158.335 E17.9886
G1 X134.385 Y158.091 E17.99698
