;FLAVOR:Marlin
;TIME:432
;Filament used: 0.541621m
;Layer height: 0.3
;Generated with Cura_SteamEngine 4.0.0
M82 ;absolute extrusion mode
; Ender 3 Custom Start G-code
M140 S60 ; Set Heat Bed temperature
M190 S60 ; Wait for Heat Bed temperature
M104 S160; start warming extruder to 160
G28 ; Home all axes
G29 ; Auto bed-level (BL-Touch)
G92 E0 ; Reset Extruder
M104 S195 ; Set Extruder temperature
G1 X0.1 Y20 Z0.3 F5000.0 ; Move to start position
M109 S195 ; Wait for Extruder temperature
; G1 Z2.0 F3000 ; Move Z Axis up little to prevent scratching of Heat Bed
G1 X0.1 Y200.0 Z0.3 F1500.0 E15 ; Draw the first line
G1 X0.4 Y200.0 Z0.3 F5000.0 ; Move to side a little
G1 X0.4 Y20 Z0.3 F1500.0 E30 ; Draw the second line
G92 E0 ; Reset Extruder
G1 Z2.0 F3000 ; Move Z Axis up little to prevent scratching of Heat Bed
; End of custom start GCode
G92 E0
G1 F4200 E-4
;LAYER_COUNT:28
;LAYER:0
M106 S178.5
M204 S1500
M205 X30 Y30
G0 F3750 X101.495 Y103.798 Z0.2
M204 S500
M205 X20 Y20
;TYPE:SKIRT
G1 F4200 E0
G1 F1500 X102.023 Y103.35 E0.02303
G1 X102.599 Y102.966 E0.04606
G1 X103.447 Y102.556 E0.07738
G1 X109.406 Y100.227 E0.29018
G1 X114.334 Y97.958 E0.47063
G1 X115.916 Y97.182 E0.52923
G1 X116.555 Y96.913 E0.55229
G1 X117.22 Y96.72 E0.57532
G1 X117.903 Y96.605 E0.59836
G1 X118.705 Y96.571 E0.62506
G1 X120.924 Y96.625 E0.69888
G1 X128.073 Y96.47 E0.93672
G1 X128.765 Y96.495 E0.95975
G1 X129.135 Y96.542 E0.97215
G1 X129.79 Y96.645 E0.99421
G1 X130.467 Y96.792 E1.01725
G1 X131.122 Y97.016 E1.04027
G1 X131.856 Y97.375 E1.06745
G1 X132.39 Y97.683 E1.08795
G1 X132.969 Y98.063 E1.11099
G1 X133.5 Y98.507 E1.13401
G1 X133.977 Y99.009 E1.15704
G1 X134.392 Y99.563 E1.18006
G1 X134.741 Y100.162 E1.20312
G1 X135.018 Y100.796 E1.22613
G1 X135.221 Y101.458 E1.24916
G1 X135.346 Y102.139 E1.27219
G1 X135.392 Y102.889 E1.29718
G1 X135.387 Y106.205 E1.40747
G1 X135.358 Y106.783 E1.42672
G1 X135.231 Y108.076 E1.46994
G1 X134.822 Y114.008 E1.6677
G1 X134.773 Y119.325 E1.84455
G1 X135.027 Y124.647 E2.02177
G1 X135.367 Y128.329 E2.14475
G1 X135.392 Y128.885 E2.16326
G1 X135.39 Y132.161 E2.27222
G1 X135.35 Y132.852 E2.29524
G1 X135.23 Y133.534 E2.31828
G1 X135.032 Y134.198 E2.34132
G1 X134.759 Y134.834 E2.36434
G1 X134.415 Y135.435 E2.38737
G1 X134.004 Y135.993 E2.41042
G1 X133.531 Y136.499 E2.43346
G1 X133.003 Y136.947 E2.45649
G1 X132.427 Y137.331 E2.47952
G1 X132.11 Y137.505 E2.49154
G1 X131.581 Y137.774 E2.51128
G1 X130.946 Y138.052 E2.53434
G1 X130.284 Y138.255 E2.55737
G1 X129.52 Y138.39 E2.58317
G1 X128.669 Y138.484 E2.61165
G1 X127.843 Y138.518 E2.63915
G1 X122.313 Y138.364 E2.82315
G1 X118.605 Y138.427 E2.94649
G1 X117.913 Y138.399 E2.96953
G1 X117.229 Y138.291 E2.99256
G1 X116.562 Y138.105 E3.01559
G1 X115.932 Y137.849 E3.03821
G1 X109.991 Y135.03 E3.25692
G1 X103.448 Y132.448 E3.49088
G1 X102.82 Y132.157 E3.5139
G1 X102.229 Y131.796 E3.53693
G1 X101.684 Y131.368 E3.55998
G1 X101.192 Y130.881 E3.583
G1 X100.759 Y130.341 E3.60602
G1 X100.391 Y129.754 E3.62907
G1 X100.094 Y129.129 E3.65208
G1 X99.87 Y128.473 E3.67514
G1 X99.723 Y127.796 E3.69818
G1 X99.662 Y127.226 E3.71725
G1 X99.611 Y126.375 E3.7456
G1 X99.6 Y126.006 E3.75788
G1 X99.631 Y108.134 E4.35231
G1 X99.672 Y107.442 E4.37536
G1 X99.793 Y106.76 E4.3984
G1 X99.991 Y106.097 E4.42141
G1 X100.265 Y105.461 E4.44445
G1 X100.609 Y104.86 E4.46748
G1 X101.021 Y104.303 E4.49052
G1 X101.495 Y103.798 E4.51356
M204 S1500
M205 X30 Y30
G0 F3750 X101.887 Y103.98
M204 S500
M205 X20 Y20
G1 F1500 X102.41 Y103.563 E4.53581
G1 X102.98 Y103.211 E4.55809
G1 X103.592 Y102.928 E4.58051
G1 X109.574 Y100.59 E4.79413
G1 X114.516 Y98.314 E4.9751
G1 X116.093 Y97.541 E5.03351
G1 X116.71 Y97.283 E5.05576
G1 X117.353 Y97.1 E5.07799
G1 X118.014 Y96.995 E5.10025
G1 X118.695 Y96.971 E5.12292
G1 X120.923 Y97.025 E5.19704
G1 X128.081 Y96.87 E5.43517
G1 X129.073 Y96.937 E5.46824
G1 X129.728 Y97.04 E5.49029
G1 X130.381 Y97.183 E5.51253
G1 X131.013 Y97.403 E5.53479
G1 X131.656 Y97.721 E5.55864
G1 X132.19 Y98.029 E5.57915
G1 X132.748 Y98.397 E5.60138
G1 X133.259 Y98.83 E5.62366
G1 X133.715 Y99.32 E5.64592
G1 X134.108 Y99.861 E5.66816
G1 X134.435 Y100.445 E5.69042
G1 X134.689 Y101.063 E5.71264
G1 X134.868 Y101.708 E5.73491
G1 X134.969 Y102.369 E5.75715
G1 X134.992 Y102.888 E5.77443
G1 X134.987 Y106.204 E5.88472
G1 X134.96 Y106.744 E5.9027
G1 X134.832 Y108.043 E5.94612
G1 X134.422 Y113.995 E6.14455
G1 X134.373 Y119.323 E6.32177
G1 X134.63 Y124.703 E6.50091
G1 X134.968 Y128.366 E6.62326
G1 X134.992 Y128.884 E6.64051
G1 X134.99 Y132.16 E6.74947
G1 X134.95 Y132.828 E6.77172
G1 X134.83 Y133.486 E6.79397
G1 X134.633 Y134.126 E6.81624
G1 X134.36 Y134.737 E6.8385
G1 X134.017 Y135.311 E6.86074
G1 X133.608 Y135.841 E6.88301
G1 X133.139 Y136.317 E6.90523
G1 X132.616 Y136.735 E6.9275
G1 X131.928 Y137.149 E6.95421
G1 X131.399 Y137.418 E6.97395
G1 X130.786 Y137.685 E6.99619
G1 X130.145 Y137.877 E7.01844
G1 X129.476 Y137.992 E7.04102
G1 X128.625 Y138.086 E7.06949
G1 X127.855 Y138.118 E7.09513
G1 X122.318 Y137.964 E7.27936
G1 X118.598 Y138.027 E7.4031
G1 X117.93 Y137.999 E7.42534
G1 X117.27 Y137.89 E7.44759
G1 X116.627 Y137.704 E7.46985
G1 X116.104 Y137.487 E7.48869
G1 X110.161 Y134.668 E7.70746
G1 X103.595 Y132.076 E7.94225
G1 X102.989 Y131.794 E7.96448
G1 X102.42 Y131.441 E7.98675
G1 X101.898 Y131.023 E8.00899
G1 X101.429 Y130.546 E8.03124
G1 X101.02 Y130.016 E8.05351
G1 X100.678 Y129.441 E8.07576
G1 X100.406 Y128.83 E8.09801
G1 X100.21 Y128.19 E8.12027
G1 X100.061 Y127.202 E8.1535
G1 X100.01 Y126.351 E8.18186
G1 X100 Y126.006 E8.19333
G1 X100.031 Y108.134 E8.78776
G1 X100.072 Y107.467 E8.80999
G1 X100.193 Y106.808 E8.83227
G1 X100.391 Y106.169 E8.85452
G1 X100.664 Y105.559 E8.87675
G1 X101.007 Y104.985 E8.89899
G1 X101.417 Y104.456 E8.92125
G1 X101.887 Y103.98 E8.9435
M204 S1500
M205 X30 Y30
G0 F3750 X102.278 Y104.169
M204 S500
M205 X20 Y20
G1 F1500 X102.796 Y103.785 E8.96495
G1 X103.357 Y103.468 E8.98638
G1 X103.738 Y103.301 E9.00021
G1 X109.729 Y100.959 E9.21416
G1 X114.663 Y98.687 E9.39483
G1 X116.269 Y97.9 E9.45431
G1 X116.864 Y97.653 E9.47574
G1 X117.485 Y97.481 E9.49717
G1 X118.123 Y97.387 E9.51862
G1 X118.685 Y97.371 E9.53732
G1 X120.921 Y97.426 E9.61171
G1 X128.09 Y97.27 E9.85021
G1 X129.011 Y97.332 E9.88091
G1 X129.666 Y97.435 E9.90297
G1 X130.295 Y97.575 E9.9244
G1 X130.903 Y97.791 E9.94586
G1 X131.456 Y98.068 E9.96643
G1 X131.99 Y98.376 E9.98693
G1 X132.527 Y98.732 E10.00836
G1 X133.017 Y99.151 E10.02981
G1 X133.45 Y99.629 E10.05126
G1 X133.821 Y100.156 E10.07269
G1 X134.124 Y100.725 E10.09413
G1 X134.355 Y101.327 E10.11558
G1 X134.509 Y101.953 E10.13702
G1 X134.592 Y102.888 E10.16824
G1 X134.587 Y106.204 E10.27853
G1 X134.562 Y106.705 E10.29522
G1 X134.433 Y108.012 E10.3389
G1 X134.023 Y113.979 E10.53783
G1 X133.973 Y119.338 E10.71608
G1 X134.229 Y124.715 E10.89512
G1 X134.57 Y128.403 E11.01831
G1 X134.592 Y128.884 E11.03432
G1 X134.59 Y132.16 E11.14328
G1 X134.55 Y132.804 E11.16474
G1 X134.43 Y133.437 E11.18617
G1 X134.233 Y134.051 E11.20762
G1 X133.961 Y134.636 E11.22908
G1 X133.619 Y135.182 E11.25051
G1 X133.213 Y135.682 E11.27193
G1 X132.747 Y136.128 E11.29338
G1 X132.23 Y136.513 E11.31482
G1 X131.747 Y136.792 E11.33337
G1 X131.218 Y137.061 E11.35311
G1 X130.626 Y137.317 E11.37457
G1 X130.008 Y137.498 E11.39598
G1 X129.432 Y137.595 E11.41541
G1 X128.581 Y137.689 E11.44389
G1 X127.866 Y137.718 E11.46769
G1 X122.322 Y137.564 E11.65215
G1 X118.592 Y137.627 E11.77623
G1 X117.948 Y137.598 E11.79767
G1 X117.312 Y137.49 E11.81913
G1 X116.695 Y137.303 E11.84057
G1 X116.275 Y137.126 E11.85573
G1 X110.313 Y134.298 E12.07521
G1 X103.742 Y131.704 E12.31017
G1 X103.158 Y131.431 E12.33161
G1 X102.613 Y131.087 E12.35305
G1 X102.114 Y130.679 E12.37449
G1 X101.669 Y130.212 E12.39594
G1 X101.286 Y129.693 E12.41739
G1 X100.97 Y129.131 E12.43884
G1 X100.726 Y128.535 E12.46026
G1 X100.557 Y127.913 E12.4817
G1 X100.46 Y127.178 E12.50636
G1 X100.409 Y126.327 E12.53471
G1 X100.4 Y126.007 E12.54536
G1 X100.431 Y108.135 E13.13978
G1 X100.472 Y107.492 E13.16121
G1 X100.592 Y106.858 E13.18267
G1 X100.79 Y106.245 E13.2041
G1 X101.062 Y105.66 E13.22556
G1 X101.405 Y105.114 E13.247
G1 X101.812 Y104.614 E13.26845
G1 X102.278 Y104.169 E13.28988
M204 S1500
M205 X30 Y30
G1 F4200 E9.28988
G0 F3750 X115.943 Y103.226
G0 X118.657 Y103.226
G0 X119.146 Y103.377
M204 S500
M205 X20 Y20
;TYPE:SUPPORT
G1 F4200 E13.28988
G1 F1500 X124.573 Y103.378 E13.47038
G1 X124.7 Y103.505 E13.47635
G1 X124.7 Y105.506 E13.54291
G1 X124.584 Y105.622 E13.54836
G1 X119.4 Y105.622 E13.72079
G1 X119.4 Y103.631 E13.78701
G1 X119.146 Y103.377 E13.79895
M204 S1500
M205 X30 Y30
G0 F3750 X119.56 Y104
M204 S500
M205 X20 Y20
G1 F1500 X124.54 Y104 E13.96459
M204 S1500
M205 X30 Y30
G0 F3750 X124 Y103.538
M204 S500
M205 X20 Y20
G1 F1500 X124 Y105.462 E14.02858
M204 S1500
M205 X30 Y30
G0 F3750 X120 Y105.462
M204 S500
M205 X20 Y20
G1 F1500 X120 Y103.538 E14.09257
M204 S1500
M205 X30 Y30
G0 F3750 X119.4 Y129.377
M204 S500
M205 X20 Y20
G1 F1500 X124.573 Y129.378 E14.26463
G1 X124.7 Y129.505 E14.2706
G1 X124.7 Y131.506 E14.33716
G1 X124.584 Y131.622 E14.34261
G1 X119.147 Y131.622 E14.52345
G1 X119.4 Y131.369 E14.53535
G1 X119.4 Y129.377 E14.6016
M204 S1500
M205 X30 Y30
G0 F3750 X120 Y129.538
M204 S500
M205 X20 Y20
G1 F1500 X120 Y131.462 E14.66559
M204 S1500
M205 X30 Y30
G0 F3750 X124 Y131.462
M204 S500
M205 X20 Y20
G1 F1500 X124 Y129.538 E14.72959
M204 S1500
M205 X30 Y30
G1 F4200 E10.72959
;MESH:plier.stl
G0 F3750 X127.575 Y107.109
G0 X127.783 Y105.846
G0 X128.4 Y103.5
M204 S500
M205 X20 Y20
;TYPE:WALL-INNER
G1 F4200 E14.72959
G1 F1500 X128.4 Y103.625 E14.73374
G1 X128.4 Y105.374 E14.79192
G1 X128.4 Y105.501 E14.79614
G1 X128.22 Y105.529 E14.8022
G1 X128.095 Y105.51 E14.8064
G1 X127.903 Y105.48 E14.81287
G1 X127.757 Y105.404 E14.81834
G1 X127.757 Y103.596 E14.87848
G1 X127.903 Y103.52 E14.88395
G1 X128.094 Y103.49 E14.89038
G1 X128.217 Y103.471 E14.89452
G1 X128.4 Y103.5 E14.90068
M204 S1500
M205 X30 Y30
G0 F3750 X128.666 Y103.137
M204 S500
M205 X20 Y20
G1 F1500 X128.8 Y103.205 E14.90568
G1 X128.8 Y105.795 E14.99183
G1 X128.664 Y105.865 E14.99691
G1 X128.219 Y105.934 E15.01189
G1 X127.777 Y105.865 E15.02677
G1 X127.357 Y105.647 E15.04251
G1 X127.357 Y103.353 E15.11881
G1 X127.775 Y103.135 E15.13449
G1 X128.219 Y103.066 E15.14943
G1 X128.666 Y103.137 E15.16449
M204 S1500
M205 X30 Y30
G0 F3750 X128.792 Y102.752
M204 S500
M205 X20 Y20
;TYPE:WALL-OUTER
G1 F1500 X129.2 Y102.959 E15.1797
G1 X129.2 Y106.04 E15.28218
G1 X128.789 Y106.25 E15.29753
G1 X128.219 Y106.339 E15.31672
G1 X127.651 Y106.25 E15.33584
G1 X127.124 Y105.977 E15.35558
G1 X126.957 Y105.822 E15.36316
G1 X126.957 Y103.178 E15.4511
G1 X127.136 Y103.013 E15.45919
G1 X127.649 Y102.75 E15.47837
G1 X128.221 Y102.661 E15.49762
G1 X128.792 Y102.752 E15.51685
M204 S1500
M205 X30 Y30
G0 F3750 X128.97 Y102.842
G0 X128.743 Y103.288
G0 X127.938 Y103.755
M204 S500
M205 X20 Y20
;TYPE:SKIN
G1 F1500 X128.217 Y104.034 E15.52669
M204 S1500
M205 X30 Y30
G0 F3750 X127.938 Y104.179
M204 S500
M205 X20 Y20
G1 F1500 X128.217 Y104.458 E15.53654
M204 S1500
M205 X30 Y30
G0 F3750 X127.938 Y104.603
M204 S500
M205 X20 Y20
G1 F1500 X128.217 Y104.883 E15.5464
M204 S1500
M205 X30 Y30
G0 F3750 X127.938 Y105.027
M204 S500
M205 X20 Y20
G1 F1500 X128.217 Y105.307 E15.55626
M204 S1500
M205 X30 Y30
G1 F4200 E11.55626
G0 F3750 X128.219 Y105.914
G0 X128.407 Y107.18
G0 X128.034 Y127.82
G0 X128.219 Y129.086
G0 X128.4 Y129.5
M204 S500
M205 X20 Y20
;TYPE:WALL-INNER
G1 F4200 E15.55626
G1 F1500 X128.4 Y129.625 E15.56042
G1 X128.4 Y131.374 E15.61859
G1 X128.4 Y131.501 E15.62281
G1 X128.22 Y131.529 E15.62887
G1 X128.095 Y131.51 E15.63308
G1 X127.903 Y131.48 E15.63954
G1 X127.757 Y131.404 E15.64501
G1 X127.757 Y129.594 E15.70521
G1 X127.901 Y129.52 E15.7106
G1 X128.095 Y129.49 E15.71713
G1 X128.218 Y129.471 E15.72127
G1 X128.4 Y129.5 E15.7274
M204 S1500
M205 X30 Y30
G0 F3750 X128.666 Y129.137
M204 S500
M205 X20 Y20
G1 F1500 X128.8 Y129.205 E15.7324
G1 X128.8 Y131.795 E15.81854
G1 X128.664 Y131.865 E15.82363
G1 X128.219 Y131.934 E15.8386
G1 X127.777 Y131.865 E15.85348
G1 X127.357 Y131.647 E15.86922
G1 X127.357 Y129.355 E15.94545
G1 X127.371 Y129.342 E15.94609
G1 X127.776 Y129.135 E15.96122
G1 X128.219 Y129.066 E15.97613
G1 X128.666 Y129.137 E15.99118
M204 S1500
M205 X30 Y30
G0 F3750 X128.792 Y128.752
M204 S500
M205 X20 Y20
;TYPE:WALL-OUTER
G1 F1500 X129.2 Y128.959 E16.0064
G1 X129.2 Y132.04 E16.10887
G1 X128.789 Y132.25 E16.12423
G1 X128.219 Y132.339 E16.14341
G1 X127.651 Y132.25 E16.16254
G1 X127.124 Y131.977 E16.18228
G1 X126.957 Y131.822 E16.18985
G1 X126.957 Y129.179 E16.27776
G1 X127.142 Y129.01 E16.28609
G1 X127.649 Y128.75 E16.30505
G1 X128.221 Y128.661 E16.3243
G1 X128.792 Y128.752 E16.34353
M204 S1500
M205 X30 Y30
G0 F3750 X128.97 Y128.842
G0 X128.743 Y129.288
G0 X127.993 Y129.69
M204 S500
M205 X20 Y20
;TYPE:SKIN
G1 F1500 X128.218 Y129.915 E16.35147
M204 S1500
M205 X30 Y30
G0 F3750 X127.938 Y130.06
M204 S500
M205 X20 Y20
G1 F1500 X128.218 Y130.339 E16.36133
M204 S1500
M205 X30 Y30
G0 F3750 X127.938 Y130.484
M204 S500
M205 X20 Y20
G1 F1500 X128.218 Y130.763 E16.37119
M204 S1500
M205 X30 Y30
G0 F3750 X127.938 Y130.908
M204 S500
M205 X20 Y20
G1 F1500 X128.218 Y131.188 E16.38107
M204 S1500
M205 X30 Y30
G1 F4200 E12.38107
G0 F3750 X127.375 Y129.363
G0 X126.092 Y129.363
G0 X119.165 Y129.363
G0 X117.88 Y129.363
G0 X117.1 Y125.9
M204 S500
M205 X20 Y20
;TYPE:WALL-INNER
G1 F4200 E16.38107
G1 F1500 X107.955 Y125.9 E16.68523
G1 X106.8 Y125.9 E16.72365
G1 X106.6 Y125.9 E16.7303
G1 X106.6 Y125.7 E16.7346
G1 X106.601 Y124.692 E16.76813
G1 X106.602 Y110.455 E17.24166
G1 X106.602 Y110.452 E17.24175
G1 X106.603 Y109.1 E17.28672
G1 X107.905 Y109.1 E17.33003
G1 X117.1 Y109.1 E17.63585
G1 X117.1 Y104.887 E17.77598
G1 X117.5 Y104.887 E17.78928
G1 X117.5 Y109.1 E17.92941
G1 X117.5 Y125.9 E18.48818
G1 X117.5 Y130.113 E18.6283
G1 X117.1 Y130.113 E18.64161
G1 X117.1 Y125.9 E18.78173
M204 S1500
M205 X30 Y30
G0 F3750 X116.635 Y110.409
G0 X116.474 Y110.12
G0 X116.287 Y109.961
G0 X116.089 Y109.882
G0 X107.388 Y109.702
M204 S500
M205 X20 Y20
G1 F1500 X107.086 Y110.143 E18.79951
G1 X107.001 Y110.453 E18.8102
G1 X107.001 Y110.455 E18.81027
G1 X107.003 Y124.692 E19.2832
G1 X107.257 Y125.132 E19.3001
G1 X107.593 Y125.397 E19.31433
G1 X107.955 Y125.5 E19.32685
G1 X116.141 Y125.498 E19.59912
G1 X116.589 Y125.289 E19.61556
G1 X116.903 Y124.913 E19.63185
G1 X117 Y124.523 E19.64522
G1 X116.997 Y110.315 E20.11778
G1 X116.758 Y109.887 E20.13408
G1 X116.476 Y109.648 E20.14638
G1 X116.112 Y109.502 E20.15942
G1 X107.905 Y109.5 E20.43239
G1 X107.388 Y109.702 E20.45085
M204 S1500
M205 X30 Y30
G0 F3750 X107.648 Y110.03
M204 S500
M205 X20 Y20
G1 F1500 X107.454 Y110.313 E20.46226
G1 X107.401 Y110.508 E20.46898
G1 X107.403 Y124.585 E20.93719
G1 X107.565 Y124.866 E20.94797
G1 X107.778 Y125.034 E20.957
G1 X108.011 Y125.1 E20.96505
G1 X116.052 Y125.098 E21.2325
G1 X116.339 Y124.964 E21.24303
G1 X116.537 Y124.727 E21.2533
G1 X116.6 Y124.474 E21.26197
G1 X116.597 Y110.419 E21.72944
G1 X116.444 Y110.145 E21.73988
G1 X116.267 Y109.995 E21.7476
G1 X116.035 Y109.902 E21.75591
G1 X107.98 Y109.9 E22.02382
G1 X107.648 Y110.03 E22.03568
M204 S1500
M205 X30 Y30
G0 F3750 X107.586 Y109.952
G0 X107.362 Y110.503
G0 X107.365 Y124.595
G0 X107.535 Y124.892
G0 X107.76 Y125.069
G0 X116.77 Y126.23
G0 X116.7 Y126.3
M204 S500
M205 X20 Y20
G1 F1500 X106.4 Y126.3 E22.37826
G1 X106.2 Y126.3 E22.38491
G1 X106.2 Y126.1 E22.38922
G1 X106.203 Y108.7 E22.96795
G1 X116.7 Y108.7 E23.31708
G1 X116.7 Y104.487 E23.4572
G1 X117.9 Y104.487 E23.49712
G1 X117.9 Y130.513 E24.36274
G1 X116.7 Y130.513 E24.40266
G1 X116.7 Y126.3 E24.54278
M204 S1500
M205 X30 Y30
G0 F3750 X116.3 Y126.7
M204 S500
M205 X20 Y20
;TYPE:WALL-OUTER
G1 F1500 X106 Y126.7 E24.88536
G1 X105.8 Y126.7 E24.89201
G1 X105.8 Y126.5 E24.89632
G1 X105.803 Y108.3 E25.50165
G1 X116.3 Y108.3 E25.85079
G1 X116.3 Y104.087 E25.99091
G1 X118.3 Y104.087 E26.05743
G1 X118.3 Y130.913 E26.94967
G1 X116.3 Y130.913 E27.01619
G1 X116.3 Y126.7 E27.15631
M204 S1500
M205 X30 Y30
G0 F3750 X116.1 Y126.7
