;FLAVOR:Marlin
;TIME:1087
;Filament used: 1.4038m
;Layer height: 0.3
;Generated with Cura_SteamEngine 4.0.0
M82 ;absolute extrusion mode
; Ender 3 Custom Start G-code
M140 S60 ; Set Heat Bed temperature
M190 S60 ; Wait for Heat Bed temperature
M104 S160; start warming extruder to 160
G28 ; Home all axes
G29 ; Auto bed-level (BL-Touch)
G92 E0 ; Reset Extruder
M104 S195 ; Set Extruder temperature
G1 X0.1 Y20 Z0.3 F5000.0 ; Move to start position
M109 S195 ; Wait for Extruder temperature
; G1 Z2.0 F3000 ; Move Z Axis up little to prevent scratching of Heat Bed
G1 X0.1 Y200.0 Z0.3 F1500.0 E15 ; Draw the first line
G1 X0.4 Y200.0 Z0.3 F5000.0 ; Move to side a little
G1 X0.4 Y20 Z0.3 F1500.0 E30 ; Draw the second line
G92 E0 ; Reset Extruder
G1 Z2.0 F3000 ; Move Z Axis up little to prevent scratching of Heat Bed
; End of custom start GCode
G92 E0
G1 F4200 E-4
;LAYER_COUNT:60
;LAYER:0
M106 S178.5
M204 S1500
M205 X30 Y30
G0 F3600 X101.794 Y99.691 Z0.2
M204 S500
M205 X20 Y20
;TYPE:SKIRT
G1 F4200 E0
G1 F1200 X102.396 Y99.194 E0.02596
G1 X102.777 Y98.953 E0.04096
G1 X103.48 Y98.623 E0.06679
G1 X103.907 Y98.484 E0.08172
G1 X104.671 Y98.338 E0.10759
G1 X105.019 Y98.306 E0.11922
G1 X115.412 Y98.361 E0.4649
G1 X115.967 Y98.452 E0.4836
G1 X116.699 Y98.694 E0.50924
G1 X117.111 Y98.891 E0.52443
G1 X117.776 Y99.321 E0.55077
G1 X118.113 Y99.603 E0.56539
G1 X118.615 Y100.139 E0.58981
G1 X118.876 Y100.498 E0.60458
G1 X119.255 Y101.183 E0.63061
G1 X119.421 Y101.597 E0.64545
G1 X119.586 Y102.225 E0.66704
G1 X119.769 Y102.168 E0.67342
G1 X120.087 Y102.134 E0.68406
G1 X122.852 Y102.087 E0.77603
G1 X123.23 Y102.121 E0.78866
G1 X123.592 Y102.232 E0.80125
G1 X123.689 Y102.286 E0.80494
G1 X123.816 Y102.079 E0.81302
G1 X124.078 Y101.805 E0.82563
G1 X124.391 Y101.591 E0.83824
G1 X124.742 Y101.448 E0.85085
G1 X125.244 Y101.377 E0.86771
G1 X126.858 Y101.378 E0.92139
G1 X127.235 Y101.418 E0.934
G1 X127.595 Y101.536 E0.9466
G1 X127.922 Y101.727 E0.9592
G1 X128.009 Y101.806 E0.96311
G1 X128.088 Y101.719 E0.96701
G1 X128.331 Y101.501 E0.97787
G1 X128.727 Y101.232 E0.99379
G1 X129.296 Y100.947 E1.01496
G1 X129.835 Y100.776 E1.03377
G1 X130.468 Y100.681 E1.05506
G1 X131.016 Y100.683 E1.07328
G1 X131.617 Y100.778 E1.09352
G1 X132.141 Y100.946 E1.11182
G1 X132.713 Y101.232 E1.13309
G1 X133.032 Y101.436 E1.14569
G1 X133.245 Y101.637 E1.15543
G1 X133.609 Y102.041 E1.17352
G1 X133.832 Y102.348 E1.18614
G1 X133.985 Y102.694 E1.19872
G1 X134.063 Y103.065 E1.21133
G1 X134.072 Y103.266 E1.21802
G1 X134.043 Y105.845 E1.3038
G1 X133.999 Y106.222 E1.31643
G1 X133.877 Y106.58 E1.32901
G1 X133.682 Y106.906 E1.34164
G1 X133.512 Y107.102 E1.35027
G1 X133.177 Y107.435 E1.36598
G1 X132.882 Y107.672 E1.37857
G1 X132.713 Y107.768 E1.38503
G1 X132.141 Y108.054 E1.4063
G1 X131.603 Y108.224 E1.42507
G1 X130.97 Y108.319 E1.44636
G1 X130.41 Y108.315 E1.46498
G1 X129.779 Y108.211 E1.48625
G1 X129.241 Y108.032 E1.50511
G1 X128.672 Y107.736 E1.52645
G1 X128.356 Y107.527 E1.53905
G1 X128.168 Y107.346 E1.54773
G1 X128.025 Y107.188 E1.55481
G1 X127.745 Y107.387 E1.56624
G1 X127.398 Y107.539 E1.57884
G1 X126.857 Y107.622 E1.59704
G1 X125.4 Y107.622 E1.6455
G1 X125.023 Y107.582 E1.65811
G1 X124.8 Y107.509 E1.66592
G1 X124.8 Y127.486 E2.33036
G1 X124.859 Y127.46 E2.3325
G1 X125.401 Y127.377 E2.35074
G1 X126.858 Y127.378 E2.3992
G1 X127.235 Y127.418 E2.41181
G1 X127.595 Y127.536 E2.42441
G1 X127.922 Y127.727 E2.437
G1 X128.009 Y127.806 E2.44091
G1 X128.089 Y127.719 E2.44484
G1 X128.337 Y127.497 E2.45591
G1 X128.733 Y127.228 E2.47184
G1 X129.297 Y126.946 E2.49281
G1 X129.835 Y126.776 E2.51157
G1 X130.468 Y126.681 E2.53286
G1 X131.016 Y126.683 E2.55109
G1 X131.617 Y126.778 E2.57133
G1 X132.141 Y126.946 E2.58963
G1 X132.713 Y127.232 E2.6109
G1 X133.032 Y127.436 E2.62349
G1 X133.245 Y127.637 E2.63324
G1 X133.609 Y128.041 E2.65132
G1 X133.832 Y128.348 E2.66394
G1 X133.985 Y128.694 E2.67652
G1 X134.063 Y129.065 E2.68913
G1 X134.072 Y129.266 E2.69583
G1 X134.043 Y131.845 E2.78161
G1 X133.999 Y132.222 E2.79423
G1 X133.877 Y132.58 E2.80681
G1 X133.682 Y132.906 E2.81945
G1 X133.512 Y133.102 E2.82808
G1 X133.177 Y133.435 E2.84379
G1 X132.882 Y133.672 E2.85637
G1 X132.713 Y133.768 E2.86284
G1 X132.141 Y134.054 E2.88411
G1 X131.603 Y134.224 E2.90287
G1 X130.97 Y134.319 E2.92416
G1 X130.41 Y134.315 E2.94279
G1 X129.779 Y134.211 E2.96406
G1 X129.241 Y134.032 E2.98292
G1 X128.672 Y133.736 E3.00425
G1 X128.356 Y133.527 E3.01685
G1 X128.168 Y133.346 E3.02553
G1 X128.025 Y133.188 E3.03262
G1 X127.745 Y133.387 E3.04405
G1 X127.398 Y133.539 E3.05665
G1 X126.857 Y133.622 E3.07485
G1 X125.251 Y133.622 E3.12827
G1 X124.874 Y133.582 E3.14087
G1 X124.514 Y133.464 E3.15348
G1 X124.187 Y133.274 E3.16605
G1 X123.906 Y133.019 E3.17867
G1 X123.687 Y132.712 E3.19122
G1 X123.523 Y132.795 E3.19733
G1 X123.157 Y132.892 E3.20992
G1 X122.87 Y132.913 E3.2195
G1 X120.168 Y132.893 E3.30937
G1 X119.791 Y132.85 E3.32199
G1 X119.59 Y132.783 E3.32903
G1 X119.589 Y132.792 E3.32934
G1 X119.48 Y133.222 E3.34409
G1 X119.197 Y133.943 E3.36985
G1 X118.98 Y134.339 E3.38487
G1 X118.527 Y134.966 E3.4106
G1 X118.219 Y135.296 E3.42561
G1 X117.619 Y135.795 E3.45157
G1 X117.238 Y136.038 E3.4666
G1 X116.526 Y136.375 E3.4928
G1 X116.096 Y136.516 E3.50785
G1 X115.343 Y136.661 E3.53335
G1 X114.995 Y136.693 E3.54498
G1 X104.621 Y136.647 E3.89002
G1 X104.077 Y136.56 E3.90834
G1 X103.338 Y136.322 E3.93417
G1 X102.93 Y136.131 E3.94915
G1 X102.272 Y135.716 E3.97502
G1 X101.925 Y135.431 E3.98996
G1 X101.392 Y134.868 E4.01575
G1 X101.124 Y134.502 E4.03083
G1 X100.744 Y133.815 E4.05695
G1 X100.577 Y133.396 E4.07195
G1 X100.384 Y132.652 E4.09751
G1 X100.326 Y132.202 E4.1126
G1 X100.3 Y103.205 E5.07705
G1 X100.314 Y102.976 E5.08468
G1 X100.413 Y102.197 E5.1108
G1 X100.526 Y101.76 E5.12581
G1 X100.812 Y101.039 E5.15161
G1 X101.031 Y100.642 E5.16669
G1 X101.486 Y100.018 E5.19237
G1 X101.794 Y99.691 E5.20731
M204 S1500
M205 X30 Y30
G0 F3600 X102.049 Y99.999
M204 S500
M205 X20 Y20
G1 F1200 X102.651 Y99.502 E5.23328
G1 X102.947 Y99.315 E5.24492
G1 X103.65 Y98.985 E5.27075
G1 X103.982 Y98.877 E5.28237
G1 X104.746 Y98.731 E5.30824
G1 X105.016 Y98.706 E5.31725
G1 X115.409 Y98.761 E5.66293
G1 X115.841 Y98.832 E5.67749
G1 X116.573 Y99.074 E5.70314
G1 X116.894 Y99.227 E5.71496
G1 X117.559 Y99.657 E5.7413
G1 X117.821 Y99.876 E5.75266
G1 X118.323 Y100.412 E5.77708
G1 X118.526 Y100.691 E5.78856
G1 X118.905 Y101.376 E5.8146
G1 X119.034 Y101.698 E5.82614
G1 X119.225 Y102.425 E5.85114
G1 X119.271 Y102.78 E5.86304
G1 X119.271 Y102.83 E5.86471
G1 X119.341 Y102.77 E5.86777
G1 X119.639 Y102.619 E5.87888
G1 X120.094 Y102.534 E5.89428
G1 X122.859 Y102.487 E5.98626
G1 X123.192 Y102.521 E5.99739
G1 X123.506 Y102.633 E6.00848
G1 X123.873 Y102.897 E6.02351
G1 X123.88 Y102.904 E6.02384
G1 X123.902 Y102.776 E6.02816
G1 X124.035 Y102.47 E6.03926
G1 X124.237 Y102.203 E6.0504
G1 X124.496 Y101.993 E6.06149
G1 X124.798 Y101.85 E6.0726
G1 X125.244 Y101.777 E6.08763
G1 X126.858 Y101.778 E6.14131
G1 X127.19 Y101.818 E6.15244
G1 X127.502 Y101.936 E6.16353
G1 X127.778 Y102.124 E6.17464
G1 X128.002 Y102.372 E6.18575
G1 X128.039 Y102.441 E6.18836
G1 X128.055 Y102.4 E6.18982
G1 X128.355 Y102.017 E6.206
G1 X128.598 Y101.799 E6.21686
G1 X128.906 Y101.589 E6.22926
G1 X129.475 Y101.304 E6.25042
G1 X129.894 Y101.172 E6.26504
G1 X130.527 Y101.077 E6.28632
G1 X130.954 Y101.078 E6.30053
G1 X131.555 Y101.173 E6.32076
G1 X131.962 Y101.304 E6.33499
G1 X132.534 Y101.59 E6.35626
G1 X132.813 Y101.774 E6.36737
G1 X132.948 Y101.905 E6.37363
G1 X133.312 Y102.309 E6.39171
G1 X133.505 Y102.582 E6.40283
G1 X133.627 Y102.893 E6.41395
G1 X133.672 Y103.262 E6.42631
G1 X133.643 Y105.841 E6.51209
G1 X133.599 Y106.172 E6.5232
G1 X133.479 Y106.483 E6.53429
G1 X133.23 Y106.818 E6.54817
G1 X132.895 Y107.151 E6.56388
G1 X132.534 Y107.41 E6.57866
G1 X131.962 Y107.696 E6.59993
G1 X131.544 Y107.828 E6.61451
G1 X130.911 Y107.923 E6.6358
G1 X130.475 Y107.92 E6.6503
G1 X129.844 Y107.816 E6.67157
G1 X129.426 Y107.677 E6.68622
G1 X128.857 Y107.381 E6.70755
G1 X128.465 Y107.078 E6.72403
G1 X128.219 Y106.806 E6.73623
G1 X128.041 Y106.554 E6.74649
G1 X127.912 Y106.743 E6.7541
G1 X127.664 Y106.966 E6.76519
G1 X127.37 Y107.125 E6.77631
G1 X127.046 Y107.209 E6.78744
G1 X126.857 Y107.222 E6.79374
G1 X125.4 Y107.222 E6.8422
G1 X125.068 Y107.182 E6.85333
G1 X124.756 Y107.065 E6.86441
G1 X124.479 Y106.877 E6.87554
G1 X124.4 Y106.789 E6.87948
G1 X124.4 Y128.207 E7.59184
G1 X124.593 Y128.033 E7.60049
G1 X124.887 Y127.874 E7.6116
G1 X125.211 Y127.79 E7.62274
G1 X125.401 Y127.777 E7.62907
G1 X126.858 Y127.778 E7.67753
G1 X127.19 Y127.818 E7.68865
G1 X127.502 Y127.936 E7.69975
G1 X127.778 Y128.124 E7.71085
G1 X128.002 Y128.372 E7.72197
G1 X128.039 Y128.441 E7.72457
G1 X128.055 Y128.401 E7.72601
G1 X128.356 Y128.017 E7.74223
G1 X128.604 Y127.795 E7.7533
G1 X128.912 Y127.586 E7.76568
G1 X129.476 Y127.304 E7.78666
G1 X129.894 Y127.172 E7.80124
G1 X130.527 Y127.077 E7.82253
G1 X130.954 Y127.078 E7.83673
G1 X131.555 Y127.173 E7.85697
G1 X131.962 Y127.304 E7.87119
G1 X132.534 Y127.59 E7.89246
G1 X132.813 Y127.774 E7.90357
G1 X132.948 Y127.905 E7.90983
G1 X133.312 Y128.309 E7.92792
G1 X133.505 Y128.582 E7.93904
G1 X133.627 Y128.893 E7.95015
G1 X133.672 Y129.262 E7.96251
G1 X133.643 Y131.841 E8.04829
G1 X133.599 Y132.172 E8.0594
G1 X133.479 Y132.483 E8.07049
G1 X133.23 Y132.818 E8.08437
G1 X132.895 Y133.151 E8.10008
G1 X132.534 Y133.41 E8.11486
G1 X131.962 Y133.696 E8.13613
G1 X131.544 Y133.828 E8.15071
G1 X130.911 Y133.923 E8.172
G1 X130.475 Y133.92 E8.1865
G1 X129.844 Y133.816 E8.20777
G1 X129.426 Y133.677 E8.22242
G1 X128.857 Y133.381 E8.24375
G1 X128.465 Y133.078 E8.26023
G1 X128.219 Y132.806 E8.27243
G1 X128.041 Y132.554 E8.28269
G1 X127.912 Y132.743 E8.2903
G1 X127.664 Y132.966 E8.3014
G1 X127.37 Y133.125 E8.31251
G1 X127.046 Y133.209 E8.32365
G1 X126.857 Y133.222 E8.32995
G1 X125.251 Y133.222 E8.38336
G1 X124.919 Y133.182 E8.39448
G1 X124.607 Y133.065 E8.40557
G1 X124.33 Y132.877 E8.4167
G1 X124.107 Y132.629 E8.42779
G1 X123.948 Y132.335 E8.43891
G1 X123.885 Y132.091 E8.44729
G1 X123.873 Y132.103 E8.44786
G1 X123.61 Y132.309 E8.45897
G1 X123.306 Y132.448 E8.47009
G1 X122.873 Y132.513 E8.48465
G1 X120.171 Y132.493 E8.57452
G1 X119.839 Y132.451 E8.58565
G1 X119.527 Y132.331 E8.59677
G1 X119.293 Y132.175 E8.60612
G1 X119.268 Y132.154 E8.60721
G1 X119.193 Y132.741 E8.62689
G1 X119.107 Y133.076 E8.6384
G1 X118.824 Y133.797 E8.66416
G1 X118.656 Y134.105 E8.67583
G1 X118.203 Y134.732 E8.70155
G1 X117.963 Y134.988 E8.71322
G1 X117.363 Y135.487 E8.73918
G1 X117.067 Y135.676 E8.75086
G1 X116.355 Y136.013 E8.77706
G1 X116.021 Y136.123 E8.78876
G1 X115.268 Y136.268 E8.81426
G1 X114.997 Y136.293 E8.82331
G1 X104.623 Y136.247 E9.16836
G1 X104.2 Y136.18 E9.1826
G1 X103.461 Y135.942 E9.20842
G1 X103.143 Y135.793 E9.2201
G1 X102.485 Y135.378 E9.24598
G1 X102.215 Y135.156 E9.2576
G1 X101.682 Y134.593 E9.28339
G1 X101.474 Y134.309 E9.2951
G1 X101.094 Y133.622 E9.32121
G1 X100.964 Y133.296 E9.33288
G1 X100.771 Y132.552 E9.35845
G1 X100.726 Y132.201 E9.37022
G1 X100.7 Y103.204 E10.33466
G1 X100.711 Y103.026 E10.3406
G1 X100.81 Y102.247 E10.36671
G1 X100.898 Y101.908 E10.37836
G1 X101.184 Y101.187 E10.40416
G1 X101.354 Y100.878 E10.41589
G1 X101.809 Y100.254 E10.44158
G1 X102.049 Y99.999 E10.45322
M204 S1500
M205 X30 Y30
G0 F3600 X102.303 Y100.308
M204 S500
M205 X20 Y20
G1 F1200 X102.905 Y99.811 E10.47919
G1 X103.117 Y99.677 E10.48753
G1 X103.82 Y99.347 E10.51336
G1 X104.057 Y99.27 E10.52165
G1 X104.821 Y99.124 E10.54752
G1 X105.014 Y99.106 E10.55397
G1 X115.407 Y99.161 E10.89964
G1 X115.716 Y99.212 E10.91006
G1 X116.448 Y99.454 E10.9357
G1 X116.677 Y99.563 E10.94414
G1 X117.342 Y99.993 E10.97048
G1 X117.529 Y100.149 E10.97858
G1 X118.031 Y100.685 E11.003
G1 X118.176 Y100.885 E11.01122
G1 X118.555 Y101.57 E11.03726
G1 X118.647 Y101.8 E11.04549
G1 X118.838 Y102.527 E11.07049
G1 X118.871 Y102.78 E11.07898
G1 X118.872 Y104.05 E11.12122
G1 X118.886 Y103.951 E11.12455
G1 X119.002 Y103.694 E11.13393
G1 X119.111 Y103.552 E11.13988
G1 X119.382 Y103.257 E11.1532
G1 X119.6 Y103.079 E11.16256
G1 X119.859 Y102.968 E11.17194
G1 X120.101 Y102.934 E11.18006
G1 X122.866 Y102.887 E11.27204
G1 X123.146 Y102.922 E11.28143
G1 X123.405 Y103.034 E11.29081
G1 X123.59 Y103.18 E11.29865
G1 X123.707 Y103.297 E11.30415
G1 X123.876 Y103.523 E11.31354
G1 X123.976 Y103.787 E11.32293
G1 X124 Y104.004 E11.33019
G1 X124 Y130.996 E12.22795
G1 X123.96 Y131.275 E12.23732
G1 X123.844 Y131.532 E12.2467
G1 X123.707 Y131.703 E12.25399
G1 X123.59 Y131.82 E12.25949
G1 X123.364 Y131.989 E12.26888
G1 X123.1 Y132.089 E12.27827
G1 X122.876 Y132.113 E12.28576
G1 X120.174 Y132.093 E12.37563
G1 X119.895 Y132.051 E12.38502
G1 X119.546 Y131.866 E12.39815
G1 X119.244 Y131.618 E12.41115
G1 X119.054 Y131.41 E12.42052
G1 X118.929 Y131.157 E12.42991
G1 X118.897 Y130.959 E12.43658
G1 X118.898 Y131.827 E12.46545
G1 X118.89 Y131.955 E12.46971
G1 X118.796 Y132.691 E12.49439
G1 X118.735 Y132.929 E12.50256
G1 X118.452 Y133.65 E12.52832
G1 X118.332 Y133.871 E12.53669
G1 X117.879 Y134.498 E12.56242
G1 X117.707 Y134.681 E12.57077
G1 X117.107 Y135.18 E12.59672
G1 X116.896 Y135.315 E12.60506
G1 X116.184 Y135.652 E12.63126
G1 X115.945 Y135.73 E12.63962
G1 X115.192 Y135.875 E12.66512
G1 X114.999 Y135.893 E12.67157
G1 X104.625 Y135.847 E13.01661
G1 X104.322 Y135.799 E13.02682
G1 X103.583 Y135.561 E13.05264
G1 X103.357 Y135.455 E13.06094
G1 X102.699 Y135.04 E13.08682
G1 X102.506 Y134.881 E13.09513
G1 X101.973 Y134.318 E13.12092
G1 X101.824 Y134.115 E13.1293
G1 X101.444 Y133.428 E13.15541
G1 X101.351 Y133.195 E13.16375
G1 X101.158 Y132.451 E13.18932
G1 X101.126 Y132.201 E13.1977
G1 X101.1 Y103.204 E14.16214
G1 X101.108 Y103.077 E14.16638
G1 X101.207 Y102.298 E14.19249
G1 X101.269 Y102.055 E14.20084
G1 X101.555 Y101.334 E14.22663
G1 X101.677 Y101.114 E14.235
G1 X102.132 Y100.49 E14.26069
G1 X102.303 Y100.308 E14.26899
M204 S1500
M205 X30 Y30
G0 F3600 X102.558 Y100.616
M204 S500
M205 X20 Y20
G1 F1200 X103.16 Y100.119 E14.29496
G1 X103.287 Y100.039 E14.29995
G1 X103.99 Y99.709 E14.32578
G1 X104.132 Y99.663 E14.33074
G1 X104.896 Y99.517 E14.35661
G1 X105.012 Y99.506 E14.36049
G1 X115.405 Y99.561 E14.70617
G1 X115.59 Y99.591 E14.7124
G1 X116.322 Y99.833 E14.73804
G1 X116.46 Y99.899 E14.74313
G1 X117.125 Y100.329 E14.76947
G1 X117.237 Y100.423 E14.77433
G1 X117.739 Y100.959 E14.79876
G1 X117.826 Y101.079 E14.80369
G1 X118.205 Y101.764 E14.82973
G1 X118.26 Y101.902 E14.83467
G1 X118.451 Y102.629 E14.85967
G1 X118.471 Y102.78 E14.86473
G1 X118.498 Y131.827 E15.83084
G1 X118.493 Y131.904 E15.83341
G1 X118.399 Y132.64 E15.85809
G1 X118.363 Y132.783 E15.86299
G1 X118.08 Y133.504 E15.88875
G1 X118.007 Y133.636 E15.89377
G1 X117.554 Y134.263 E15.9195
G1 X117.452 Y134.373 E15.92449
G1 X116.852 Y134.872 E15.95044
G1 X116.725 Y134.953 E15.95545
G1 X116.013 Y135.29 E15.98165
G1 X115.869 Y135.337 E15.98669
G1 X115.116 Y135.482 E16.0122
G1 X115 Y135.493 E16.01607
G1 X104.626 Y135.447 E16.36111
G1 X104.445 Y135.418 E16.36721
G1 X103.706 Y135.18 E16.39303
G1 X103.57 Y135.116 E16.39803
G1 X102.912 Y134.701 E16.42391
G1 X102.796 Y134.606 E16.42889
G1 X102.263 Y134.043 E16.45468
G1 X102.174 Y133.921 E16.4597
G1 X101.794 Y133.234 E16.48582
G1 X101.738 Y133.095 E16.4908
G1 X101.545 Y132.351 E16.51636
G1 X101.526 Y132.201 E16.52139
G1 X101.5 Y103.204 E17.48584
G1 X101.505 Y103.127 E17.4884
G1 X101.604 Y102.348 E17.51452
G1 X101.641 Y102.203 E17.5195
G1 X101.927 Y101.482 E17.5453
G1 X102 Y101.349 E17.55034
G1 X102.455 Y100.725 E17.57603
G1 X102.558 Y100.616 E17.58102
M204 S1500
M205 X30 Y30
G0 F3600 X102.813 Y100.925
M204 S500
M205 X20 Y20
G1 F1200 X103.415 Y100.428 E17.60698
G1 X103.457 Y100.401 E17.60864
G1 X104.16 Y100.071 E17.63447
G1 X104.207 Y100.056 E17.63611
G1 X104.971 Y99.91 E17.66198
G1 X105.01 Y99.906 E17.66329
G1 X115.403 Y99.961 E18.00897
G1 X115.465 Y99.971 E18.01105
G1 X116.197 Y100.213 E18.0367
G1 X116.243 Y100.235 E18.03839
G1 X116.908 Y100.665 E18.06473
G1 X116.945 Y100.696 E18.06634
G1 X117.447 Y101.232 E18.09076
