;FLAVOR:Marlin
;TIME:1554
;Filament used: 1.75287m
;Layer height: 0.3
;Generated with Cura_SteamEngine 4.0.0
M82 ;absolute extrusion mode
; Ender 3 Custom Start G-code
M140 S65 ; Set Heat Bed temperature
M190 S65 ; Wait for Heat Bed temperature
M104 S160; start warming extruder to 160
G28 ; Home all axes
G29 ; Auto bed-level (BL-Touch)
G92 E0 ; Reset Extruder
M104 S190 ; Set Extruder temperature
G1 X0.1 Y20 Z0.3 F5000.0 ; Move to start position
M109 S190 ; Wait for Extruder temperature
; G1 Z2.0 F3000 ; Move Z Axis up little to prevent scratching of Heat Bed
G1 X0.1 Y200.0 Z0.3 F1500.0 E15 ; Draw the first line
G1 X0.4 Y200.0 Z0.3 F5000.0 ; Move to side a little
G1 X0.4 Y20 Z0.3 F1500.0 E30 ; Draw the second line
G92 E0 ; Reset Extruder
G1 Z2.0 F3000 ; Move Z Axis up little to prevent scratching of Heat Bed
; End of custom start GCode
G92 E0
G1 F4200 E-4
;LAYER_COUNT:14
;LAYER:0
M106 S178.5
M204 S1500
M205 X30 Y30
G0 F3750 X64.468 Y102.836 Z0.2
M204 S500
M205 X20 Y20
;TYPE:SKIRT
G1 F4200 E0
G1 F1500 X65.085 Y102.521 E0.02304
G1 X65.733 Y102.278 E0.04606
G1 X66.406 Y102.111 E0.06912
G1 X67.092 Y102.023 E0.09213
G1 X67.509 Y102.009 E0.106
G1 X167.491 Y102.01 E3.43142
G1 X168.182 Y102.05 E3.45444
G1 X168.865 Y102.169 E3.4775
G1 X169.528 Y102.367 E3.50051
G1 X170.165 Y102.639 E3.52355
G1 X170.766 Y102.983 E3.54658
G1 X171.324 Y103.394 E3.56963
G1 X171.83 Y103.866 E3.59265
G1 X172.279 Y104.394 E3.6157
G1 X172.664 Y104.969 E3.63871
G1 X172.979 Y105.586 E3.66176
G1 X173.222 Y106.234 E3.68477
G1 X173.389 Y106.907 E3.70784
G1 X173.477 Y107.594 E3.73087
G1 X173.491 Y108.01 E3.74472
G1 X173.491 Y126.991 E4.37603
G1 X173.451 Y127.682 E4.39905
G1 X173.332 Y128.365 E4.42211
G1 X173.134 Y129.028 E4.44512
G1 X172.862 Y129.665 E4.46816
G1 X172.518 Y130.266 E4.49119
G1 X172.107 Y130.824 E4.51424
G1 X171.635 Y131.33 E4.53726
G1 X171.107 Y131.779 E4.56031
G1 X170.532 Y132.164 E4.58332
G1 X169.915 Y132.479 E4.60637
G1 X169.267 Y132.722 E4.62938
G1 X168.594 Y132.889 E4.65245
G1 X167.908 Y132.977 E4.67545
G1 X167.491 Y132.991 E4.68933
G1 X67.509 Y132.991 E8.01474
G1 X66.818 Y132.951 E8.03776
G1 X66.135 Y132.832 E8.06082
G1 X65.472 Y132.634 E8.08384
G1 X64.835 Y132.362 E8.10687
G1 X64.234 Y132.018 E8.12991
G1 X63.676 Y131.607 E8.15296
G1 X63.17 Y131.135 E8.17597
G1 X62.721 Y130.607 E8.19902
G1 X62.336 Y130.032 E8.22204
G1 X62.021 Y129.415 E8.24508
G1 X61.778 Y128.767 E8.2681
G1 X61.611 Y128.094 E8.29116
G1 X61.523 Y127.408 E8.31417
G1 X61.509 Y126.991 E8.32804
G1 X61.509 Y108.009 E8.95939
G1 X61.549 Y107.318 E8.98241
G1 X61.668 Y106.635 E9.00547
G1 X61.866 Y105.972 E9.02848
G1 X62.138 Y105.335 E9.05152
G1 X62.482 Y104.734 E9.07455
G1 X62.893 Y104.176 E9.0976
G1 X63.365 Y103.67 E9.12061
G1 X63.893 Y103.221 E9.14367
G1 X64.468 Y102.836 E9.16668
M204 S1500
M205 X30 Y30
G0 F3750 X64.849 Y103.081
M204 S500
M205 X20 Y20
G1 F1500 X65.456 Y102.799 E9.18894
G1 X66.092 Y102.591 E9.2112
G1 X66.748 Y102.461 E9.23344
G1 X67.509 Y102.409 E9.25881
G1 X167.491 Y102.41 E12.58423
G1 X168.159 Y102.45 E12.60649
G1 X168.817 Y102.569 E12.62873
G1 X169.457 Y102.766 E12.651
G1 X170.068 Y103.038 E12.67324
G1 X170.642 Y103.381 E12.69548
G1 X171.172 Y103.79 E12.71775
G1 X171.649 Y104.259 E12.74
G1 X172.067 Y104.781 E12.76224
G1 X172.419 Y105.35 E12.78449
G1 X172.701 Y105.957 E12.80676
G1 X172.909 Y106.593 E12.82901
G1 X173.039 Y107.249 E12.85125
G1 X173.091 Y108.01 E12.87662
G1 X173.091 Y126.991 E13.50794
G1 X173.051 Y127.659 E13.53019
G1 X172.932 Y128.317 E13.55243
G1 X172.735 Y128.957 E13.57471
G1 X172.463 Y129.568 E13.59695
G1 X172.12 Y130.142 E13.61919
G1 X171.711 Y130.672 E13.64146
G1 X171.242 Y131.149 E13.66371
G1 X170.72 Y131.567 E13.68595
G1 X170.151 Y131.919 E13.7082
G1 X169.544 Y132.201 E13.73046
G1 X168.908 Y132.409 E13.75272
G1 X168.252 Y132.539 E13.77496
G1 X167.491 Y132.591 E13.80033
G1 X67.509 Y132.591 E17.12575
G1 X66.841 Y132.551 E17.148
G1 X66.183 Y132.432 E17.17024
G1 X65.543 Y132.235 E17.19252
G1 X64.932 Y131.963 E17.21476
G1 X64.358 Y131.62 E17.237
G1 X63.828 Y131.211 E17.25927
G1 X63.351 Y130.742 E17.28152
G1 X62.933 Y130.22 E17.30376
G1 X62.581 Y129.651 E17.32601
G1 X62.299 Y129.044 E17.34827
G1 X62.091 Y128.408 E17.37053
G1 X61.961 Y127.752 E17.39277
G1 X61.909 Y126.991 E17.41814
G1 X61.909 Y108.009 E18.04949
G1 X61.949 Y107.341 E18.07174
G1 X62.068 Y106.683 E18.09398
G1 X62.265 Y106.043 E18.11626
G1 X62.537 Y105.432 E18.1385
G1 X62.88 Y104.858 E18.16074
G1 X63.289 Y104.328 E18.18301
G1 X63.758 Y103.851 E18.20526
G1 X64.28 Y103.433 E18.2275
G1 X64.849 Y103.081 E18.24975
M204 S1500
M205 X30 Y30
G0 F3750 X64.666 Y103.655
M204 S500
M205 X20 Y20
G1 F1500 X65.227 Y103.336 E18.27122
G1 X65.823 Y103.09 E18.29266
G1 X66.444 Y102.919 E18.31409
G1 X67.082 Y102.827 E18.33553
G1 X67.509 Y102.809 E18.34974
G1 X167.491 Y102.81 E21.67516
G1 X168.134 Y102.85 E21.69658
G1 X168.768 Y102.969 E21.71804
G1 X169.382 Y103.166 E21.73949
G1 X169.967 Y103.437 E21.76093
G1 X170.514 Y103.779 E21.78239
G1 X171.014 Y104.185 E21.80381
G1 X171.46 Y104.651 E21.82526
G1 X171.845 Y105.167 E21.84667
G1 X172.164 Y105.728 E21.86814
G1 X172.41 Y106.324 E21.88958
G1 X172.581 Y106.945 E21.91101
G1 X172.673 Y107.583 E21.93245
G1 X172.691 Y108.01 E21.94666
G1 X172.691 Y126.991 E22.57797
G1 X172.651 Y127.634 E22.5994
G1 X172.532 Y128.268 E22.62085
G1 X172.335 Y128.882 E22.6423
G1 X172.064 Y129.467 E22.66375
G1 X171.722 Y130.014 E22.6852
G1 X171.316 Y130.514 E22.70662
G1 X170.851 Y130.96 E22.72805
G1 X170.334 Y131.345 E22.74949
G1 X169.773 Y131.664 E22.77096
G1 X169.177 Y131.91 E22.7924
G1 X168.556 Y132.081 E22.81383
G1 X167.918 Y132.173 E22.83527
G1 X167.491 Y132.191 E22.84948
G1 X67.509 Y132.191 E26.1749
G1 X66.866 Y132.151 E26.19632
G1 X66.232 Y132.032 E26.21778
G1 X65.618 Y131.835 E26.23923
G1 X65.033 Y131.564 E26.26067
G1 X64.486 Y131.222 E26.28213
G1 X63.986 Y130.816 E26.30355
G1 X63.54 Y130.351 E26.32498
G1 X63.155 Y129.834 E26.34642
G1 X62.836 Y129.273 E26.36788
G1 X62.59 Y128.677 E26.38933
G1 X62.419 Y128.056 E26.41075
G1 X62.327 Y127.418 E26.43219
G1 X62.309 Y126.991 E26.4464
G1 X62.309 Y108.009 E27.07775
G1 X62.349 Y107.366 E27.09918
G1 X62.468 Y106.732 E27.12063
G1 X62.665 Y106.118 E27.14208
G1 X62.936 Y105.533 E27.16352
G1 X63.278 Y104.986 E27.18498
G1 X63.684 Y104.486 E27.2064
G1 X64.149 Y104.04 E27.22783
G1 X64.666 Y103.655 E27.24927
M204 S1500
M205 X30 Y30
G1 F4200 E23.24927
;MESH:784d2ce3-79db-4bf8-8407-5af4c9066e5d.stl
G0 F3750 X68.114 Y107.335
G0 X68.114 Y108.614
G0 X71.5 Y112
M204 S500
M205 X20 Y20
;TYPE:WALL-INNER
G1 F4200 E27.24927
G1 F1500 X71.5 Y124 E27.64839
G1 X163.5 Y124 E30.70832
G1 X163.5 Y112 E31.10745
G1 X71.5 Y112 E34.16738
M204 S1500
M205 X30 Y30
G0 F3750 X71.872 Y123.628
G0 X166.5 Y126
M204 S500
M205 X20 Y20
G1 F1500 X68.5 Y126 E37.42687
G1 X68.5 Y109 E37.99229
G1 X166.5 Y109 E41.25179
G1 X166.5 Y126 E41.81721
M204 S1500
M205 X30 Y30
G0 F3750 X166.9 Y126.4
M204 S500
M205 X20 Y20
G1 F1500 X68.1 Y126.4 E45.10331
G1 X68.1 Y108.6 E45.69534
G1 X166.9 Y108.6 E48.98144
G1 X166.9 Y126.4 E49.57347
M204 S1500
M205 X30 Y30
G0 F3750 X166.83 Y126.33
G0 X71.872 Y123.628
G0 X71.83 Y112.33
G0 X71.9 Y112.4
M204 S500
M205 X20 Y20
G1 F1500 X71.9 Y123.6 E49.94599
G1 X163.1 Y123.6 E52.97931
G1 X163.1 Y112.4 E53.35182
G1 X71.9 Y112.4 E56.38515
M204 S1500
M205 X30 Y30
G0 F3750 X72.3 Y112.8
M204 S500
M205 X20 Y20
;TYPE:WALL-OUTER
G1 F1500 X72.3 Y123.2 E56.73105
G1 X162.7 Y123.2 E59.73777
G1 X162.7 Y112.8 E60.08368
G1 X72.3 Y112.8 E63.09039
M204 S1500
M205 X30 Y30
G0 F3750 X72.3 Y113
G0 X71.8 Y113
G0 X71.872 Y123.628
G0 X166.83 Y126.33
G0 X167.3 Y126.8
M204 S500
M205 X20 Y20
G1 F1500 X67.7 Y126.8 E66.4031
G1 X67.7 Y108.2 E67.02174
G1 X167.3 Y108.2 E70.33445
G1 X167.3 Y126.8 E70.95309
M204 S1500
M205 X30 Y30
G0 F3750 X167.1 Y126.8
G0 X166.83 Y126.33
G0 X166.16 Y125.66
M204 S500
M205 X20 Y20
;TYPE:SKIN
G1 F1500 X68.84 Y125.66 E73.38075
G1 X68.84 Y109.34 E73.78785
G1 X166.16 Y109.34 E76.21551
G1 X166.16 Y125.66 E76.62261
M204 S1500
M205 X30 Y30
G0 F3750 X163.84 Y124.34
M204 S500
M205 X20 Y20
G1 F1500 X163.84 Y111.66 E76.93891
G1 X71.16 Y111.66 E79.25083
G1 X71.16 Y124.34 E79.56713
G1 X163.84 Y124.34 E81.87904
M204 S1500
M205 X30 Y30
G0 F3750 X166.027 Y109.6
M204 S500
M205 X20 Y20
G1 F1500 X165.898 Y109.471 E81.88359
M204 S1500
M205 X30 Y30
G0 F3750 X165.474 Y109.471
M204 S500
M205 X20 Y20
G1 F1500 X166.027 Y110.024 E81.9031
M204 S1500
M205 X30 Y30
G0 F3750 X166.027 Y110.448
M204 S500
M205 X20 Y20
G1 F1500 X165.05 Y109.471 E81.93757
M204 S1500
M205 X30 Y30
G0 F3750 X164.625 Y109.471
M204 S500
M205 X20 Y20
G1 F1500 X166.027 Y110.872 E81.98701
M204 S1500
M205 X30 Y30
G0 F3750 X166.027 Y111.297
M204 S500
M205 X20 Y20
G1 F1500 X164.201 Y109.471 E82.05143
M204 S1500
M205 X30 Y30
G0 F3750 X163.777 Y109.471
M204 S500
M205 X20 Y20
G1 F1500 X166.027 Y111.721 E82.1308
M204 S1500
M205 X30 Y30
G0 F3750 X166.027 Y112.145
M204 S500
M205 X20 Y20
G1 F1500 X163.352 Y109.471 E82.22515
M204 S1500
M205 X30 Y30
G0 F3750 X162.928 Y109.471
M204 S500
M205 X20 Y20
G1 F1500 X166.027 Y112.569 E82.33446
M204 S1500
M205 X30 Y30
G0 F3750 X166.027 Y112.994
M204 S500
M205 X20 Y20
G1 F1500 X162.504 Y109.471 E82.45874
M204 S1500
M205 X30 Y30
G0 F3750 X162.08 Y109.471
M204 S500
M205 X20 Y20
G1 F1500 X166.027 Y113.418 E82.59798
M204 S1500
M205 X30 Y30
G0 F3750 X166.027 Y113.842
M204 S500
M205 X20 Y20
G1 F1500 X163.97 Y111.786 E82.67053
M204 S1500
M205 X30 Y30
G0 F3750 X163.711 Y111.527
M204 S500
M205 X20 Y20
G1 F1500 X161.655 Y109.471 E82.74306
M204 S1500
M205 X30 Y30
G0 F3750 X161.231 Y109.471
M204 S500
M205 X20 Y20
G1 F1500 X163.287 Y111.527 E82.81559
M204 S1500
M205 X30 Y30
G0 F3750 X162.862 Y111.527
M204 S500
M205 X20 Y20
G1 F1500 X160.807 Y109.471 E82.88811
M204 S1500
M205 X30 Y30
G0 F3750 X160.383 Y109.471
M204 S500
M205 X20 Y20
G1 F1500 X162.438 Y111.527 E82.96062
M204 S1500
M205 X30 Y30
G0 F3750 X162.014 Y111.527
M204 S500
M205 X20 Y20
G1 F1500 X159.958 Y109.471 E83.03315
M204 S1500
M205 X30 Y30
G0 F3750 X159.534 Y109.471
M204 S500
M205 X20 Y20
G1 F1500 X161.59 Y111.527 E83.10568
M204 S1500
M205 X30 Y30
G0 F3750 X161.165 Y111.527
M204 S500
M205 X20 Y20
G1 F1500 X159.11 Y109.471 E83.1782
M204 S1500
M205 X30 Y30
G0 F3750 X158.686 Y109.471
M204 S500
M205 X20 Y20
G1 F1500 X160.741 Y111.527 E83.25071
M204 S1500
M205 X30 Y30
G0 F3750 X160.317 Y111.527
M204 S500
M205 X20 Y20
G1 F1500 X158.261 Y109.471 E83.32324
M204 S1500
M205 X30 Y30
G0 F3750 X157.837 Y109.471
M204 S500
M205 X20 Y20
G1 F1500 X159.893 Y111.527 E83.39577
M204 S1500
M205 X30 Y30
G0 F3750 X159.468 Y111.527
M204 S500
M205 X20 Y20
G1 F1500 X157.413 Y109.471 E83.46829
M204 S1500
M205 X30 Y30
G0 F3750 X156.989 Y109.471
M204 S500
M205 X20 Y20
G1 F1500 X159.044 Y111.527 E83.5408
M204 S1500
M205 X30 Y30
G0 F3750 X158.62 Y111.527
M204 S500
M205 X20 Y20
G1 F1500 X156.564 Y109.471 E83.61333
M204 S1500
M205 X30 Y30
G0 F3750 X156.14 Y109.471
M204 S500
M205 X20 Y20
G1 F1500 X158.196 Y111.527 E83.68586
M204 S1500
M205 X30 Y30
G0 F3750 X157.771 Y111.527
M204 S500
M205 X20 Y20
G1 F1500 X155.716 Y109.471 E83.75837
M204 S1500
M205 X30 Y30
G0 F3750 X155.291 Y109.471
M204 S500
M205 X20 Y20
G1 F1500 X157.347 Y111.527 E83.8309
M204 S1500
M205 X30 Y30
G0 F3750 X156.923 Y111.527
M204 S500
M205 X20 Y20
G1 F1500 X154.867 Y109.471 E83.90344
M204 S1500
M205 X30 Y30
G0 F3750 X154.443 Y109.471
M204 S500
M205 X20 Y20
G1 F1500 X156.498 Y111.527 E83.97595
M204 S1500
M205 X30 Y30
G0 F3750 X156.074 Y111.527
M204 S500
M205 X20 Y20
G1 F1500 X154.019 Y109.471 E84.04846
M204 S1500
M205 X30 Y30
G0 F3750 X153.594 Y109.471
M204 S500
M205 X20 Y20
G1 F1500 X155.65 Y111.527 E84.12099
M204 S1500
M205 X30 Y30
G0 F3750 X155.226 Y111.527
M204 S500
M205 X20 Y20
G1 F1500 X153.17 Y109.471 E84.19352
M204 S1500
M205 X30 Y30
G0 F3750 X152.746 Y109.471
M204 S500
M205 X20 Y20
G1 F1500 X154.801 Y111.527 E84.26604
M204 S1500
M205 X30 Y30
G0 F3750 X154.377 Y111.527
M204 S500
M205 X20 Y20
G1 F1500 X152.322 Y109.471 E84.33855
M204 S1500
M205 X30 Y30
G0 F3750 X151.897 Y109.471
M204 S500
M205 X20 Y20
G1 F1500 X153.953 Y111.527 E84.41108
M204 S1500
M205 X30 Y30
G0 F3750 X153.529 Y111.527
M204 S500
M205 X20 Y20
G1 F1500 X151.473 Y109.471 E84.48361
M204 S1500
M205 X30 Y30
G0 F3750 X151.049 Y109.471
M204 S500
M205 X20 Y20
G1 F1500 X153.104 Y111.527 E84.55613
M204 S1500
M205 X30 Y30
G0 F3750 X152.68 Y111.527
M204 S500
M205 X20 Y20
G1 F1500 X150.625 Y109.471 E84.62864
M204 S1500
M205 X30 Y30
G0 F3750 X150.2 Y109.471
M204 S500
M205 X20 Y20
G1 F1500 X152.256 Y111.527 E84.70117
M204 S1500
M205 X30 Y30
G0 F3750 X151.832 Y111.527
M204 S500
M205 X20 Y20
G1 F1500 X149.776 Y109.471 E84.7737
M204 S1500
M205 X30 Y30
G0 F3750 X149.352 Y109.471
M204 S500
M205 X20 Y20
G1 F1500 X151.407 Y111.527 E84.84621
M204 S1500
M205 X30 Y30
G0 F3750 X150.983 Y111.527
M204 S500
M205 X20 Y20
G1 F1500 X148.928 Y109.471 E84.91873
M204 S1500
M205 X30 Y30
G0 F3750 X148.503 Y109.471
M204 S500
M205 X20 Y20
G1 F1500 X150.559 Y111.527 E84.99126
M204 S1500
M205 X30 Y30
G0 F3750 X150.135 Y111.527
M204 S500
M205 X20 Y20
G1 F1500 X148.079 Y109.471 E85.06379
M204 S1500
M205 X30 Y30
G0 F3750 X147.655 Y109.471
M204 S500
M205 X20 Y20
G1 F1500 X149.71 Y111.527 E85.1363
M204 S1500
M205 X30 Y30
G0 F3750 X149.286 Y111.527
M204 S500
M205 X20 Y20
G1 F1500 X147.23 Y109.471 E85.20883
M204 S1500
M205 X30 Y30
G0 F3750 X146.806 Y109.471
M204 S500
M205 X20 Y20
G1 F1500 X148.862 Y111.527 E85.28136
M204 S1500
M205 X30 Y30
G0 F3750 X148.437 Y111.527
M204 S500
M205 X20 Y20
G1 F1500 X146.382 Y109.471 E85.35388
M204 S1500
M205 X30 Y30
G0 F3750 X145.958 Y109.471
M204 S500
M205 X20 Y20
G1 F1500 X148.013 Y111.527 E85.42639
M204 S1500
M205 X30 Y30
G0 F3750 X147.589 Y111.527
M204 S500
M205 X20 Y20
G1 F1500 X145.533 Y109.471 E85.49892
M204 S1500
M205 X30 Y30
G0 F3750 X145.109 Y109.471
M204 S500
M205 X20 Y20
G1 F1500 X147.165 Y111.527 E85.57145
M204 S1500
M205 X30 Y30
G0 F3750 X146.74 Y111.527
M204 S500
M205 X20 Y20
G1 F1500 X144.685 Y109.471 E85.64397
M204 S1500
M205 X30 Y30
G0 F3750 X144.261 Y109.471
M204 S500
M205 X20 Y20
G1 F1500 X146.316 Y111.527 E85.71648
M204 S1500
M205 X30 Y30
G0 F3750 X145.892 Y111.527
M204 S500
M205 X20 Y20
G1 F1500 X143.836 Y109.471 E85.78901
M204 S1500
M205 X30 Y30
G0 F3750 X143.412 Y109.471
M204 S500
M205 X20 Y20
G1 F1500 X145.468 Y111.527 E85.86154
M204 S1500
M205 X30 Y30
G0 F3750 X145.043 Y111.527
M204 S500
M205 X20 Y20
G1 F1500 X142.988 Y109.471 E85.93406
M204 S1500
M205 X30 Y30
G0 F3750 X142.564 Y109.471
M204 S500
M205 X20 Y20
G1 F1500 X144.619 Y111.527 E86.00657
M204 S1500
M205 X30 Y30
G0 F3750 X144.195 Y111.527
M204 S500
M205 X20 Y20
G1 F1500 X142.139 Y109.471 E86.0791
M204 S1500
M205 X30 Y30
G0 F3750 X141.715 Y109.471
M204 S500
M205 X20 Y20
G1 F1500 X143.771 Y111.527 E86.15163
M204 S1500
M205 X30 Y30
G0 F3750 X143.346 Y111.527
M204 S500
M205 X20 Y20
G1 F1500 X141.291 Y109.471 E86.22414
M204 S1500
M205 X30 Y30
G0 F3750 X140.866 Y109.471
M204 S500
M205 X20 Y20
G1 F1500 X142.922 Y111.527 E86.29667
M204 S1500
M205 X30 Y30
G0 F3750 X142.498 Y111.527
M204 S500
M205 X20 Y20
G1 F1500 X140.442 Y109.471 E86.36921
M204 S1500
M205 X30 Y30
G0 F3750 X140.018 Y109.471
M204 S500
M205 X20 Y20
G1 F1500 X142.074 Y111.527 E86.44174
M204 S1500
M205 X30 Y30
G0 F3750 X141.649 Y111.527
M204 S500
M205 X20 Y20
G1 F1500 X139.594 Y109.471 E86.51425
M204 S1500
M205 X30 Y30
G0 F3750 X139.169 Y109.471
M204 S500
M205 X20 Y20
G1 F1500 X141.225 Y111.527 E86.58678
M204 S1500
M205 X30 Y30
G0 F3750 X140.801 Y111.527
M204 S500
M205 X20 Y20
G1 F1500 X138.745 Y109.471 E86.65931
M204 S1500
M205 X30 Y30
G0 F3750 X138.321 Y109.471
M204 S500
M205 X20 Y20
G1 F1500 X140.376 Y111.527 E86.73183
M204 S1500
M205 X30 Y30
G0 F3750 X139.952 Y111.527
M204 S500
M205 X20 Y20
G1 F1500 X137.897 Y109.471 E86.80434
M204 S1500
M205 X30 Y30
G0 F3750 X137.472 Y109.471
M204 S500
M205 X20 Y20
G1 F1500 X139.528 Y111.527 E86.87687
M204 S1500
M205 X30 Y30
G0 F3750 X139.104 Y111.527
M204 S500
M205 X20 Y20
G1 F1500 X137.048 Y109.471 E86.9494
M204 S1500
M205 X30 Y30
G0 F3750 X136.624 Y109.471
M204 S500
M205 X20 Y20
G1 F1500 X138.679 Y111.527 E87.02191
M204 S1500
M205 X30 Y30
