;FLAVOR:Marlin
;TIME:1203
;Filament used: 0.770882m
;Layer height: 0.2
;Generated with Cura_SteamEngine 4.0.0
M82 ;absolute extrusion mode
; Ender 3 Custom Start G-code
M140 S70 ; Set Heat Bed temperature
M190 S70 ; Wait for Heat Bed temperature
M104 S160; start warming extruder to 160
G28 ; Home all axes
G29 ; Auto bed-level (BL-Touch)
G92 E0 ; Reset Extruder
M104 S210 ; Set Extruder temperature
G1 X0.1 Y20 Z0.3 F5000.0 ; Move to start position
M109 S210 ; Wait for Extruder temperature
; G1 Z2.0 F3000 ; Move Z Axis up little to prevent scratching of Heat Bed
G1 X0.1 Y200.0 Z0.3 F1500.0 E15 ; Draw the first line
G1 X0.4 Y200.0 Z0.3 F5000.0 ; Move to side a little
G1 X0.4 Y20 Z0.3 F1500.0 E30 ; Draw the second line
G92 E0 ; Reset Extruder
G1 Z2.0 F3000 ; Move Z Axis up little to prevent scratching of Heat Bed
; End of custom start GCode
G92 E0
G1 F4200 E-4
;LAYER_COUNT:42
;LAYER:0
M106 S178.5
M204 S1500
M205 X30 Y30
G0 F1125 X103.563 Y106.138 Z0.2
M204 S500
M205 X20 Y20
;TYPE:SKIRT
G1 F4200 E0
G1 F300 X103.911 Y105.853 E0.01571
G1 X104.351 Y105.576 E0.03387
G1 X104.756 Y105.386 E0.04949
G1 X105.263 Y105.222 E0.0681
G1 X105.81 Y105.135 E0.08744
G1 X113.932 Y105.105 E0.37109
G1 X114.291 Y105.14 E0.38369
G1 X114.822 Y105.246 E0.4026
G1 X115.255 Y105.391 E0.41854
G1 X115.732 Y105.622 E0.43705
G1 X116.053 Y105.822 E0.45026
G1 X116.199 Y105.949 E0.45702
G1 X116.503 Y106.243 E0.47179
G1 X116.503 Y104.688 E0.52609
G1 X116.554 Y104.261 E0.54111
G1 X116.674 Y103.769 E0.5588
G1 X116.802 Y103.413 E0.57201
G1 X116.999 Y103.095 E0.58507
G1 X117.238 Y102.786 E0.59872
G1 X117.5 Y102.512 E0.61196
G1 X117.814 Y102.299 E0.62521
G1 X118.165 Y102.157 E0.63843
G1 X118.662 Y102.087 E0.65596
G1 X120.883 Y102.087 E0.73352
G1 X121.26 Y102.127 E0.74676
G1 X121.62 Y102.245 E0.75999
G1 X121.629 Y102.25 E0.76035
G1 X121.771 Y102.013 E0.77
G1 X122.028 Y101.735 E0.78322
G1 X122.338 Y101.517 E0.79646
G1 X122.687 Y101.368 E0.80971
G1 X123.214 Y101.29 E0.82831
G1 X124.862 Y101.291 E0.88587
G1 X125.239 Y101.331 E0.89911
G1 X125.599 Y101.449 E0.91234
G1 X125.926 Y101.64 E0.92556
G1 X126.054 Y101.756 E0.9316
G1 X126.088 Y101.719 E0.93335
G1 X126.331 Y101.501 E0.94475
G1 X126.727 Y101.232 E0.96147
G1 X127.296 Y100.947 E0.98369
G1 X127.835 Y100.776 E1.00344
G1 X128.468 Y100.681 E1.0258
G1 X129.016 Y100.683 E1.04493
G1 X129.617 Y100.778 E1.06618
G1 X130.141 Y100.946 E1.0854
G1 X130.713 Y101.232 E1.10774
G1 X131.032 Y101.436 E1.12096
G1 X131.245 Y101.637 E1.13119
G1 X131.609 Y102.041 E1.15018
G1 X131.832 Y102.348 E1.16343
G1 X131.985 Y102.694 E1.17664
G1 X132.063 Y103.065 E1.18988
G1 X132.072 Y103.266 E1.19691
G1 X132.043 Y105.845 E1.28698
G1 X131.999 Y106.222 E1.30024
G1 X131.877 Y106.58 E1.31344
G1 X131.682 Y106.906 E1.32671
G1 X131.512 Y107.102 E1.33577
G1 X131.177 Y107.435 E1.35227
G1 X130.882 Y107.672 E1.36548
G1 X130.713 Y107.768 E1.37227
G1 X130.141 Y108.054 E1.3946
G1 X129.603 Y108.224 E1.41431
G1 X128.97 Y108.319 E1.43666
G1 X128.41 Y108.315 E1.45622
G1 X127.78 Y108.211 E1.47852
G1 X127.415 Y108.11 E1.49175
G1 X127.235 Y108.028 E1.49865
G1 X126.661 Y107.726 E1.5213
G1 X126.346 Y107.515 E1.53454
G1 X126.163 Y107.339 E1.54341
G1 X126.072 Y107.238 E1.54816
G1 X126.059 Y107.253 E1.54885
G1 X125.751 Y107.474 E1.56209
G1 X125.404 Y107.626 E1.57532
G1 X124.862 Y107.709 E1.59447
G1 X123.4 Y107.709 E1.64553
G1 X123.023 Y107.669 E1.65877
G1 X122.8 Y107.596 E1.66696
G1 X122.8 Y127.401 E2.35862
G1 X122.888 Y127.364 E2.36195
G1 X123.401 Y127.29 E2.38005
G1 X124.862 Y127.291 E2.43107
G1 X125.239 Y127.331 E2.44431
G1 X125.599 Y127.449 E2.45754
G1 X125.926 Y127.64 E2.47077
G1 X126.055 Y127.757 E2.47685
G1 X126.089 Y127.719 E2.47863
G1 X126.337 Y127.497 E2.49026
G1 X126.733 Y127.228 E2.50697
G1 X127.297 Y126.946 E2.529
G1 X127.835 Y126.776 E2.5487
G1 X128.468 Y126.681 E2.57105
G1 X129.016 Y126.683 E2.59019
G1 X129.617 Y126.778 E2.61144
G1 X130.141 Y126.946 E2.63066
G1 X130.713 Y127.232 E2.65299
G1 X131.032 Y127.436 E2.66622
G1 X131.245 Y127.637 E2.67644
G1 X131.609 Y128.041 E2.69543
G1 X131.832 Y128.348 E2.70869
G1 X131.985 Y128.694 E2.7219
G1 X132.063 Y129.065 E2.73514
G1 X132.072 Y129.266 E2.74216
G1 X132.043 Y131.845 E2.83224
G1 X131.999 Y132.222 E2.84549
G1 X131.877 Y132.58 E2.8587
G1 X131.682 Y132.906 E2.87197
G1 X131.512 Y133.102 E2.88103
G1 X131.177 Y133.435 E2.89752
G1 X130.882 Y133.672 E2.91074
G1 X130.713 Y133.768 E2.91753
G1 X130.141 Y134.054 E2.93986
G1 X129.603 Y134.224 E2.95957
G1 X128.97 Y134.319 E2.98192
G1 X128.41 Y134.315 E3.00148
G1 X127.78 Y134.211 E3.02378
G1 X127.415 Y134.11 E3.037
G1 X127.235 Y134.028 E3.04391
G1 X126.661 Y133.726 E3.06656
G1 X126.346 Y133.515 E3.0798
G1 X126.163 Y133.339 E3.08867
G1 X126.072 Y133.238 E3.09342
G1 X126.059 Y133.253 E3.09411
G1 X125.751 Y133.474 E3.10735
G1 X125.404 Y133.626 E3.12058
G1 X124.862 Y133.709 E3.13973
G1 X123.214 Y133.709 E3.19728
G1 X122.837 Y133.669 E3.21052
G1 X122.477 Y133.551 E3.22375
G1 X122.15 Y133.361 E3.23696
G1 X121.869 Y133.106 E3.25021
G1 X121.649 Y132.797 E3.26346
G1 X121.625 Y132.743 E3.26552
G1 X121.523 Y132.795 E3.26952
G1 X121.157 Y132.892 E3.28274
G1 X120.883 Y132.913 E3.29234
G1 X118.663 Y132.913 E3.36987
G1 X118.286 Y132.873 E3.38311
G1 X117.926 Y132.755 E3.39634
G1 X117.599 Y132.565 E3.40955
G1 X117.222 Y132.192 E3.42807
G1 X116.972 Y131.858 E3.44264
G1 X116.778 Y131.532 E3.45589
G1 X116.663 Y131.2 E3.46816
G1 X116.55 Y130.73 E3.48504
G1 X116.5 Y130.309 E3.49984
G1 X116.5 Y128.795 E3.55272
G1 X116.437 Y128.862 E3.55593
G1 X115.99 Y129.205 E3.57561
G1 X115.302 Y129.579 E3.60295
G1 X114.779 Y129.766 E3.62235
G1 X114.265 Y129.864 E3.64063
G1 X113.92 Y129.896 E3.65273
G1 X105.797 Y129.862 E3.93641
G1 X105.243 Y129.772 E3.95601
G1 X104.735 Y129.605 E3.97468
G1 X104.326 Y129.411 E3.99049
G1 X103.889 Y129.131 E4.00862
G1 X103.547 Y128.846 E4.02417
G1 X103.187 Y128.462 E4.04255
G1 X102.921 Y128.096 E4.05835
G1 X102.664 Y127.627 E4.07703
G1 X102.496 Y127.197 E4.09315
G1 X102.37 Y126.691 E4.11136
G1 X102.317 Y126.26 E4.12652
G1 X102.3 Y118.407 E4.40078
G1 X102.315 Y118.168 E4.40914
G1 X102.386 Y117.629 E4.42813
G1 X102.418 Y117.499 E4.4328
G1 X102.383 Y117.355 E4.43798
G1 X102.315 Y116.829 E4.4565
G1 X102.3 Y116.594 E4.46472
G1 X102.318 Y108.728 E4.73943
G1 X102.374 Y108.287 E4.75495
G1 X102.503 Y107.782 E4.77316
G1 X102.674 Y107.352 E4.78932
G1 X102.935 Y106.883 E4.80806
G1 X103.201 Y106.52 E4.82378
G1 X103.563 Y106.138 E4.84216
M204 S1500
M205 X30 Y30
G0 F1125 X103.854 Y106.413
M204 S500
M205 X20 Y20
G1 F300 X104.124 Y106.191 E4.85436
G1 X104.564 Y105.914 E4.87252
G1 X104.879 Y105.767 E4.88466
G1 X105.386 Y105.603 E4.90327
G1 X105.812 Y105.535 E4.91834
G1 X113.934 Y105.505 E5.20198
G1 X114.213 Y105.532 E5.21177
G1 X114.744 Y105.638 E5.23068
G1 X115.08 Y105.751 E5.24306
G1 X115.557 Y105.982 E5.26157
G1 X115.921 Y106.236 E5.27707
G1 X116.491 Y106.788 E5.30478
G1 X116.701 Y107.048 E5.31646
G1 X116.794 Y107.22 E5.32328
G1 X116.903 Y107.462 E5.33255
G1 X116.903 Y104.688 E5.42943
G1 X116.943 Y104.356 E5.44111
G1 X117.063 Y103.864 E5.45879
G1 X117.18 Y103.551 E5.47046
G1 X117.316 Y103.339 E5.47926
G1 X117.555 Y103.03 E5.4929
G1 X117.789 Y102.792 E5.50456
G1 X118.073 Y102.617 E5.51621
G1 X118.391 Y102.514 E5.52788
G1 X118.662 Y102.487 E5.53739
G1 X120.883 Y102.487 E5.61496
G1 X121.215 Y102.527 E5.62664
G1 X121.527 Y102.644 E5.63827
G1 X121.84 Y102.873 E5.65182
G1 X121.866 Y102.708 E5.65765
G1 X121.995 Y102.4 E5.66931
G1 X122.193 Y102.131 E5.68098
G1 X122.449 Y101.917 E5.69263
G1 X122.749 Y101.769 E5.70431
G1 X123.214 Y101.69 E5.72078
G1 X124.862 Y101.691 E5.77834
G1 X125.194 Y101.731 E5.79002
G1 X125.506 Y101.849 E5.80167
G1 X125.782 Y102.037 E5.81333
G1 X126.006 Y102.285 E5.825
G1 X126.063 Y102.39 E5.82917
G1 X126.355 Y102.017 E5.84571
G1 X126.598 Y101.799 E5.85712
G1 X126.906 Y101.589 E5.87013
G1 X127.475 Y101.304 E5.89236
G1 X127.894 Y101.172 E5.9077
G1 X128.527 Y101.077 E5.93005
G1 X128.954 Y101.078 E5.94497
G1 X129.555 Y101.173 E5.96622
G1 X129.962 Y101.304 E5.98115
G1 X130.534 Y101.59 E6.00348
G1 X130.813 Y101.774 E6.01515
G1 X130.948 Y101.905 E6.02172
G1 X131.312 Y102.309 E6.04071
G1 X131.505 Y102.582 E6.05239
G1 X131.627 Y102.893 E6.06406
G1 X131.672 Y103.262 E6.07704
G1 X131.643 Y105.841 E6.16711
G1 X131.599 Y106.172 E6.17877
G1 X131.479 Y106.483 E6.19041
G1 X131.23 Y106.818 E6.20499
G1 X130.895 Y107.151 E6.22149
G1 X130.534 Y107.41 E6.237
G1 X129.962 Y107.696 E6.25934
G1 X129.544 Y107.828 E6.27465
G1 X128.911 Y107.923 E6.297
G1 X128.475 Y107.92 E6.31223
G1 X127.845 Y107.816 E6.33453
G1 X127.421 Y107.674 E6.35014
G1 X126.847 Y107.372 E6.37279
G1 X126.46 Y107.071 E6.38991
G1 X126.218 Y106.803 E6.40252
G1 X126.074 Y106.599 E6.41125
G1 X125.917 Y106.829 E6.42097
G1 X125.669 Y107.053 E6.43264
G1 X125.375 Y107.212 E6.44431
G1 X125.052 Y107.296 E6.45597
G1 X124.862 Y107.309 E6.46262
G1 X123.4 Y107.309 E6.51368
G1 X123.068 Y107.269 E6.52536
G1 X122.756 Y107.152 E6.53699
G1 X122.479 Y106.964 E6.54868
G1 X122.4 Y106.876 E6.55281
G1 X122.4 Y128.118 E7.29465
G1 X122.613 Y127.932 E7.30453
G1 X122.91 Y127.779 E7.3162
G1 X123.401 Y127.69 E7.33362
G1 X124.862 Y127.691 E7.38464
G1 X125.194 Y127.731 E7.39632
G1 X125.506 Y127.849 E7.40797
G1 X125.782 Y128.037 E7.41963
G1 X126.006 Y128.285 E7.43131
G1 X126.063 Y128.391 E7.43551
G1 X126.356 Y128.017 E7.4521
G1 X126.604 Y127.795 E7.46372
G1 X126.912 Y127.586 E7.47672
G1 X127.476 Y127.304 E7.49875
G1 X127.894 Y127.172 E7.51405
G1 X128.527 Y127.077 E7.53641
G1 X128.954 Y127.078 E7.55132
G1 X129.555 Y127.173 E7.57257
G1 X129.962 Y127.304 E7.5875
G1 X130.534 Y127.59 E7.60984
G1 X130.813 Y127.774 E7.62151
G1 X130.948 Y127.905 E7.62808
G1 X131.312 Y128.309 E7.64707
G1 X131.505 Y128.582 E7.65874
G1 X131.627 Y128.893 E7.67041
G1 X131.672 Y129.262 E7.68339
G1 X131.643 Y131.841 E7.77346
G1 X131.599 Y132.172 E7.78513
G1 X131.479 Y132.483 E7.79677
G1 X131.23 Y132.818 E7.81134
G1 X130.895 Y133.151 E7.82784
G1 X130.534 Y133.41 E7.84336
G1 X129.962 Y133.696 E7.86569
G1 X129.544 Y133.828 E7.881
G1 X128.911 Y133.923 E7.90335
G1 X128.475 Y133.92 E7.91858
G1 X127.845 Y133.816 E7.94088
G1 X127.421 Y133.674 E7.95649
G1 X126.847 Y133.372 E7.97915
G1 X126.46 Y133.071 E7.99627
G1 X126.218 Y132.803 E8.00888
G1 X126.074 Y132.599 E8.0176
G1 X125.917 Y132.829 E8.02732
G1 X125.669 Y133.053 E8.039
G1 X125.375 Y133.212 E8.05067
G1 X125.052 Y133.296 E8.06232
G1 X124.862 Y133.309 E8.06897
G1 X123.214 Y133.309 E8.12653
G1 X122.882 Y133.269 E8.13821
G1 X122.57 Y133.152 E8.14984
G1 X122.293 Y132.964 E8.16153
G1 X122.07 Y132.716 E8.17318
G1 X121.911 Y132.422 E8.18485
G1 X121.836 Y132.132 E8.19532
G1 X121.61 Y132.309 E8.20534
G1 X121.306 Y132.448 E8.21701
G1 X120.883 Y132.513 E8.23196
G1 X118.663 Y132.513 E8.30949
G1 X118.331 Y132.473 E8.32117
G1 X118.019 Y132.356 E8.3328
G1 X117.742 Y132.168 E8.3445
G1 X117.542 Y131.952 E8.35478
G1 X117.292 Y131.618 E8.36935
G1 X117.125 Y131.329 E8.381
G1 X117.052 Y131.106 E8.3892
G1 X116.939 Y130.636 E8.40608
G1 X116.9 Y130.309 E8.41758
G1 X116.9 Y127.59 E8.51254
G1 X116.715 Y127.923 E8.52584
G1 X116.508 Y128.205 E8.53806
G1 X116.146 Y128.587 E8.55644
G1 X115.799 Y128.854 E8.57173
G1 X115.111 Y129.228 E8.59907
G1 X114.704 Y129.373 E8.61416
G1 X114.19 Y129.471 E8.63244
G1 X113.922 Y129.496 E8.64184
G1 X105.799 Y129.462 E8.92552
G1 X105.368 Y129.392 E8.94077
G1 X104.86 Y129.225 E8.95944
G1 X104.542 Y129.074 E8.97174
G1 X104.105 Y128.794 E8.98986
G1 X103.839 Y128.573 E9.00194
G1 X103.479 Y128.189 E9.02032
G1 X103.272 Y127.904 E9.03262
G1 X103.015 Y127.435 E9.0513
G1 X102.884 Y127.1 E9.06386
G1 X102.758 Y126.594 E9.08207
G1 X102.717 Y126.259 E9.09386
G1 X102.7 Y118.406 E9.36811
G1 X102.712 Y118.22 E9.37462
G1 X102.783 Y117.681 E9.39361
G1 X102.828 Y117.499 E9.40016
G1 X102.78 Y117.303 E9.4072
G1 X102.712 Y116.777 E9.42572
G1 X102.7 Y116.595 E9.43209
G1 X102.718 Y108.729 E9.7068
G1 X102.762 Y108.386 E9.71888
G1 X102.891 Y107.881 E9.73708
G1 X103.024 Y107.546 E9.74967
G1 X103.285 Y107.077 E9.76841
G1 X103.492 Y106.795 E9.78063
G1 X103.854 Y106.413 E9.79901
M204 S1500
M205 X30 Y30
G0 F1125 X104.144 Y106.688
M204 S500
M205 X20 Y20
G1 F300 X104.337 Y106.53 E9.80772
G1 X104.777 Y106.253 E9.82588
G1 X105.002 Y106.148 E9.83455
G1 X105.509 Y105.984 E9.85316
G1 X105.813 Y105.935 E9.86391
G1 X113.935 Y105.905 E10.14756
G1 X114.135 Y105.924 E10.15457
G1 X114.666 Y106.03 E10.17348
G1 X114.906 Y106.111 E10.18233
G1 X115.383 Y106.342 E10.20084
G1 X115.643 Y106.524 E10.21192
G1 X116.213 Y107.076 E10.23963
G1 X116.429 Y107.384 E10.25277
G1 X116.75 Y108.098 E10.28011
G1 X116.83 Y108.384 E10.29048
G1 X116.892 Y108.879 E10.3079
G1 X116.9 Y109.005 E10.31231
G1 X116.882 Y116.87 E10.58698
G1 X116.84 Y117.155 E10.59704
G1 X116.747 Y117.466 E10.60838
G1 X116.77 Y117.529 E10.61072
G1 X116.824 Y117.748 E10.6186
G1 X116.892 Y118.274 E10.63712
G1 X116.9 Y118.404 E10.64167
G1 X116.882 Y126.27 E10.91638
G1 X116.851 Y126.515 E10.925
G1 X116.722 Y127.02 E10.9432
G1 X116.627 Y127.259 E10.95219
G1 X116.366 Y127.728 E10.97093
G1 X116.218 Y127.93 E10.97968
G1 X115.856 Y128.312 E10.99806
G1 X115.608 Y128.503 E11.00899
G1 X114.92 Y128.877 E11.03634
G1 X114.629 Y128.98 E11.04712
G1 X114.115 Y129.078 E11.06539
G1 X113.924 Y129.096 E11.07209
G1 X105.801 Y129.062 E11.35577
G1 X105.493 Y129.012 E11.36667
G1 X104.985 Y128.845 E11.38534
G1 X104.758 Y128.737 E11.39412
G1 X104.321 Y128.457 E11.41225
G1 X104.13 Y128.299 E11.42091
G1 X103.77 Y127.915 E11.43929
G1 X103.623 Y127.712 E11.44804
G1 X103.366 Y127.243 E11.46672
G1 X103.273 Y127.004 E11.47567
G1 X103.147 Y126.498 E11.49388
G1 X103.117 Y126.258 E11.50233
G1 X103.1 Y118.405 E11.77658
G1 X103.109 Y118.272 E11.78124
G1 X103.18 Y117.733 E11.80023
G1 X103.234 Y117.515 E11.80807
G1 X103.24 Y117.499 E11.80867
G1 X103.23 Y117.472 E11.80967
G1 X103.176 Y117.252 E11.81758
G1 X103.108 Y116.726 E11.8361
G1 X103.1 Y116.596 E11.84065
G1 X103.118 Y108.73 E12.11536
G1 X103.149 Y108.485 E12.12398
G1 X103.278 Y107.98 E12.14219
G1 X103.373 Y107.741 E12.15117
G1 X103.634 Y107.272 E12.16991
G1 X103.782 Y107.07 E12.17866
G1 X104.144 Y106.688 E12.19704
M204 S1500
M205 X30 Y30
G0 F1125 X104.434 Y106.963
M204 S500
M205 X20 Y20
G1 F300 X104.55 Y106.868 E12.20227
G1 X104.99 Y106.591 E12.22043
G1 X105.125 Y106.528 E12.22563
G1 X105.632 Y106.364 E12.24424
G1 X105.815 Y106.335 E12.25071
G1 X113.937 Y106.305 E12.53436
G1 X114.056 Y106.317 E12.53854
G1 X114.587 Y106.423 E12.55745
G1 X114.732 Y106.471 E12.56278
G1 X115.209 Y106.702 E12.58129
G1 X115.364 Y106.811 E12.58791
G1 X115.934 Y107.363 E12.61562
G1 X116.064 Y107.548 E12.62352
G1 X116.385 Y108.262 E12.65086
G1 X116.433 Y108.433 E12.65706
G1 X116.495 Y108.928 E12.67448
G1 X116.5 Y109.004 E12.67714
G1 X116.482 Y116.869 E12.95181
G1 X116.457 Y117.04 E12.95785
G1 X116.325 Y117.48 E12.97389
G1 X116.395 Y117.668 E12.98089
G1 X116.427 Y117.799 E12.9856
G1 X116.495 Y118.325 E13.00413
G1 X116.5 Y118.403 E13.00686
G1 X116.482 Y126.269 E13.28156
G1 X116.463 Y126.416 E13.28674
G1 X116.334 Y126.921 E13.30494
G1 X116.277 Y127.065 E13.31035
G1 X116.016 Y127.534 E13.32909
G1 X115.928 Y127.655 E13.33432
G1 X115.566 Y128.037 E13.3527
G1 X115.417 Y128.151 E13.35925
G1 X114.729 Y128.525 E13.3866
G1 X114.554 Y128.587 E13.39308
G1 X114.04 Y128.685 E13.41136
G1 X113.925 Y128.696 E13.41539
G1 X105.802 Y128.662 E13.69907
G1 X105.618 Y128.632 E13.70558
G1 X105.11 Y128.465 E13.72426
G1 X104.973 Y128.4 E13.72956
G1 X104.536 Y128.12 E13.74768
G1 X104.422 Y128.025 E13.75286
G1 X104.062 Y127.641 E13.77125
G1 X103.974 Y127.519 E13.7765
G1 X103.717 Y127.05 E13.79518
G1 X103.661 Y126.907 E13.80054
G1 X103.535 Y126.401 E13.81875
G1 X103.517 Y126.257 E13.82382
G1 X103.5 Y118.404 E14.09807
G1 X103.505 Y118.325 E14.10083
G1 X103.576 Y117.786 E14.11982
G1 X103.609 Y117.655 E14.12454
G1 X103.667 Y117.499 E14.13035
G1 X103.605 Y117.333 E14.13654
G1 X103.573 Y117.201 E14.14128
G1 X103.505 Y116.675 E14.1598
G1 X103.5 Y116.597 E14.16253
G1 X103.518 Y108.731 E14.43724
G1 X103.537 Y108.584 E14.44242
G1 X103.666 Y108.079 E14.46062
G1 X103.723 Y107.935 E14.46603
G1 X103.984 Y107.466 E14.48477
G1 X104.072 Y107.345 E14.49
G1 X104.434 Y106.963 E14.50838
