;FLAVOR:Marlin
;TIME:2116
;Filament used: 3.16137m
;Layer height: 0.3
;Generated with Cura_SteamEngine 4.0.0
M82 ;absolute extrusion mode
; Ender 3 Custom Start G-code
M140 S60 ; Set Heat Bed temperature
M190 S60 ; Wait for Heat Bed temperature
M104 S160; start warming extruder to 160
G28 ; Home all axes
G29 ; Auto bed-level (BL-Touch)
G92 E0 ; Reset Extruder
M104 S195 ; Set Extruder temperature
G1 X0.1 Y20 Z0.3 F5000.0 ; Move to start position
M109 S195 ; Wait for Extruder temperature
; G1 Z2.0 F3000 ; Move Z Axis up little to prevent scratching of Heat Bed
G1 X0.1 Y200.0 Z0.3 F1500.0 E15 ; Draw the first line
G1 X0.4 Y200.0 Z0.3 F5000.0 ; Move to side a little
G1 X0.4 Y20 Z0.3 F1500.0 E30 ; Draw the second line
G92 E0 ; Reset Extruder
G1 Z2.0 F3000 ; Move Z Axis up little to prevent scratching of Heat Bed
; End of custom start GCode
G92 E0
G1 F4200 E-4
;LAYER_COUNT:95
;LAYER:0
M106 S178.5
M204 S1500
M205 X30 Y30
G0 F3600 X92.894 Y89.691 Z0.2
M204 S500
M205 X20 Y20
;TYPE:SKIRT
G1 F4200 E0
G1 F1200 X93.496 Y89.194 E0.02596
G1 X93.877 Y88.953 E0.04096
G1 X94.58 Y88.623 E0.06679
G1 X95.007 Y88.484 E0.08172
G1 X95.771 Y88.338 E0.10759
G1 X96.112 Y88.306 E0.11899
G1 X129.486 Y88.356 E1.22901
G1 X130.045 Y88.446 E1.24784
G1 X130.788 Y88.69 E1.27385
G1 X131.224 Y88.902 E1.28998
G1 X131.509 Y89.092 E1.30137
G1 X131.983 Y89.092 E1.31714
G1 X132.36 Y89.132 E1.32975
G1 X132.72 Y89.25 E1.34235
G1 X132.733 Y89.258 E1.34285
G1 X132.874 Y89.021 E1.35203
G1 X133.132 Y88.743 E1.36464
G1 X133.442 Y88.526 E1.37723
G1 X133.791 Y88.378 E1.38984
G1 X134.316 Y88.3 E1.40749
G1 X135.912 Y88.301 E1.46057
G1 X136.289 Y88.341 E1.47318
G1 X136.649 Y88.459 E1.48578
G1 X136.976 Y88.65 E1.49838
G1 X137.17 Y88.826 E1.50709
G1 X137.407 Y88.593 E1.51814
G1 X137.867 Y88.267 E1.5369
G1 X138.425 Y87.99 E1.55762
G1 X138.954 Y87.822 E1.57608
G1 X139.572 Y87.728 E1.59687
G1 X140.128 Y87.731 E1.61536
G1 X140.715 Y87.825 E1.63513
G1 X141.234 Y87.991 E1.65326
G1 X141.789 Y88.268 E1.67389
G1 X142.108 Y88.472 E1.68648
G1 X142.355 Y88.711 E1.69791
G1 X142.58 Y88.975 E1.70945
G1 X142.794 Y89.288 E1.72206
G1 X142.938 Y89.639 E1.73468
G1 X143.01 Y90.162 E1.75224
G1 X142.981 Y92.951 E1.84501
G1 X142.937 Y93.327 E1.8576
G1 X142.815 Y93.686 E1.87021
G1 X142.621 Y94.011 E1.8828
G1 X142.437 Y94.221 E1.89208
G1 X142.243 Y94.41 E1.90109
G1 X141.789 Y94.733 E1.91962
G1 X141.232 Y95.01 E1.94031
G1 X140.7 Y95.178 E1.95887
G1 X140.081 Y95.272 E1.97969
G1 X139.703 Y95.289 E1.99228
G1 X139.514 Y95.267 E1.99861
G1 X138.898 Y95.164 E2.01938
G1 X138.367 Y94.987 E2.038
G1 X137.813 Y94.7 E2.05875
G1 X137.497 Y94.492 E2.07133
G1 X137.307 Y94.311 E2.08006
G1 X137.177 Y94.168 E2.08649
G1 X137.109 Y94.243 E2.08985
G1 X136.801 Y94.464 E2.10246
G1 X136.454 Y94.616 E2.11506
G1 X135.912 Y94.699 E2.1333
G1 X134.5 Y94.699 E2.18026
G1 X134.123 Y94.659 E2.19287
G1 X133.9 Y94.586 E2.20068
G1 X133.9 Y114.409 E2.85999
G1 X133.959 Y114.383 E2.86214
G1 X134.501 Y114.3 E2.88037
G1 X135.912 Y114.301 E2.9273
G1 X136.289 Y114.341 E2.93991
G1 X136.649 Y114.459 E2.95251
G1 X136.976 Y114.65 E2.96511
G1 X137.169 Y114.825 E2.97377
G1 X137.412 Y114.589 E2.98504
G1 X137.866 Y114.267 E3.00355
G1 X138.423 Y113.99 E3.02424
G1 X138.954 Y113.822 E3.04277
G1 X139.572 Y113.728 E3.06356
G1 X140.128 Y113.731 E3.08205
G1 X140.715 Y113.825 E3.10182
G1 X141.234 Y113.991 E3.11995
G1 X141.789 Y114.268 E3.14058
G1 X142.108 Y114.472 E3.15317
G1 X142.355 Y114.711 E3.1646
G1 X142.58 Y114.975 E3.17614
G1 X142.794 Y115.288 E3.18875
G1 X142.938 Y115.639 E3.20137
G1 X143.01 Y116.162 E3.21893
G1 X142.981 Y118.951 E3.3117
G1 X142.937 Y119.327 E3.32429
G1 X142.815 Y119.686 E3.3369
G1 X142.621 Y120.011 E3.34949
G1 X142.437 Y120.221 E3.35877
G1 X142.243 Y120.41 E3.36778
G1 X141.789 Y120.733 E3.38631
G1 X141.232 Y121.01 E3.40701
G1 X140.7 Y121.178 E3.42556
G1 X140.081 Y121.272 E3.44638
G1 X139.703 Y121.289 E3.45897
G1 X139.514 Y121.267 E3.4653
G1 X138.898 Y121.164 E3.48607
G1 X138.367 Y120.987 E3.50469
G1 X137.813 Y120.7 E3.52544
G1 X137.497 Y120.492 E3.53802
G1 X137.307 Y120.311 E3.54675
G1 X137.177 Y120.168 E3.55318
G1 X137.109 Y120.243 E3.55655
G1 X136.801 Y120.464 E3.56915
G1 X136.454 Y120.616 E3.58175
G1 X135.912 Y120.699 E3.59999
G1 X134.5 Y120.699 E3.64695
G1 X134.123 Y120.659 E3.65956
G1 X133.9 Y120.586 E3.66737
G1 X133.9 Y140.411 E4.32675
G1 X133.989 Y140.374 E4.32996
G1 X134.501 Y140.3 E4.34716
G1 X135.912 Y140.301 E4.39409
G1 X136.289 Y140.341 E4.4067
G1 X136.649 Y140.459 E4.4193
G1 X136.976 Y140.65 E4.4319
G1 X137.17 Y140.826 E4.44061
G1 X137.407 Y140.593 E4.45166
G1 X137.867 Y140.267 E4.47042
G1 X138.425 Y139.99 E4.49114
G1 X138.954 Y139.822 E4.5096
G1 X139.572 Y139.728 E4.53039
G1 X140.128 Y139.731 E4.54888
G1 X140.715 Y139.825 E4.56865
G1 X141.23 Y139.99 E4.58664
G1 X141.786 Y140.266 E4.60729
G1 X142.106 Y140.469 E4.61989
G1 X142.352 Y140.705 E4.63123
G1 X142.577 Y140.967 E4.64271
G1 X142.792 Y141.279 E4.65532
G1 X142.937 Y141.629 E4.66792
G1 X143.011 Y142.159 E4.68572
G1 X142.981 Y144.951 E4.77858
G1 X142.937 Y145.328 E4.79121
G1 X142.815 Y145.687 E4.80382
G1 X142.621 Y146.012 E4.81641
G1 X142.437 Y146.221 E4.82567
G1 X142.243 Y146.41 E4.83468
G1 X141.789 Y146.733 E4.85321
G1 X141.232 Y147.01 E4.8739
G1 X140.7 Y147.178 E4.89246
G1 X140.081 Y147.272 E4.91328
G1 X139.703 Y147.289 E4.92586
G1 X139.514 Y147.267 E4.93219
G1 X138.898 Y147.164 E4.95297
G1 X138.367 Y146.987 E4.97158
G1 X137.813 Y146.7 E4.99233
G1 X137.497 Y146.492 E5.00492
G1 X137.307 Y146.311 E5.01364
G1 X137.177 Y146.168 E5.02007
G1 X137.109 Y146.243 E5.02344
G1 X136.801 Y146.464 E5.03605
G1 X136.454 Y146.616 E5.04865
G1 X135.912 Y146.699 E5.06689
G1 X134.316 Y146.699 E5.11997
G1 X133.939 Y146.659 E5.13258
G1 X133.579 Y146.541 E5.14518
G1 X133.252 Y146.351 E5.15776
G1 X132.971 Y146.096 E5.17038
G1 X132.751 Y145.787 E5.18299
G1 X132.728 Y145.736 E5.18485
G1 X132.623 Y145.789 E5.18877
G1 X132.257 Y145.886 E5.20136
G1 X131.983 Y145.907 E5.2105
G1 X131.553 Y145.907 E5.2248
G1 X131.308 Y146.054 E5.2343
G1 X130.566 Y146.394 E5.26145
G1 X130.148 Y146.527 E5.27604
G1 X129.423 Y146.663 E5.30058
G1 X129.088 Y146.694 E5.31176
G1 X95.715 Y146.644 E6.42176
G1 X95.161 Y146.556 E6.44041
G1 X94.417 Y146.314 E6.46644
G1 X94.005 Y146.119 E6.4816
G1 X93.354 Y145.703 E6.50729
G1 X93.011 Y145.419 E6.5221
G1 X92.48 Y144.854 E6.54789
G1 X92.213 Y144.486 E6.56301
G1 X91.836 Y143.798 E6.58911
G1 X91.671 Y143.377 E6.60415
G1 X91.481 Y142.631 E6.62975
G1 X91.425 Y142.188 E6.6446
G1 X91.4 Y93.204 E8.27382
G1 X91.414 Y92.976 E8.28141
G1 X91.513 Y92.198 E8.3075
G1 X91.626 Y91.762 E8.32248
G1 X91.912 Y91.04 E8.34831
G1 X92.131 Y90.642 E8.36342
G1 X92.586 Y90.018 E8.3891
G1 X92.894 Y89.691 E8.40404
M204 S1500
M205 X30 Y30
G0 F3600 X93.149 Y89.999
M204 S500
M205 X20 Y20
G1 F1200 X93.751 Y89.502 E8.43001
G1 X94.047 Y89.315 E8.44165
G1 X94.75 Y88.985 E8.46748
G1 X95.082 Y88.877 E8.4791
G1 X95.846 Y88.731 E8.50497
G1 X96.111 Y88.706 E8.51382
G1 X129.485 Y88.756 E9.62384
G1 X129.92 Y88.826 E9.6385
G1 X130.663 Y89.07 E9.66451
G1 X131.003 Y89.235 E9.67708
G1 X131.388 Y89.492 E9.69248
G1 X131.983 Y89.492 E9.71227
G1 X132.315 Y89.532 E9.72339
G1 X132.627 Y89.649 E9.73447
G1 X132.943 Y89.88 E9.74749
G1 X132.969 Y89.717 E9.75298
G1 X133.098 Y89.409 E9.76409
G1 X133.296 Y89.14 E9.7752
G1 X133.553 Y88.926 E9.78632
G1 X133.853 Y88.779 E9.79743
G1 X134.316 Y88.7 E9.81305
G1 X135.912 Y88.701 E9.86614
G1 X136.244 Y88.741 E9.87726
G1 X136.556 Y88.859 E9.88835
G1 X136.832 Y89.047 E9.89946
G1 X137.056 Y89.295 E9.91057
G1 X137.151 Y89.472 E9.91726
G1 X137.345 Y89.214 E9.92799
G1 X137.687 Y88.879 E9.94391
G1 X138.044 Y88.625 E9.95849
G1 X138.602 Y88.348 E9.97921
G1 X139.014 Y88.218 E9.99358
G1 X139.632 Y88.124 E10.01437
G1 X140.064 Y88.126 E10.02874
G1 X140.651 Y88.22 E10.04851
G1 X141.055 Y88.349 E10.06261
G1 X141.61 Y88.626 E10.08324
G1 X141.889 Y88.81 E10.09436
G1 X142.051 Y88.971 E10.10196
G1 X142.276 Y89.235 E10.11349
G1 X142.46 Y89.513 E10.12458
G1 X142.574 Y89.827 E10.13569
G1 X142.61 Y90.158 E10.14677
G1 X142.581 Y92.947 E10.23953
G1 X142.538 Y93.278 E10.25064
G1 X142.417 Y93.589 E10.26174
G1 X142.158 Y93.935 E10.27611
G1 X141.964 Y94.124 E10.28512
G1 X141.61 Y94.375 E10.29955
G1 X141.053 Y94.652 E10.32024
G1 X140.64 Y94.782 E10.33464
G1 X140.021 Y94.876 E10.35547
G1 X139.58 Y94.873 E10.37014
G1 X138.964 Y94.77 E10.39091
G1 X138.551 Y94.632 E10.40539
G1 X137.997 Y94.345 E10.42614
G1 X137.604 Y94.042 E10.44265
G1 X137.256 Y93.658 E10.45988
G1 X137.162 Y93.526 E10.46527
G1 X137.155 Y93.543 E10.46589
G1 X136.967 Y93.819 E10.47699
G1 X136.719 Y94.043 E10.48811
G1 X136.425 Y94.202 E10.49922
G1 X136.102 Y94.286 E10.51033
G1 X135.912 Y94.299 E10.51666
G1 X134.5 Y94.299 E10.56362
G1 X134.168 Y94.259 E10.57475
G1 X133.856 Y94.142 E10.58583
G1 X133.579 Y93.954 E10.59696
G1 X133.5 Y93.866 E10.6009
G1 X133.5 Y115.13 E11.30814
G1 X133.693 Y114.956 E11.31678
G1 X133.987 Y114.797 E11.3279
G1 X134.311 Y114.713 E11.33903
G1 X134.501 Y114.7 E11.34537
G1 X135.912 Y114.701 E11.3923
G1 X136.244 Y114.741 E11.40342
G1 X136.556 Y114.859 E11.41451
G1 X136.832 Y115.047 E11.42562
G1 X137.056 Y115.295 E11.43673
G1 X137.151 Y115.472 E11.44342
G1 X137.348 Y115.21 E11.45432
G1 X137.691 Y114.876 E11.47024
G1 X138.045 Y114.625 E11.48468
G1 X138.602 Y114.348 E11.50537
G1 X139.014 Y114.218 E11.51974
G1 X139.632 Y114.124 E11.54053
G1 X140.064 Y114.126 E11.55489
G1 X140.651 Y114.22 E11.57467
G1 X141.055 Y114.349 E11.58877
G1 X141.61 Y114.626 E11.6094
G1 X141.889 Y114.81 E11.62052
G1 X142.051 Y114.971 E11.62812
G1 X142.276 Y115.235 E11.63965
G1 X142.46 Y115.513 E11.65074
G1 X142.574 Y115.827 E11.66185
G1 X142.61 Y116.158 E11.67293
G1 X142.581 Y118.947 E11.76569
G1 X142.538 Y119.278 E11.77679
G1 X142.417 Y119.589 E11.78789
G1 X142.158 Y119.935 E11.80227
G1 X141.964 Y120.124 E11.81128
G1 X141.61 Y120.375 E11.82571
G1 X141.053 Y120.652 E11.8464
G1 X140.64 Y120.782 E11.8608
G1 X140.021 Y120.876 E11.88163
G1 X139.58 Y120.873 E11.89629
G1 X138.964 Y120.77 E11.91707
G1 X138.551 Y120.632 E11.93155
G1 X137.997 Y120.345 E11.9523
G1 X137.604 Y120.042 E11.96881
G1 X137.256 Y119.658 E11.98604
G1 X137.162 Y119.526 E11.99143
G1 X137.155 Y119.543 E11.99204
G1 X136.967 Y119.819 E12.00315
G1 X136.719 Y120.043 E12.01427
G1 X136.425 Y120.202 E12.02538
G1 X136.102 Y120.286 E12.03648
G1 X135.912 Y120.299 E12.04282
G1 X134.5 Y120.299 E12.08978
G1 X134.168 Y120.259 E12.1009
G1 X133.856 Y120.142 E12.11199
G1 X133.579 Y119.954 E12.12312
G1 X133.5 Y119.866 E12.12705
G1 X133.5 Y141.127 E12.8342
G1 X133.713 Y140.942 E12.84358
G1 X134.01 Y140.789 E12.85469
G1 X134.501 Y140.7 E12.87129
G1 X135.912 Y140.701 E12.91822
G1 X136.244 Y140.741 E12.92934
G1 X136.556 Y140.859 E12.94044
G1 X136.832 Y141.047 E12.95154
G1 X137.056 Y141.295 E12.96266
G1 X137.151 Y141.472 E12.96934
G1 X137.345 Y141.214 E12.98008
G1 X137.687 Y140.879 E12.996
G1 X138.044 Y140.625 E13.01057
G1 X138.602 Y140.348 E13.03129
G1 X139.014 Y140.218 E13.04566
G1 X139.632 Y140.124 E13.06645
G1 X140.064 Y140.126 E13.08082
G1 X140.651 Y140.22 E13.10059
G1 X141.052 Y140.348 E13.11459
G1 X141.608 Y140.624 E13.13524
G1 X141.888 Y140.807 E13.14637
G1 X142.048 Y140.966 E13.15387
G1 X142.273 Y141.228 E13.16535
G1 X142.459 Y141.505 E13.17645
G1 X142.574 Y141.819 E13.18757
G1 X142.611 Y142.155 E13.19882
G1 X142.581 Y144.947 E13.29168
G1 X142.538 Y145.278 E13.30279
G1 X142.417 Y145.59 E13.31392
G1 X142.158 Y145.935 E13.32826
G1 X141.964 Y146.124 E13.33727
G1 X141.61 Y146.375 E13.35171
G1 X141.053 Y146.652 E13.3724
G1 X140.64 Y146.782 E13.3868
G1 X140.021 Y146.876 E13.40762
G1 X139.58 Y146.873 E13.42229
G1 X138.964 Y146.77 E13.44306
G1 X138.551 Y146.632 E13.45755
G1 X137.997 Y146.345 E13.4783
G1 X137.604 Y146.042 E13.4948
G1 X137.256 Y145.658 E13.51204
G1 X137.162 Y145.526 E13.51743
G1 X137.155 Y145.543 E13.51804
G1 X136.967 Y145.819 E13.52915
G1 X136.719 Y146.043 E13.54026
G1 X136.425 Y146.202 E13.55138
G1 X136.102 Y146.286 E13.56248
G1 X135.912 Y146.299 E13.56881
G1 X134.316 Y146.299 E13.6219
G1 X133.984 Y146.259 E13.63302
G1 X133.672 Y146.142 E13.6441
G1 X133.395 Y145.954 E13.65524
G1 X133.172 Y145.706 E13.66633
G1 X133.013 Y145.412 E13.67745
G1 X132.938 Y145.124 E13.68734
G1 X132.71 Y145.303 E13.69699
G1 X132.406 Y145.442 E13.7081
G1 X131.983 Y145.507 E13.72234
G1 X131.438 Y145.507 E13.74046
G1 X131.409 Y145.529 E13.74168
G1 X131.141 Y145.691 E13.75209
G1 X130.399 Y146.031 E13.77924
G1 X130.074 Y146.134 E13.79058
G1 X129.349 Y146.27 E13.81511
G1 X129.089 Y146.294 E13.8238
G1 X95.716 Y146.244 E14.93379
G1 X95.285 Y146.175 E14.9483
G1 X94.541 Y145.933 E14.97433
G1 X94.22 Y145.782 E14.98613
G1 X93.569 Y145.366 E15.01182
G1 X93.303 Y145.145 E15.02332
G1 X92.772 Y144.58 E15.04911
G1 X92.564 Y144.294 E15.06087
G1 X92.187 Y143.606 E15.08697
G1 X92.058 Y143.279 E15.09866
G1 X91.868 Y142.533 E15.12426
G1 X91.825 Y142.188 E15.13583
G1 X91.8 Y93.204 E16.76504
G1 X91.811 Y93.026 E16.77097
G1 X91.91 Y92.248 E16.79706
G1 X91.997 Y91.909 E16.8087
G1 X92.283 Y91.187 E16.83453
G1 X92.454 Y90.878 E16.84627
G1 X92.909 Y90.254 E16.87196
G1 X93.149 Y89.999 E16.88361
M204 S1500
M205 X30 Y30
G0 F3600 X93.403 Y90.308
M204 S500
M205 X20 Y20
G1 F1200 X94.005 Y89.811 E16.90957
G1 X94.217 Y89.677 E16.91791
G1 X94.92 Y89.347 E16.94374
G1 X95.157 Y89.27 E16.95203
G1 X95.921 Y89.124 E16.9779
G1 X96.11 Y89.106 E16.98422
G1 X129.484 Y89.156 E18.09424
G1 X129.795 Y89.206 E18.10472
G1 X130.538 Y89.45 E18.13073
G1 X130.781 Y89.568 E18.13971
G1 X131.267 Y89.892 E18.15914
G1 X131.983 Y89.892 E18.18295
G1 X132.262 Y89.932 E18.19233
G1 X132.519 Y90.048 E18.20171
G1 X132.69 Y90.185 E18.209
G1 X132.807 Y90.302 E18.2145
G1 X132.976 Y90.528 E18.22388
G1 X133.076 Y90.792 E18.23327
G1 X133.1 Y91.009 E18.24054
G1 X133.1 Y143.99 E20.00269
G1 X133.06 Y144.269 E20.01207
G1 X132.944 Y144.526 E20.02144
G1 X132.807 Y144.697 E20.02873
G1 X132.69 Y144.814 E20.03423
G1 X132.464 Y144.983 E20.04362
G1 X132.2 Y145.083 E20.05301
G1 X131.983 Y145.107 E20.06027
G1 X131.303 Y145.107 E20.08289
G1 X131.166 Y145.212 E20.08863
G1 X130.975 Y145.327 E20.09604
G1 X130.233 Y145.667 E20.12319
G1 X130 Y145.741 E20.13132
G1 X129.275 Y145.877 E20.15586
G1 X129.09 Y145.894 E20.16204
G1 X95.717 Y145.844 E21.27203
G1 X95.409 Y145.795 E21.2824
G1 X94.665 Y145.553 E21.30842
G1 X94.436 Y145.445 E21.31684
G1 X93.785 Y145.029 E21.34254
G1 X93.594 Y144.871 E21.35078
G1 X93.063 Y144.306 E21.37657
G1 X92.915 Y144.102 E21.38495
G1 X92.538 Y143.414 E21.41105
G1 X92.446 Y143.18 E21.41941
G1 X92.256 Y142.434 E21.44501
G1 X92.225 Y142.188 E21.45326
G1 X92.2 Y93.204 E23.08248
G1 X92.208 Y93.077 E23.08671
G1 X92.307 Y92.299 E23.11279
G1 X92.369 Y92.057 E23.1211
G1 X92.655 Y91.335 E23.14693
G1 X92.777 Y91.114 E23.15533
G1 X93.232 Y90.49 E23.18101
G1 X93.403 Y90.308 E23.18932
M204 S1500
M205 X30 Y30
G0 F3600 X93.658 Y90.616
M204 S500
M205 X20 Y20
G1 F1200 X94.26 Y90.119 E23.21528
G1 X94.387 Y90.039 E23.22028
G1 X95.09 Y89.709 E23.24611
G1 X95.232 Y89.663 E23.25107
G1 X95.996 Y89.517 E23.27694
G1 X96.11 Y89.506 E23.28075
G1 X129.484 Y89.556 E24.39078
G1 X129.67 Y89.586 E24.39704
G1 X130.413 Y89.83 E24.42305
G1 X130.559 Y89.901 E24.42845
G1 X131.145 Y90.292 E24.45188
G1 X131.983 Y90.292 E24.47975
G1 X132.198 Y90.332 E24.48703
G1 X132.407 Y90.468 E24.49532
G1 X132.524 Y90.585 E24.50083
G1 X132.648 Y90.764 E24.50807
G1 X132.7 Y91.009 E24.5164
G1 X132.7 Y143.99 E26.27855
G1 X132.66 Y144.205 E26.28583
G1 X132.524 Y144.414 E26.29412
G1 X132.407 Y144.531 E26.29962
G1 X132.228 Y144.655 E26.30687
G1 X131.983 Y144.707 E26.3152
G1 X131.167 Y144.707 E26.34234
G1 X130.923 Y144.894 E26.35256
G1 X130.808 Y144.963 E26.35702
G1 X130.066 Y145.303 E26.38417
G1 X129.927 Y145.348 E26.38903
G1 X129.202 Y145.484 E26.41356
G1 X129.09 Y145.494 E26.4173
G1 X95.717 Y145.444 E27.52729
G1 X95.532 Y145.415 E27.53352
G1 X94.788 Y145.173 E27.55954
G1 X94.651 Y145.108 E27.56459
G1 X94 Y144.692 E27.59028
G1 X93.886 Y144.597 E27.59522
G1 X93.355 Y144.032 E27.62101
G1 X93.266 Y143.909 E27.62606
G1 X92.889 Y143.221 E27.65215
G1 X92.834 Y143.081 E27.65715
G1 X92.644 Y142.335 E27.68276
G1 X92.625 Y142.187 E27.68772
