; G-Code generated by Simplify3D(R) Version 4.0.0
; Mar 23, 2019 at 1:36:26 PM
; Settings Summary
;   processName,Process1
;   applyToModels,Retraction
;   profileName,Dirk
;   profileVersion,2017-03-01 08:00:00
;   baseProfile,Default (modified)
;   printMaterial,PLA
;   printQuality,Medium
;   printExtruders,
;   extruderName,Primary Extruder
;   extruderToolheadNumber,0
;   extruderDiameter,0.35
;   extruderAutoWidth,0
;   extruderWidth,0.4
;   extrusionMultiplier,0.9
;   extruderUseRetract,1
;   extruderRetractionDistance,0
;   extruderExtraRestartDistance,0
;   extruderRetractionZLift,0
;   extruderRetractionSpeed,1800
;   extruderUseCoasting,1
;   extruderCoastingDistance,0.4
;   extruderUseWipe,0
;   extruderWipeDistance,5
;   primaryExtruder,0
;   layerHeight,0.2
;   topSolidLayers,3
;   bottomSolidLayers,3
;   perimeterOutlines,2
;   printPerimetersInsideOut,1
;   startPointOption,2
;   startPointOriginX,0
;   startPointOriginY,0
;   sequentialIslands,0
;   spiralVaseMode,0
;   firstLayerHeightPercentage,90
;   firstLayerWidthPercentage,100
;   firstLayerUnderspeed,0.5
;   useRaft,0
;   raftExtruder,0
;   raftTopLayers,3
;   raftBaseLayers,2
;   raftOffset,3
;   raftSeparationDistance,0.14
;   raftTopInfill,100
;   aboveRaftSpeedMultiplier,0.3
;   useSkirt,1
;   skirtExtruder,0
;   skirtLayers,1
;   skirtOutlines,2
;   skirtOffset,4
;   usePrimePillar,0
;   primePillarExtruder,999
;   primePillarWidth,12
;   primePillarLocation,7
;   primePillarSpeedMultiplier,1
;   useOozeShield,0
;   oozeShieldExtruder,999
;   oozeShieldOffset,2
;   oozeShieldOutlines,1
;   oozeShieldSidewallShape,1
;   oozeShieldSidewallAngle,30
;   oozeShieldSpeedMultiplier,1
;   infillExtruder,0
;   internalInfillPattern,Rectilinear
;   externalInfillPattern,Rectilinear
;   infillPercentage,20
;   outlineOverlapPercentage,15
;   infillExtrusionWidthPercentage,100
;   minInfillLength,5
;   infillLayerInterval,1
;   internalInfillAngles,45,-45
;   overlapInternalInfillAngles,0
;   externalInfillAngles,45,-45
;   generateSupport,0
;   supportExtruder,0
;   supportInfillPercentage,30
;   supportExtraInflation,0
;   supportBaseLayers,0
;   denseSupportExtruder,0
;   denseSupportLayers,0
;   denseSupportInfillPercentage,70
;   supportLayerInterval,1
;   supportHorizontalPartOffset,0.3
;   supportUpperSeparationLayers,1
;   supportLowerSeparationLayers,1
;   supportType,0
;   supportGridSpacing,4
;   maxOverhangAngle,45
;   supportAngles,0
;   temperatureName,Primary Extruder,Bed Heating
;   temperatureNumber,0,1
;   temperatureSetpointCount,1,1
;   temperatureSetpointLayers,1,1
;   temperatureSetpointTemperatures,200,60
;   temperatureStabilizeAtStartup,1,1
;   temperatureHeatedBed,0,1
;   temperatureRelayBetweenLayers,0,0
;   temperatureRelayBetweenLoops,0,0
;   fanLayers,1,2
;   fanSpeeds,0,100
;   blipFanToFullPower,0
;   adjustSpeedForCooling,1
;   minSpeedLayerTime,15
;   minCoolingSpeedSlowdown,20
;   increaseFanForCooling,0
;   minFanLayerTime,45
;   maxCoolingFanSpeed,100
;   increaseFanForBridging,0
;   bridgingFanSpeed,100
;   use5D,1
;   relativeEdistances,0
;   allowEaxisZeroing,1
;   independentExtruderAxes,0
;   includeM10123,0
;   stickySupport,1
;   applyToolheadOffsets,0
;   gcodeXoffset,0
;   gcodeYoffset,0
;   gcodeZoffset,0
;   overrideMachineDefinition,0
;   machineTypeOverride,0
;   strokeXoverride,200
;   strokeYoverride,200
;   strokeZoverride,200
;   originOffsetXoverride,0
;   originOffsetYoverride,0
;   originOffsetZoverride,0
;   homeXdirOverride,-1
;   homeYdirOverride,-1
;   homeZdirOverride,-1
;   flipXoverride,1
;   flipYoverride,-1
;   flipZoverride,1
;   toolheadOffsets,0,0|0,0|0,0|0,0|0,0|0,0
;   overrideFirmwareConfiguration,0
;   firmwareTypeOverride,RepRap (Marlin/Repetier/Sprinter)
;   GPXconfigOverride,r2
;   baudRateOverride,115200
;   overridePrinterModels,0
;   printerModelsOverride
;   startingGcode,G28 ; home all axes
;   layerChangeGcode,
;   retractionGcode,
;   toolChangeGcode,
;   endingGcode,M104 S0 ; turn off extruder,M140 S0 ; turn off bed,M84 ; disable motors
;   exportFileFormat,gcode
;   celebration,0
;   celebrationSong,Random Song
;   postProcessing,
;   defaultSpeed,3600
;   outlineUnderspeed,0.5
;   solidInfillUnderspeed,0.8
;   supportUnderspeed,0.8
;   rapidXYspeed,4800
;   rapidZspeed,1000
;   minBridgingArea,50
;   bridgingExtraInflation,0
;   bridgingExtrusionMultiplier,1
;   bridgingSpeedMultiplier,1
;   useFixedBridgingAngle,0
;   fixedBridgingAngle,0
;   applyBridgingToPerimeters,0
;   filamentDiameters,1.75|1.75|1.75|1.75|1.75|1.75
;   filamentPricesPerKg,46|46|46|46|46|46
;   filamentDensities,1.25|1.25|1.25|1.25|1.25|1.25
;   useMinPrintHeight,1
;   minPrintHeight,0
;   useMaxPrintHeight,1
;   maxPrintHeight,8
;   useDiaphragm,0
;   diaphragmLayerInterval,20
;   robustSlicing,1
;   mergeAllIntoSolid,0
;   onlyRetractWhenCrossingOutline,1
;   retractBetweenLayers,1
;   useRetractionMinTravel,0
;   retractionMinTravel,3
;   retractWhileWiping,0
;   onlyWipeOutlines,1
;   avoidCrossingOutline,0
;   maxMovementDetourFactor,3
;   toolChangeRetractionDistance,12
;   toolChangeExtraRestartDistance,-0.5
;   toolChangeRetractionSpeed,600
;   externalThinWallType,0
;   internalThinWallType,2
;   thinWallAllowedOverlapPercentage,10
;   singleExtrusionMinLength,1
;   singleExtrusionMinPrintingWidthPercentage,50
;   singleExtrusionMaxPrintingWidthPercentage,200
;   singleExtrusionEndpointExtension,0.2
;   horizontalSizeCompensation,0
G90
M82
M106 S0
M140 S60
M190 S60
M104 S200 T0
M109 S200 T0
G28 ; home all axes
G1 Z0.180 F1000
; process Process1
; layer 1, Z = 0.180
T0
; tool H0.200 W0.400
; skirt
G1 X97.991 Y88.003 F4800
G92 E0
G1 X100.503 Y85.491 E0.1063 F1800
G1 X100.724 Y85.400 E0.1135
G1 X119.276 Y85.400 E0.6688
G1 X119.497 Y85.491 E0.6760
G1 X122.009 Y88.003 E0.7823
G1 X122.100 Y88.224 E0.7895
G1 X122.100 Y131.776 E2.0932
G1 X122.009 Y131.997 E2.1003
G1 X119.497 Y134.509 E2.2066
G1 X119.276 Y134.600 E2.2138
G1 X100.724 Y134.600 E2.7691
G1 X100.503 Y134.509 E2.7763
G1 X97.991 Y131.997 E2.8826
G1 X97.900 Y131.776 E2.8898
G1 X97.900 Y88.385 E4.1886
G1 X97.900 Y88.224 F1800
G1 X97.991 Y88.003 F1800
G1 X98.330 Y88.230 F4800
G92 E0
G1 X100.730 Y85.830 E0.1016 F1800
G1 X100.803 Y85.800 E0.1040
G1 X119.197 Y85.800 E0.6545
G1 X119.270 Y85.830 E0.6569
G1 X121.670 Y88.230 E0.7585
G1 X121.700 Y88.303 E0.7609
G1 X121.700 Y131.697 E2.0598
G1 X121.670 Y131.770 E2.0622
G1 X119.270 Y134.170 E2.1638
G1 X119.197 Y134.200 E2.1662
G1 X100.803 Y134.200 E2.7167
G1 X100.730 Y134.170 E2.7191
G1 X98.330 Y131.770 E2.8207
G1 X98.300 Y131.697 E2.8231
G1 X98.300 Y88.624 E4.1124
G1 X98.300 Y88.303 F1800
G1 X98.330 Y88.230 F1800
; inner perimeter
G1 X103.100 Y90.600 F4800
G92 E0
G1 X116.900 Y90.600 E0.4131 F1350
G1 X116.900 Y129.400 E1.5745
G1 X103.100 Y129.400 E1.9876
G1 X103.100 Y91.000 E3.1371
G1 X103.100 Y90.600 F1350
; outer perimeter
G1 X102.700 Y90.200 F4800
G92 E0
G1 X117.300 Y90.200 E0.4370 F900
G1 X117.300 Y129.800 E1.6224
G1 X102.700 Y129.800 E2.0595
G1 X102.700 Y90.600 E3.2329
G1 X102.700 Y90.200 F900
; solid layer
G1 X116.396 Y90.940 F4800
G92 E0
G1 X116.560 Y91.104 E0.0069 F1440
G1 X116.560 Y91.670 E0.0239
G1 X115.830 Y90.940 E0.0548
G1 X115.264 Y90.940 E0.0717
G1 X116.560 Y92.236 E0.1266
G1 X116.560 Y92.801 E0.1435
G1 X114.699 Y90.940 E0.2223
G1 X114.133 Y90.940 E0.2392
G1 X116.560 Y93.367 E0.3420
G1 X116.560 Y93.933 E0.3589
G1 X113.567 Y90.940 E0.4856
G1 X113.002 Y90.940 E0.5025
G1 X116.560 Y94.498 E0.6531
G1 X116.560 Y95.064 E0.6701
G1 X112.436 Y90.940 E0.8446
G1 X111.870 Y90.940 E0.8616
G1 X116.560 Y95.630 E1.0601
G1 X116.560 Y96.195 E1.0770
G1 X111.305 Y90.940 E1.2995
G1 X110.739 Y90.940 E1.3164
G1 X116.560 Y96.761 E1.5629
G1 X116.560 Y97.327 E1.5798
G1 X110.173 Y90.940 E1.8502
G1 X109.608 Y90.940 E1.8671
G1 X116.560 Y97.892 E2.1614
G1 X116.560 Y98.458 E2.1784
G1 X109.042 Y90.940 E2.4966
G1 X108.476 Y90.940 E2.5136
G1 X116.560 Y99.024 E2.8558
G1 X116.560 Y99.589 E2.8727
G1 X107.911 Y90.940 E3.2389
G1 X107.345 Y90.940 E3.2558
G1 X116.560 Y100.155 E3.6459
G1 X116.560 Y100.721 E3.6628
G1 X106.779 Y90.940 E4.0769
G1 X106.214 Y90.940 E4.0938
G1 X116.560 Y101.286 E4.5318
G1 X116.560 Y101.852 E4.5487
G1 X105.648 Y90.940 E5.0107
G1 X105.082 Y90.940 E5.0276
G1 X116.560 Y102.418 E5.5135
G1 X116.560 Y102.984 E5.5305
G1 X104.516 Y90.940 E6.0403
G1 X103.951 Y90.940 E6.0572
G1 X116.560 Y103.549 E6.5910
G1 X116.560 Y104.115 E6.6080
G1 X103.440 Y90.995 E7.1634
G1 X103.440 Y91.561 E7.1803
G1 X116.560 Y104.681 E7.7357
G1 X116.560 Y105.246 E7.7526
G1 X103.440 Y92.126 E8.3081
G1 X103.440 Y92.692 E8.3250
G1 X116.560 Y105.812 E8.8804
G1 X116.560 Y106.378 E8.8973
G1 X103.440 Y93.258 E9.4527
G1 X103.440 Y93.823 E9.4697
G1 X116.560 Y106.943 E10.0251
G1 X116.560 Y107.509 E10.0420
G1 X103.440 Y94.389 E10.5974
G1 X103.440 Y94.955 E10.6144
G1 X116.560 Y108.075 E11.1698
G1 X116.560 Y108.640 E11.1867
G1 X103.440 Y95.520 E11.7421
G1 X103.440 Y96.086 E11.7591
G1 X116.560 Y109.206 E12.3145
G1 X116.560 Y109.772 E12.3314
G1 X103.440 Y96.652 E12.8868
G1 X103.440 Y97.217 E12.9038
G1 X116.560 Y110.337 E13.4592
G1 X116.560 Y110.903 E13.4761
G1 X103.440 Y97.783 E14.0315
G1 X103.440 Y98.349 E14.0484
G1 X116.560 Y111.469 E14.6039
G1 X116.560 Y112.035 E14.6208
G1 X103.440 Y98.915 E15.1762
G1 X103.440 Y99.480 E15.1931
G1 X116.560 Y112.600 E15.7485
G1 X116.560 Y113.166 E15.7655
G1 X103.440 Y100.046 E16.3209
G1 X103.440 Y100.612 E16.3378
G1 X116.560 Y113.732 E16.8932
G1 X116.560 Y114.297 E16.9102
G1 X103.440 Y101.177 E17.4656
G1 X103.440 Y101.743 E17.4825
G1 X116.560 Y114.863 E18.0379
G1 X116.560 Y115.429 E18.0549
G1 X103.440 Y102.309 E18.6103
G1 X103.440 Y102.874 E18.6272
G1 X116.560 Y115.994 E19.1826
G1 X116.560 Y116.560 E19.1996
G1 X103.440 Y103.440 E19.7550
G1 X103.440 Y104.006 E19.7719
G1 X116.560 Y117.126 E20.3273
G1 X116.560 Y117.691 E20.3442
G1 X103.440 Y104.571 E20.8997
G1 X103.440 Y105.137 E20.9166
G1 X116.560 Y118.257 E21.4720
G1 X116.560 Y118.823 E21.4889
G1 X103.440 Y105.703 E22.0443
G1 X103.440 Y106.268 E22.0613
G1 X116.560 Y119.388 E22.6167
G1 X116.560 Y119.954 E22.6336
G1 X103.440 Y106.834 E23.1890
G1 X103.440 Y107.400 E23.2060
G1 X116.560 Y120.520 E23.7614
G1 X116.560 Y121.085 E23.7783
G1 X103.440 Y107.965 E24.3337
G1 X103.440 Y108.531 E24.3507
G1 X116.560 Y121.651 E24.9061
G1 X116.560 Y122.217 E24.9230
G1 X103.440 Y109.097 E25.4784
G1 X103.440 Y109.663 E25.4954
G1 X116.560 Y122.783 E26.0508
G1 X116.560 Y123.348 E26.0677
G1 X103.440 Y110.228 E26.6231
G1 X103.440 Y110.794 E26.6400
G1 X116.560 Y123.914 E27.1955
G1 X116.560 Y124.480 E27.2124
G1 X103.440 Y111.360 E27.7678
G1 X103.440 Y111.925 E27.7847
G1 X116.560 Y125.045 E28.3401
G1 X116.560 Y125.611 E28.3571
G1 X103.440 Y112.491 E28.9125
G1 X103.440 Y113.057 E28.9294
G1 X116.560 Y126.177 E29.4848
G1 X116.560 Y126.742 E29.5018
G1 X103.440 Y113.622 E30.0572
G1 X103.440 Y114.188 E30.0741
G1 X116.560 Y127.308 E30.6295
G1 X116.560 Y127.874 E30.6465
G1 X103.440 Y114.754 E31.2019
G1 X103.440 Y115.319 E31.2188
G1 X116.560 Y128.439 E31.7742
G1 X116.560 Y129.005 E31.7912
G1 X103.440 Y115.885 E32.3466
G1 X103.440 Y116.451 E32.3635
G1 X116.049 Y129.060 E32.8973
G1 X115.484 Y129.060 E32.9142
G1 X103.440 Y117.016 E33.4241
G1 X103.440 Y117.582 E33.4410
G1 X114.918 Y129.060 E33.9269
G1 X114.352 Y129.060 E33.9438
G1 X103.440 Y118.148 E34.4058
G1 X103.440 Y118.713 E34.4227
G1 X113.787 Y129.060 E34.8607
G1 X113.221 Y129.060 E34.8776
G1 X103.440 Y119.279 E35.2917
G1 X103.440 Y119.845 E35.3086
G1 X112.655 Y129.060 E35.6987
G1 X112.089 Y129.060 E35.7157
G1 X103.440 Y120.411 E36.0818
G1 X103.440 Y120.976 E36.0988
G1 X111.524 Y129.060 E36.4410
G1 X110.958 Y129.060 E36.4579
G1 X103.440 Y121.542 E36.7762
G1 X103.440 Y122.108 E36.7931
G1 X110.392 Y129.060 E37.0874
G1 X109.827 Y129.060 E37.1044
G1 X103.440 Y122.673 E37.3747
G1 X103.440 Y123.239 E37.3917
G1 X109.261 Y129.060 E37.6381
G1 X108.695 Y129.060 E37.6550
G1 X103.440 Y123.805 E37.8775
G1 X103.440 Y124.370 E37.8944
G1 X108.130 Y129.060 E38.0930
G1 X107.564 Y129.060 E38.1099
G1 X103.440 Y124.936 E38.2845
G1 X103.440 Y125.502 E38.3014
G1 X106.998 Y129.060 E38.4520
G1 X106.433 Y129.060 E38.4690
G1 X103.440 Y126.067 E38.5957
G1 X103.440 Y126.633 E38.6126
G1 X105.867 Y129.060 E38.7153
G1 X105.301 Y129.060 E38.7323
G1 X103.440 Y127.199 E38.8110
G1 X103.440 Y127.764 E38.8280
G1 X104.736 Y129.060 E38.8828
G1 X104.170 Y129.060 E38.8998
G1 X103.440 Y128.330 E38.9307
G1 X103.440 Y128.728 E38.9426
G1 X103.440 Y128.896 F1440
G1 X103.604 Y129.060 F1440
; layer 2, Z = 0.380
M106 S255
; inner perimeter
G1 X103.100 Y129.400 F4800
G1 Z0.380 F1000
G92 E0
G1 X103.100 Y90.600 E1.1614 F2700
G1 X116.900 Y90.600 E1.5745
G1 X116.900 Y129.400 E2.7360
G1 X103.500 Y129.400 E3.1371
G1 X103.100 Y129.400 F2700
; outer perimeter
G1 X102.700 Y129.800 F4800
G92 E0
G1 X102.700 Y90.200 E1.1854 F1800
G1 X117.300 Y90.200 E1.6224
G1 X117.300 Y129.800 E2.8078
G1 X103.100 Y129.800 E3.2329
G1 X102.700 Y129.800 F1800
; solid layer
G1 X116.560 Y128.896 F4800
G92 E0
G1 X116.396 Y129.060 E0.0069 F2880
G1 X115.830 Y129.060 E0.0239
G1 X116.560 Y128.330 E0.0548
G1 X116.560 Y127.765 E0.0717
G1 X115.265 Y129.060 E0.1266
G1 X114.699 Y129.060 E0.1435
G1 X116.560 Y127.199 E0.2223
G1 X116.560 Y126.633 E0.2392
G1 X114.133 Y129.060 E0.3419
G1 X113.567 Y129.060 E0.3589
G1 X116.560 Y126.067 E0.4856
G1 X116.560 Y125.502 E0.5025
G1 X113.002 Y129.060 E0.6531
G1 X112.436 Y129.060 E0.6701
G1 X116.560 Y124.936 E0.8446
G1 X116.560 Y124.370 E0.8616
G1 X111.870 Y129.060 E1.0601
G1 X111.305 Y129.060 E1.0770
G1 X116.560 Y123.805 E1.2995
G1 X116.560 Y123.239 E1.3164
G1 X110.739 Y129.060 E1.5629
G1 X110.173 Y129.060 E1.5798
G1 X116.560 Y122.673 E1.8502
G1 X116.560 Y122.108 E1.8671
G1 X109.608 Y129.060 E2.1614
G1 X109.042 Y129.060 E2.1783
G1 X116.560 Y121.542 E2.4966
G1 X116.560 Y120.976 E2.5135
G1 X108.476 Y129.060 E2.8557
G1 X107.911 Y129.060 E2.8727
G1 X116.560 Y120.411 E3.2388
G1 X116.560 Y119.845 E3.2558
G1 X107.345 Y129.060 E3.6459
G1 X106.779 Y129.060 E3.6628
G1 X116.560 Y119.279 E4.0769
G1 X116.560 Y118.714 E4.0938
G1 X106.214 Y129.060 E4.5318
G1 X105.648 Y129.060 E4.5487
G1 X116.560 Y118.148 E5.0107
G1 X116.560 Y117.582 E5.0276
G1 X105.082 Y129.060 E5.5135
G1 X104.516 Y129.060 E5.5304
G1 X116.560 Y117.016 E6.0403
G1 X116.560 Y116.451 E6.0572
G1 X103.951 Y129.060 E6.5910
G1 X103.440 Y129.060 E6.6063
G1 X103.440 Y129.005 E6.6079
G1 X116.560 Y115.885 E7.1633
G1 X116.560 Y115.319 E7.1803
G1 X103.440 Y128.439 E7.7357
G1 X103.440 Y127.874 E7.7526
G1 X116.560 Y114.754 E8.3080
G1 X116.560 Y114.188 E8.3250
G1 X103.440 Y127.308 E8.8804
G1 X103.440 Y126.742 E8.8973
G1 X116.560 Y113.622 E9.4527
G1 X116.560 Y113.057 E9.4697
G1 X103.440 Y126.177 E10.0251
G1 X103.440 Y125.611 E10.0420
G1 X116.560 Y112.491 E10.5974
G1 X116.560 Y111.925 E10.6143
G1 X103.440 Y125.045 E11.1698
G1 X103.440 Y124.480 E11.1867
G1 X116.560 Y111.360 E11.7421
G1 X116.560 Y110.794 E11.7590
G1 X103.440 Y123.914 E12.3145
G1 X103.440 Y123.348 E12.3314
G1 X116.560 Y110.228 E12.8868
G1 X116.560 Y109.663 E12.9037
G1 X103.440 Y122.783 E13.4591
G1 X103.440 Y122.217 E13.4761
G1 X116.560 Y109.097 E14.0315
G1 X116.560 Y108.531 E14.0484
G1 X103.440 Y121.651 E14.6038
G1 X103.440 Y121.086 E14.6208
G1 X116.560 Y107.966 E15.1762
G1 X116.560 Y107.400 E15.1931
G1 X103.440 Y120.520 E15.7485
G1 X103.440 Y119.954 E15.7655
G1 X116.560 Y106.834 E16.3209
G1 X116.560 Y106.268 E16.3378
G1 X103.440 Y119.388 E16.8932
G1 X103.440 Y118.823 E16.9101
G1 X116.560 Y105.703 E17.4656
G1 X116.560 Y105.137 E17.4825
G1 X103.440 Y118.257 E18.0379
G1 X103.440 Y117.691 E18.0548
G1 X116.560 Y104.571 E18.6103
G1 X116.560 Y104.006 E18.6272
G1 X103.440 Y117.126 E19.1826
G1 X103.440 Y116.560 E19.1995
G1 X116.560 Y103.440 E19.7549
G1 X116.560 Y102.874 E19.7719
G1 X103.440 Y115.994 E20.3273
G1 X103.440 Y115.429 E20.3442
G1 X116.560 Y102.309 E20.8996
G1 X116.560 Y101.743 E20.9166
G1 X103.440 Y114.863 E21.4720
G1 X103.440 Y114.297 E21.4889
G1 X116.560 Y101.177 E22.0443
G1 X116.560 Y100.612 E22.0613
G1 X103.440 Y113.732 E22.6167
G1 X103.440 Y113.166 E22.6336
